!!!!SEGMENT: pl-wtm--r-1674_stefani-jozef--polonez-na-wielka-orkiestre.krn
!!!cenid: 18xx:2377
!!!COM: Stefani, Józef
!!!COM-rismid: pe30024097
!!!CDT: 1800/04/16-1876/03/19
!!!CNT: Polish
!!!OTL: Polonez na wielką orkiestrę
!!!PDT: 1859
!!!AGN:
!!!SMS-siglum: PL-Wtm
!!!SMS-shelfmark: R 1674
!!!SMS-shelfwork: W
!!!SMS-variant:
!!!SMS-altvar:
!!!NIFC-rismid: 1001114532
!!!URL-scan: http://repozytorium.nifc.pl/skany/pl-wtm-nut--r1674
!!!ONB-nifc:
!!!OMD: Polonez
!!!AIN: 1 cbass 1 cello 1 clars 6 empty 1 fagot 1 flt 1 oboe 1 picco 1 timpa 1 tromp 1 viola
!!!key:
**kern	**dynam	**kern	**dynam	**kern	**dynam	**kern	**dynam	**kern	**dynam	**kern	**dynam	**kern	**kern	**dynam	**kern	**dynam	**kern	**dynam	**kern	**dynam	**kern	**dynam	**kern	**dynam	**kern	**dynam	**kern	**dynam	**kern	**dynam
*	*	*	*	*	*	*	*	*group3	*	*group3	*	*group2	*group2	*	*	*	*	*	*group1	*	*group1	*	*	*	*	*	*	*	*	*
*	*	*	*	*	*	*	*	*I""Violini	*	*I""Violini	*	*I""Tromboni	*I""Tromboni	*	*	*	*	*	*I""Corni	*	*I""Corni	*	*	*	*	*	*	*	*	*
*part16	*part16	*part15	*part15	*part14	*part14	*part13	*part13	*part12	*part12	*part11	*part11	*part10	*part9	*part9	*part8	*part8	*part7	*part7	*part6	*part6	*part5	*part5	*part4	*part4	*part3	*part3	*part2	*part2	*part1	*part1
*staff16	*	*staff15	*	*staff14	*	*staff13	*	*staff12	*	*staff11	*	*staff10	*staff9	*	*staff8	*	*staff7	*	*staff6	*	*staff5	*	*staff4	*	*staff3	*	*staff2	*	*staff1	*
*Itimpa	*	*Icbass	*	*Icello	*	*Iviola	*	*Iempty	*	*Iempty	*	*Iempty	*Iempty	*	*Itromp	*	*Ifagot	*	*Iempty	*	*Iempty	*	*Iclars	*	*Ioboe	*	*Ipicco	*	*Iflt	*
*I"Timpani	*	*I"C: Baſsi	*	*I"Violoncelli	*	*I"Viole	*	*	*	*	*	*	*	*	*I"in C Trombe	*	*I"Fagotti	*	*I"in Es.	*	*I"in B.	*	*I"in B. Clarinetti	*	*I"Oboe	*	*I"Picolo	*	*I"Flauto	*
*>[A,B,A,B,C,B,D,D,E,B]	*>[A,B,A,B,C,B,D,D,E,B]	*>[A,B,A,B,C,B,D,D,E,B]	*>[A,B,A,B,C,B,D,D,E,B]	*>[A,B,A,B,C,B,D,D,E,B]	*>[A,B,A,B,C,B,D,D,E,B]	*>[A,B,A,B,C,B,D,D,E,B]	*>[A,B,A,B,C,B,D,D,E,B]	*>[A,B,A,B,C,B,D,D,E,B]	*>[A,B,A,B,C,B,D,D,E,B]	*>[A,B,A,B,C,B,D,D,E,B]	*>[A,B,A,B,C,B,D,D,E,B]	*>[A,B,A,B,C,B,D,D,E,B]	*>[A,B,A,B,C,B,D,D,E,B]	*>[A,B,A,B,C,B,D,D,E,B]	*>[A,B,A,B,C,B,D,D,E,B]	*>[A,B,A,B,C,B,D,D,E,B]	*>[A,B,A,B,C,B,D,D,E,B]	*>[A,B,A,B,C,B,D,D,E,B]	*>[A,B,A,B,C,B,D,D,E,B]	*>[A,B,A,B,C,B,D,D,E,B]	*>[A,B,A,B,C,B,D,D,E,B]	*>[A,B,A,B,C,B,D,D,E,B]	*>[A,B,A,B,C,B,D,D,E,B]	*>[A,B,A,B,C,B,D,D,E,B]	*>[A,B,A,B,C,B,D,D,E,B]	*>[A,B,A,B,C,B,D,D,E,B]	*>[A,B,A,B,C,B,D,D,E,B]	*>[A,B,A,B,C,B,D,D,E,B]	*>[A,B,A,B,C,B,D,D,E,B]	*>[A,B,A,B,C,B,D,D,E,B]
*>A	*>A	*>A	*>A	*>A	*>A	*>A	*>A	*>A	*>A	*>A	*>A	*>A	*>A	*>A	*>A	*>A	*>A	*>A	*>A	*>A	*>A	*>A	*>A	*>A	*>A	*>A	*>A	*>A	*>A	*>A
*stria1	*	*	*	*	*	*	*	*	*	*	*	*	*	*	*	*	*	*	*	*	*	*	*	*	*	*	*	*	*	*
*clefF4	*	*clefF4	*	*clefF4	*	*clefC3	*	*clefG2	*	*clefG2	*	*clefF4	*clefC4	*	*clefG2	*	*clefF4	*	*clefG2	*	*clefG2	*	*clefG2	*	*clefG2	*	*clefG2	*	*clefG2	*
*	*	*	*	*	*	*	*	*	*	*	*	*	*	*	*	*	*	*	*ITrd5c9	*	*ITrd1c2	*	*ITrd1c2	*	*	*	*ITrd0c0	*	*	*
*k[b-e-]	*	*k[b-e-]	*	*k[b-e-]	*	*k[b-e-]	*	*k[b-e-]	*	*k[b-e-]	*	*k[b-e-]	*k[b-e-]	*	*k[b-e-]	*	*k[b-e-]	*	*k[b-e-a-]	*	*k[b-e-]	*	*k[b-e-]	*	*k[b-e-]	*	*k[b-e-]	*	*k[b-e-]	*
*B-:	*	*B-:	*	*B-:	*	*B-:	*	*B-:	*	*B-:	*	*B-:	*B-:	*	*B-:	*	*B-:	*	*B-:	*	*B-:	*	*B-:	*	*B-:	*	*B-:	*	*B-:	*
*M3/4	*	*M3/4	*	*M3/4	*	*M3/4	*	*M3/4	*	*M3/4	*	*M3/4	*M3/4	*	*M3/4	*	*M3/4	*	*M3/4	*	*M3/4	*	*M3/4	*	*M3/4	*	*M3/4	*	*M3/4	*
=1	=1	=1	=1	=1	=1	=1	=1	=1	=1	=1	=1	=1	=1	=1	=1	=1	=1	=1	=1	=1	=1	=1	=1	=1	=1	=1	=1	=1	=1	=1
!LO:TX:a:t=P::problem=przed metrum zapis&colon; dźwięk z caudą w górę to F, a z caudą w dół to B	!	!	!	!	!	!LO:TX:a:t=col b&colon;//	!	!LO:TX:a:t=Uniſ	!	!	!LO:DY:rj	!	!	!	!	!	!	!	!	!	!	!	!LO:TX:a:t=P:problem=przy kluczu widoczne bemole	!	!	!	!	!	!	!
2.r	.	8BB-/L|	.	8BB-/L|yy	.	8B-/Lyy	.	8b-'/Lyy	.	8b-'/L	f	2.r	2.r	.	2.r	.	2.r	.	2.r	.	2.r	.	2.r	.	2.r	.	2.r	.	2.r	.
!	!	!LO:TUP:b:problem=klamra łukowa	!	!LO:TUP:b:problem=klamra łukowa	!	!LO:TUP:b:problem=klamra łukowa	!	!LO:TUP:b:problem=klamra łukowa	!	!LO:TUP:b:problem=klamra łukowa	!	!	!	!	!	!	!	!	!	!	!	!	!	!	!	!	!	!	!	!
.	.	24FF/L	.	24FF/Lyy	.	24F/Lyy	.	24f/Lyy	.	24f/L	.	.	.	.	.	.	.	.	.	.	.	.	.	.	.	.	.	.	.	.
.	.	24GG/	.	24GG/yy	.	24G/yy	.	24g/yy	.	24g/	.	.	.	.	.	.	.	.	.	.	.	.	.	.	.	.	.	.	.	.
.	.	24AA/JJ	.	24AA/JJyy	.	24A/JJyy	.	24a/JJyy	.	24a/JJ	.	.	.	.	.	.	.	.	.	.	.	.	.	.	.	.	.	.	.	.
.	.	8BB-/L	.	8BB-/Lyy	.	8B-/Lyy	.	8b-/Lyy	.	8b-/L	.	.	.	.	.	.	.	.	.	.	.	.	.	.	.	.	.	.	.	.
*	*	*	*	*	*	*	*	*Xtuplet	*	*Xtuplet	*	*	*	*	*	*	*	*	*	*	*	*	*	*	*	*	*	*	*	*
!	!	!LO:TUP:b:problem=klamra łukowa	!	!LO:TUP:b:problem=klamra łukowa	!	!LO:TUP:b:problem=klamra łukowa	!	!LO:TUP:b:problem=klamra łukowa	!	!LO:TUP:b:problem=klamra łukowa	!	!	!	!	!	!	!	!	!	!	!	!	!	!	!	!	!	!	!	!
.	.	24AA/L	.	24AA/Lyy	.	24A/Lyy	.	24a/Lyy	.	24a/L	.	.	.	.	.	.	.	.	.	.	.	.	.	.	.	.	.	.	.	.
.	.	24BB-/	.	24BB-/yy	.	24B-/yy	.	24b-/yy	.	24b-/	.	.	.	.	.	.	.	.	.	.	.	.	.	.	.	.	.	.	.	.
.	.	24C/JJ	.	24C/JJyy	.	24c/JJyy	.	24cc/JJyy	.	24cc/JJ	.	.	.	.	.	.	.	.	.	.	.	.	.	.	.	.	.	.	.	.
.	.	8D/L	.	8D/Lyy	.	8d/Lyy	.	8dd\Lyy	.	8dd\L	.	.	.	.	.	.	.	.	.	.	.	.	.	.	.	.	.	.	.	.
!	!	!LO:TUP:b:problem=klamra łukowa	!	!LO:TUP:b:problem=klamra łukowa	!	!LO:TUP:b:problem=klamra łukowa	!	!LO:TUP:a:problem=klamra łukowa	!	!LO:TUP:a:problem=klamra łukowa	!	!	!	!	!	!	!	!	!	!	!	!	!	!	!	!	!	!	!	!
.	.	24C/L	.	24C/Lyy	.	24c/Lyy	.	24cc\Lyy	.	24cc\L	.	.	.	.	.	.	.	.	.	.	.	.	.	.	.	.	.	.	.	.
.	.	24D/	.	24D/yy	.	24d/yy	.	24dd\yy	.	24dd\	.	.	.	.	.	.	.	.	.	.	.	.	.	.	.	.	.	.	.	.
.	.	24E-/JJ	.	24E-/JJyy	.	24e-/JJyy	.	24ee-\JJyy	.	24ee-\JJ	.	.	.	.	.	.	.	.	.	.	.	.	.	.	.	.	.	.	.	.
=2	=2	=2	=2	=2	=2	=2	=2	=2	=2	=2	=2	=2	=2	=2	=2	=2	=2	=2	=2	=2	=2	=2	=2	=2	=2	=2	=2	=2	=2	=2
*	*	*	*	*	*	*	*	*	*	*	*	*	*	*	*	*	*	*	*	*	*	*	*	*	*^	*	*	*	*	*
2.r	.	(16F\LL	.	(yy16F\LLyy	.	(y16f\LLyy	.	(y16ff\LLyy	.	(16ff\LL	.	2.r	2.r	.	4r	.	4r	.	2.r	.	2.r	.	4r	.	4r	2ryy	.	4r	.	4r	.
.	.	16G\	.	16G\yy	.	16g\yy	.	16gg\yy	.	16gg\	.	.	.	.	.	.	.	.	.	.	.	.	.	.	.	.	.	.	.	.	.
.	.	16F\	.	16F\yy	.	16f\yy	.	16ff\yy	.	16ff\	.	.	.	.	.	.	.	.	.	.	.	.	.	.	.	.	.	.	.	.	.
.	.	16G\JJ	.	16G\JJyy	.	16g\JJyy	.	16gg\JJ)yy	.	16gg\JJ)	.	.	.	.	.	.	.	.	.	.	.	.	.	.	.	.	.	.	.	.	.
.	.	4F\)	.	4F\)yy	.	4f\)yy	.	4ff\yy	.	4ff\	.	.	.	.	4r	.	4r	.	.	.	.	.	4r	.	4r	.	.	4r	.	4r	.
!	!	!	!	!	!	!	!	!	!	!	!	!	!	!	!	!	!	!	!	!	!	!	!	!	!	!	!	!LO:TX:a:t=Col Fl.	!	!	!
.	.	4r	.	4ryy	.	4ryy	.	4ryy	.	4r	.	.	.	.	(8.f/L	.	(8.F\L	.	.	.	.	.	(8.f/L	.	(8.ff/L	8.ff\L	.	(y8.ff\Lyy	.	(8.ff\L	.
.	.	.	.	.	.	.	.	.	.	.	.	.	.	.	32g/LL	.	32G\LL	.	.	.	.	.	32g/LL	.	32gg/LL	32gg\LL	.	32gg\LLyy	.	32gg\LL	.
.	.	.	.	.	.	.	.	.	.	.	.	.	.	.	32a/JJJ	.	32A\JJJ	.	.	.	.	.	32a/JJJ	.	32aa/JJJ	32aa\JJJ	.	32aa\JJJyy	.	32aa\JJJ	.
=3	=3	=3	=3	=3	=3	=3	=3	=3	=3	=3	=3	=3	=3	=3	=3	=3	=3	=3	=3	=3	=3	=3	=3	=3	=3	=3	=3	=3	=3	=3	=3
8r	.	2.r	.	2.r	.	2.r	.	2.r	.	2.r	.	8r	8r	.	8b-/L)	.	8B-\L)	.	8fL 8B-\	.	8ddL 8b-\	.	8b-/L)	.	8bb-/L)	8bb-\L	.	8bb-\L)yy	.	8bb-\L)	.
!LO:SIC:s=16BB-\LL	!	!	!	!	!	!	!	!	!	!	!	!	!	!	!	!	!	!	!	!	!	!	!	!	!	!	!	!	!	!	!
16Re\LL	.	.	.	.	.	.	.	.	.	.	.	16dLL 16D\	16fLL 16B-\	.	16b-L 16f/	.	16dL 16D\	.	16fL 16B-\	.	16ddL 16b-\	.	16b-L 16f/	.	16bb-/L	16ff\L	.	16bb-\Lyy	.	16bb-\L	.
!LO:SIC:s=16BB-\JJ	!	!	!	!	!	!	!	!	!	!	!	!	!	!	!	!	!	!	!	!	!	!	!	!	!	!	!	!	!	!	!
16Re\JJ	.	.	.	.	.	.	.	.	.	.	.	16dJJ 16D\	16fJJ 16B-\	.	16b-JJ 16f/	.	16dJJ 16D\	.	16fJJ 16B-\	.	16ddJJ 16b-\	.	16b-JJ 16f/	.	16bb-/JJ	16ff\JJ	.	16bb-\JJyy	.	16bb-\JJ	.
*	*	*	*	*	*	*	*	*	*	*	*	*tremolo	*tremolo	*	*tremolo	*	*tremolo	*	*tremolo	*	*tremolo	*	*tremolo	*	*tremolo	*tremolo	*	*tremolo	*	*tremolo	*
!LO:SIC:s=8BB-\L	!	!	!	!	!	!	!	!	!	!	!	!	!	!	!	!	!	!	!	!	!	!	!	!	!	!	!	!LO:TX:a:t=..	!	!LO:TX:a:t=..	!
8Re\L	.	.	.	.	.	.	.	.	.	.	.	8dL 8D\	8fL 8B-\	.	8b-L 8f/	.	8dL 8D\	.	8fL 8B-\	.	8ddL 8b-\	.	8b-L 8f/	.	8bb-/L	8ff\L	.	8bb-'\Lyy	.	8bb-'\L	.
!LO:SIC:s=8BB-\J	!	!	!	!	!	!	!	!	!	!	!	!	!	!	!	!	!	!	!	!	!	!	!	!	!	!	!	!	!	!	!
8Re\J	.	.	.	.	.	.	.	.	.	.	.	8dJ 8D\	8fJ 8B-\	.	8b-J 8f/	.	8dJ 8D\	.	8fJ 8B-\	.	8ddJ 8b-\	.	8b-J 8f/	.	8bb-/J	8ff\J	.	8bb-'\Jyy	.	8bb-'\J	.
!LO:SIC:s=8F/L	!	!	!	!	!	!	!	!	!	!	!	!	!	!	!	!	!	!	!	!	!	!	!	!	!	!	!	!LO:TX:a:t=..	!	!LO:TX:a:t=..	!
8Re/L	.	.	.	.	.	.	.	.	.	.	.	8AL 8AA\	8fL 8c\	.	8ccL 8f/	.	8AL 8AA\	.	8f\L	.	8ccL 8f\	.	8ccL 8f/	.	8ccc/L	8ff\L	.	8ccc'\Lyy	.	8ccc'\L	.
!LO:SIC:s=8F/J	!	!	!	!	!	!	!	!	!	!	!	!	!	!	!	!	!	!	!	!	!	!	!	!	!	!	!	!	!	!	!
8Re/J	.	.	.	.	.	.	.	.	.	.	.	8AJ 8AA\	8fJ 8c\	.	8ccJ 8f/	.	8AJ 8AA\	.	8f\J	.	8ccJ 8f\	.	8ccJ 8f/	.	8ccc/J	8ff\J	.	8ccc'\Jyy	.	8ccc'\J	.
*	*	*	*	*	*	*	*	*	*	*	*	*Xtremolo	*Xtremolo	*	*Xtremolo	*	*Xtremolo	*	*Xtremolo	*	*Xtremolo	*	*Xtremolo	*	*Xtremolo	*Xtremolo	*	*Xtremolo	*	*Xtremolo	*
*	*	*	*	*	*	*	*	*	*	*	*	*	*	*	*	*	*	*	*	*	*	*	*	*	*v	*v	*	*	*	*	*
!!LO:PB:g=original
=4	=4	=4	=4	=4	=4	=4	=4	=4	=4	=4	=4	=4	=4	=4	=4	=4	=4	=4	=4	=4	=4	=4	=4	=4	=4	=4	=4	=4	=4	=4
!LO:SIC:s=8BB-\L	!	!	!	!	!	!	!	!	!	!	!	!	!	!	!	!	!	!	!	!	!	!	!	!	!	!	!LO:TX:a:t=//	!	!	!
8Re\L	.	4r	.	4ryy	.	4r	.	4r	.	4r	.	8B-L 8BB-\	8dL 8B-\	.	8ddL 8b-\	.	8B-L 8BB-\	.	8f\L	.	8ddL 8b-\	.	8ddL 8b-\	.	8bb-L 8ff\	.	8ddd\Lyy	.	8ddd\L	.
!LO:SIC:s=8BB-\J	!	!	!	!	!	!	!	!	!	!	!	!	!	!	!	!	!	!	!	!	!	!	!	!	!	!	!	!	!	!
8Re\J	.	.	.	.	.	.	.	.	.	.	.	8G-XJ 8GG-X\	8cJ 8B-\	.	8eenJ 8b-\	.	8G-XJ 8GG-X\	.	8g-X\J	.	8ccJ 8b-\	.	8eeXJ 8b-\	.	8bb-\J	.	8eeen\Jyy	.	8eeen\J	.
!LO:SIC:s=4F/	!	!	!	!	!	!	!	!	!	!	!	!	!	!	!	!	!	!	!	!	!	!	!	!	!	!	!	!	!	!
4Re/	.	4r	.	4ryy	.	4r	.	4r	.	4r	.	4F 4FF/	4c 4A\	.	4ff 4a\	.	4F 4FF/	.	4f\	.	4cc 4f/	.	4ff 4a\	.	4aa\	.	4fff\yy	.	4fff\	.
4r	.	(16F\LL	.	(y16F\LLyy	.	(16f\LL	.	(16ff\LL	.	(16ff\LL	.	4r	4r	.	4r	.	4r	.	4r	.	4r	.	4r	.	4r	.	4ryy	.	4r	.
.	.	16En\	.	16En\yy	.	16en\	.	16een\	.	16een\	.	.	.	.	.	.	.	.	.	.	.	.	.	.	.	.	.	.	.	.
.	.	16F\	.	16F\yy	.	16f\	.	16ff\	.	16ff\	.	.	.	.	.	.	.	.	.	.	.	.	.	.	.	.	.	.	.	.
.	.	16F#X\JJ)	.	16F#X\JJ)yy	.	16f#X\JJ)	.	16ff#X\JJ)	.	16ff#X\JJ)	.	.	.	.	.	.	.	.	.	.	.	.	.	.	.	.	.	.	.	.
=5	=5	=5	=5	=5	=5	=5	=5	=5	=5	=5	=5	=5	=5	=5	=5	=5	=5	=5	=5	=5	=5	=5	=5	=5	=5	=5	=5	=5	=5	=5
*	*	*	*	*	*	*	*	*	*	*	*	*	*	*	*	*	*	*	*^	*	*^	*	*	*	*	*	*	*	*	*
8r	.	8G\L	.	8G\Lyy	.	8g\L	.	8gg\L	.	8gg\L	.	8r	8r	.	8r	.	8r	.	8r	8ryy	.	8r	8ryy	.	8r	.	8r	.	8ryy	.	8r	.
!LO:SIC:s=16BB-\LL	!	!	!	!	!	!	!	!	!	!	!	!	!	!	!	!	!	!	!	!	!	!	!	!	!	!	!	!	!	!	!	!
16Re\LL	.	16E-\L	.	16E-\Lyy	.	16b-L 16e-\	.	16ggL 16b-\	.	16ggL 16b-'\	.	16E-\LL	16B-LL 16G\	.	16gLL 16e-/	.	16E-LL 16EE-/	.	16e-/LL	16e-\LL	.	16b-/LL	16b-\LL	.	16b-LL 16g\	.	16gg\LL	.	16gg\LLyy	.	16gg\LL	.
!LO:SIC:s=16BB-\JJ	!	!	!	!	!	!	!	!	!	!	!	!	!	!	!	!	!	!	!	!	!	!	!	!	!	!	!	!	!	!	!	!
16Re\JJ	.	16E-\JJ	.	16E-\JJyy	.	16b-JJ 16e-\	.	16ggJJ 16b-\	.	16ggJJ 16b-'\	.	16E-\JJ	16B-JJ 16G\	.	16gJJ 16e-/	.	16E-JJ 16EE-/	.	16e-/JJ	16e-\JJ	.	16b-/JJ	16b-\JJ	.	16b-JJ 16g\	.	16gg\JJ	.	16gg\JJyy	.	16gg\JJ	.
*tremolo	*	*tremolo	*	*tremolo	*	*tremolo	*	*tremolo	*	*tremolo	*	*tremolo	*tremolo	*	*tremolo	*	*tremolo	*	*tremolo	*tremolo	*	*tremolo	*tremolo	*	*tremolo	*	*tremolo	*	*tremolo	*	*tremolo	*
!LO:SIC:s=8BB-\L	!	!	!	!	!	!	!	!	!	!LO:TX:a:t=..	!	!	!	!	!	!	!	!	!	!	!	!	!	!	!	!	!	!	!	!	!	!
8Re\L	.	8E-\L	.	8E-\Lyy	.	8b-L 8e-\	.	8ggL 8b-\	.	8ggL 8b-'\	.	8E-\L	8B-L 8G\	.	8gL 8e-/	.	8E-L 8EE-/	.	8e-/L	8e-\L	.	8b-/L	8b-\L	.	8b-L 8g\	.	8gg\L	.	8gg\Lyy	.	8gg\L	.
!LO:SIC:s=8BB-\J	!	!	!	!	!	!	!	!	!	!	!	!	!	!	!	!	!	!	!	!	!	!	!	!	!	!	!	!	!	!	!	!
8Re\J	.	8E-\J	.	8E-\Jyy	.	8b-J 8e-\	.	8ggJ 8b-\	.	8ggJ 8b-'\	.	8E-\J	8B-J 8G\	.	8gJ 8e-/	.	8E-J 8EE-/	.	8e-/J	8e-\J	.	8b-/J	8b-\J	.	8b-J 8g\	.	8gg\J	.	8gg\Jyy	.	8gg\J	.
!	!	!	!	!	!	!	!	!	!	!LO:TX:a:t=..	!	!	!	!	!	!	!	!	!	!	!	!	!	!	!	!	!	!	!	!	!	!
4r	.	8D\L	.	8D\Lyy	.	8ddL 8d\	.	8ff#XL 8dd\	.	8aaL 8a'\	.	8D\L	8AL 8F#X/	.	8aL 8f#X/	.	8DL 8DD/	.	8d/L	8d\L	.	8dd/L	8dd\L	.	8ddL 8a\	.	8aaL 8ff#X\	.	8aa\Lyy	.	8aa\L	.
.	.	8D\J	.	8D\Jyy	.	8ddJ 8d\	.	8ff#J 8dd\	.	8aaJ 8a'\	.	8D\J	8AJ 8F#/	.	8aJ 8f#/	.	8DJ 8DD/	.	8d/J	8d\J	.	8dd/J	8dd\J	.	8ddJ 8a\	.	8aaJ 8ff#\	.	8aa\Jyy	.	8aa\J	.
*Xtremolo	*	*Xtremolo	*	*Xtremolo	*	*Xtremolo	*	*Xtremolo	*	*Xtremolo	*	*Xtremolo	*Xtremolo	*	*Xtremolo	*	*Xtremolo	*	*Xtremolo	*Xtremolo	*	*Xtremolo	*Xtremolo	*	*Xtremolo	*	*Xtremolo	*	*Xtremolo	*	*Xtremolo	*
=6	=6	=6	=6	=6	=6	=6	=6	=6	=6	=6	=6	=6	=6	=6	=6	=6	=6	=6	=6	=6	=6	=6	=6	=6	=6	=6	=6	=6	=6	=6	=6	=6
*	*	*	*	*	*	*	*	*	*	*	*	*	*^	*	*^	*	*	*	*	*	*	*	*	*	*^	*	*	*	*	*	*	*
2.r	.	8G\L	.	8G\Lyy	.	8ddL 8g\	.	8ggL 8dd\	.	8bb-'\L	.	8G\L	8B-L 8G/	2ryy	.	8b-L 8g/	2ryy	.	8GL 8GG/	.	8dL/	8dL\	.	8dd/L	8dd\L	.	8ddL 8b-\	2ryy	.	8bb-L 8gg\	.	8bb-'\Lyy	.	8bb-'\L	.
.	.	8E-\J	.	8E-\Jyy	.	8ee-J 8e-\	.	8ggJ 8cc\	.	8ccc'\J	.	8E-\J	8cJ 8G/	.	.	8ccJ 8g/	.	.	8E-J 8EE-/	.	8e-J/	8e-J\	.	8ee-/J	8cc\J	.	8cc\J	.	.	8bb-J 8gg\	.	8ccc'\Jyy	.	8ccc'\J	.
.	.	4D\	.	4D\yy	.	4dd 4d\	.	4ff#X 4a\	.	4ddd'\	.	4D\	4A 4F#X/	.	.	4dd 4f#X/	.	.	4D 4DD/	.	4d/	4d\	.	4dd/	4dd\	.	4dd 4a\	.	.	4aa 4ff#X\	.	4ddd\yy	.	4ddd\	.
.	.	4E-\	.	4E-\yy	.	4cc 4e-\	.	4gg 4cc\	.	4ccc'\	.	4E-\	4c/	4G\	.	4cc/	4g\	.	4E- 4EE-/	.	4e-/	4e-\	.	4ee-/	4cc\	.	4cc/	4cc 4g\	.	4gg\	.	4ccc\yy	.	4ccc\	.
*	*	*	*	*	*	*	*	*	*	*	*	*	*v	*v	*	*	*	*	*	*	*	*	*	*	*	*	*v	*v	*	*	*	*	*	*	*
*	*	*	*	*	*	*	*	*	*	*	*	*	*	*	*v	*v	*	*	*	*	*	*	*	*	*	*	*	*	*	*	*	*	*
=7	=7	=7	=7	=7	=7	=7	=7	=7	=7	=7	=7	=7	=7	=7	=7	=7	=7	=7	=7	=7	=7	=7	=7	=7	=7	=7	=7	=7	=7	=7	=7	=7
!LO:SIC:s=8F/L	!	!	!	!	!	!	!	!	!	!	!	!	!	!	!	!	!	!	!	!	!	!	!	!	!	!	!	!	!	!	!	!
8Re/L	.	8F\	.	8F\yy	.	16b-LL| 16f\	.	16ffLL| 16dd\	.	16bb-'\LL	.	8F\	8d 8B-\	.	8dd 8b-\	.	16F 16FF/	.	8f/	8f\	.	8dd/	8b-\	.	16ddLL 16b-\|	.	16ff\LL|	.	16bb-\LL|	.	16bb-\LL|	.
*	*	*	*	*	*	*	*	*	*	*	*	*	*	*	*	*	*clefC4	*	*	*	*	*	*	*	*	*	*	*	*	*	*	*
.	.	.	.	.	.	(16f 16d\	.	(16dd\	.	(16ff\	.	.	.	.	.	.	(16fLL 16d\	.	.	.	.	.	.	.	(16ff 16dd 16b-\	.	(16ff 16dd\	.	(16ff\	.	(16ddd\	.
!LO:SIC:s=8F/J	!	!	!	!	!	!	!	!	!	!	!	!	!	!	!	!	!	!	!	!	!	!	!	!	!	!	!	!	!	!	!	!
8Re/J	.	8r	.	8ryy	.	16en 16c#X\	.	16cc#X\	.	16een\	.	8r	8d 8B-\	.	8dd 8b-\	.	16en 16c#X\	.	8f/	8f\	.	8dd/	8b-\	.	16eeX 16cc#X\	.	16een 16cc#X\	.	16een\	.	16ccc#X\	.
.	.	.	.	.	.	16fJJ 16d\	.	16dd\JJ	.	16ff\JJ	.	.	.	.	.	.	16fJJ 16d\	.	.	.	.	.	.	.	16ffJJ 16dd\	.	16ffJJ 16dd\	.	16ff\JJ	.	16ddd\JJ	.
8r	.	8F\	.	8F\yy	.	16eLL 16c#\	.	16cc#\LL	.	16ee\LL	.	8F 8FF/	8r	.	8r	.	16eLL 16c#\	.	8r	8ryy	.	8r	8ryy	.	16eeLL 16cc#\	.	16eeLL 16cc#\	.	16ee\LL	.	16ccc#\LL	.
.	.	.	.	.	.	16f 16d\	.	16dd\	.	16ff\	.	.	.	.	.	.	16f 16d\	.	.	.	.	.	.	.	16ff 16dd\	.	16ff 16dd\	.	16ff\	.	16ddd\	.
!LO:SIC:s=8F/	!	!	!	!	!	!	!	!	!	!	!	!	!	!	!	!	!	!	!	!	!	!	!	!	!	!	!	!	!	!	!	!
8Re/	.	8r	.	8ryy	.	16e 16c#\	.	16cc#\	.	16ee\	.	8r	8d 8B-\	.	8b- 8d/	.	16e 16c#\	.	8f/	8f\	.	8dd/	8b-\	.	16ee 16cc#\	.	16ee 16cc#\	.	16ee\	.	16ccc#\	.
.	.	.	.	.	.	16fJJ 16d\	.	16dd\JJ)	.	16ff\JJ)	.	.	.	.	.	.	16fJJ 16d\	.	.	.	.	.	.	.	16ffJJ 16dd\	.	16ffJJ 16dd\	.	16ff\JJ	.	16ddd\JJ)	.
!	!	!	!	!	!	!	!	!	!	!	!	!	!	!	!LO:N:vis=8	!	!	!	!	!	!	!	!	!	!	!	!	!	!	!	!	!
8r	.	4FF/	.	4FF/yy	.	(16eLL 16c#\)	.	(16cc#\LL	.	(16ee\LL	.	4F 4FF/	8r	.	16r	.	16eLL 16c#\	.	8r	8ryy	.	8r	8ryy	.	16eeLL 16cc#\	.	16eeLL 16cc#\	.	16ee\LL	.	(16ccc#\LL	.
!	!	!	!	!	!	!	!	!	!	!	!	!	!	!	!LO:N:vis=8	!	!	!	!	!	!	!	!	!	!	!	!	!	!	!	!	!
.	.	.	.	.	.	16f 16d\	.	16dd\	.	16ff\	.	.	.	.	16r	.	16f 16d\	.	.	.	.	.	.	.	16ff 16dd\	.	16ff 16dd\	.	16ff\	.	16ddd\	.
!LO:SIC:s=8F/	!	!	!	!	!	!	!	!	!	!	!	!	!	!	!	!	!	!	!	!	!	!	!	!	!	!	!	!	!	!	!	!
8Re/	.	.	.	.	.	16e-X 16cn\	.	16ccn\	.	16ee-X\	.	.	8e- 8A\	.	8a 8c/	.	16e-X 16cn\	.	8f 8AX/	8ryy	.	8cc 8f/	8ryy	.	16ee- 16cc\	.	16ee-X 16ccn\	.	16ee-X\	.	16cccn\	.
.	.	.	.	.	.	16cJJ 16F\)	.	16f\JJ)	.	16cc\JJ)	.	.	.	.	.	.	16cJJ 16F\)	.	.	.	.	.	.	.	16ccJJ 16a\)	.	16ccJJ 16a\)	.	16cc\JJ)	.	16ff\JJ)	.
*	*	*	*	*	*	*	*	*	*	*	*	*	*	*	*	*	*	*	*v	*v	*	*	*	*	*	*	*	*	*	*	*	*
!!LO:PB:g=original
=8	=8	=8	=8	=8	=8	=8	=8	=8	=8	=8	=8	=8	=8	=8	=8	=8	=8	=8	=8	=8	=8	=8	=8	=8	=8	=8	=8	=8	=8	=8	=8
*	*	*	*	*	*	*	*	*	*	*	*	*^	*^	*	*	*	*	*	*	*	*	*	*	*^	*	*^	*	*	*	*	*
!LO:SIC:s=8BB-\	!	!	!	!	!	!	!	!	!	!	!	!	!	!	!	!	!	!	!	!	!	!	!	!	!	!	!	!	!	!	!	!	!	!	!
8Re\	.	8BB-/	.	8BB-/yy	.	8B-/	.	8d/	.	8b-\	.	8B- 8BB-\	2ryy	8d 8B-\	2ryy	.	8b- 8d/	.	8B- 8D/	.	8f 8B-/	.	8dd 8b-\	2ryy	.	8dd 8b-\	2ryy	.	8dd/	8b-\	.	8b-\	.	8dd\	.
8r	.	8r	.	8ryy	.	8r	.	8r	.	8r	.	8r	.	8r	.	.	8r	.	8r	.	8r	.	8r	.	.	8r	.	.	8r	8ryy	.	8r	.	8r	.
*	*	*	*	*	*	*	*	*	*	*	*	*	*	*	*	*	*	*	*clefF4	*	*	*	*	*	*	*	*	*	*	*	*	*	*	*	*
!LO:SIC:s=4BB-\	!	!	!	!	!	!	!	!	!	!	!	!	!	!	!	!	!	!	!	!	!	!	!	!	!	!	!	!	!	!	!	!	!	!	!
4Re\	.	4G\	.	4G\yy	.	4g 4B-\	.	4dd 4g/	.	4bb- 4b-\	.	4G 4GG/	.	4d 4B-\	.	.	4b- 4d/	.	4G 4GG/	.	4g 4B-/	.	4dd 4b-\	.	.	4dd 4b-\	.	.	4bb- 4dd\	2ryy	.	4bb-\	.	4bb-\	.
!LO:SIC:s=4BB-\	!	!	!	!	!	!	!	!	!	!	!	!	!	!	!	!	!	!	!	!	!	!	!	!	!	!	!	!	!	!	!	!	!	!	!
4Re\	.	4C/	.	4C/yy	.	4g 4en 4G/	.	4cc 4g/	.	4een 4b-\	.	4C/	4C\	4c/	4G\	.	4b- 4en/	.	4C 4CC/	.	4g 4B-/	.	4cc/	4b-\	.	4cc/	4g\	.	4een 4b-\	.	.	4een\	.	4bb-\	.
*	*	*	*	*	*	*	*	*	*	*	*	*v	*v	*	*	*	*	*	*	*	*	*	*v	*v	*	*	*	*	*v	*v	*	*	*	*	*
*	*	*	*	*	*	*	*	*	*	*	*	*	*v	*v	*	*	*	*	*	*	*	*	*	*	*	*	*	*	*	*	*	*
=9	=9	=9	=9	=9	=9	=9	=9	=9	=9	=9	=9	=9	=9	=9	=9	=9	=9	=9	=9	=9	=9	=9	=9	=9	=9	=9	=9	=9	=9	=9	=9
!LO:SIC:s=8F/	!	!	!	!	!	!	!	!	!	!	!	!	!	!	!	!	!	!	!	!	!	!	!	!	!	!	!	!	!	!	!
8Re/	.	8F\	.	8F\yy	.	8f 8A/	.	8cc 8f/	.	8ff 8a\	.	8F\	8c 8A\	.	8a 8f/	.	8F 8FF/	.	8f 8AX/	.	8cc 8f/	.	8cc/	8f\	.	8ff 8a\	.	8ff\	.	8aa\	.
*	*	*	*	*	*	*	*	*tuplet	*	*tuplet	*	*	*	*	*	*	*clefC4	*	*	*	*	*	*	*	*	*	*	*	*	*	*
!	!	!	!	!	!	!	!	!LO:TUP:b:problem=klamra łukowa	!	!LO:TUP:a:problem=klamra łukowa	!	!	!	!	!	!	!	!	!	!	!	!	!LO:TUP:b:problem=klamra łukowa	!	!	!LO:TUP:a:problem=klamra łukowa	!	!LO:TUP:a:problem=klamra łukowa	!	!LO:TUP:a:problem=klamra łukowa	!
8r	.	8r	.	8ry	.	8r	.	24en/LL	.	24een\LL	.	8r	8r	.	8r	.	8r	.	8r	.	8r	.	24eX/LL	8ryy	.	24een\LL	.	24een\LL	.	24een\LL	.
.	.	.	.	.	.	.	.	24f/	.	24ff\	.	.	.	.	.	.	.	.	.	.	.	.	24f/	.	.	24ff\	.	24ff\	.	24ff\	.
.	.	.	.	.	.	.	.	24g/JJ	.	24gg\JJ	.	.	.	.	.	.	.	.	.	.	.	.	24g/JJ	.	.	24gg\JJ	.	24gg\JJ	.	24gg\JJ	.
4r	.	8r	.	8ryy	.	8r	.	8f/	.	8ff\	.	4r	4r	.	4r	.	4r	.	4r	.	4r	.	8f/	4.ryy	.	8ff\	.	8ff\	.	8ff\	.
!	!	!LO:TUP:a:problem=klamra łukowa	!	!LO:TUP:a:problem=klamra łukowa	!	!LO:TUP:a:problem=klamra łukowa	!	!	!	!	!	!	!	!	!	!	!	!	!	!	!	!	!	!	!	!	!	!	!	!	!
.	.	24En\LL	.	24En\LLyy	.	24en\LL	.	8r	.	8r	.	.	.	.	.	.	.	.	.	.	.	.	8r	.	.	8r	.	8r	.	8r	.
.	.	24F\	.	24F\yy	.	24f\	.	.	.	.	.	.	.	.	.	.	.	.	.	.	.	.	.	.	.	.	.	.	.	.	.
.	.	24G\J	.	24G\Jyy	.	24g\J	.	.	.	.	.	.	.	.	.	.	.	.	.	.	.	.	.	.	.	.	.	.	.	.	.
4r	.	8F\J	.	8F\Jyy	.	8f\J	.	4r	.	4r	.	4r	4r	.	4r	.	8r	.	4r	.	4r	.	8r	.	.	4r	.	4r	.	4r	.
!LO:TX:a:t=[segno]:problem=znak segno na kresce taktowej	!	!LO:TX:a:t=[segno]:problem=znak segno na kresce taktowej	!	!LO:TX:a:t=[segno]:problem=znak segno na kresce taktowej	!	!LO:TX:a:t=[segno]:problem=znak segno na kresce taktowej	!	!LO:TX:a:t=[segno]:problem=znak segno na kresce taktowej	!	!LO:TX:a:t=[segno]:problem=znak segno na kresce taktowej	!	!LO:TX:a:t=[segno]:problem=znak segno na kresce taktowej	!LO:TX:a:t=[segno]:problem=znak segno na kresce taktowej	!	!LO:TX:a:t=[segno]:problem=znak segno na kresce taktowej	!	!LO:TX:a:t=[segno]:problem=znak segno na kresce taktowej	!	!LO:TX:a:t=[segno]:problem=znak segno na kresce taktowej	!	!LO:TX:a:t=[segno]:problem=znak segno na kresce taktowej	!	!	!LO:TX:a:t=[segno]:problem=znak segno na kresce taktowej	!	!LO:TX:a:t=[segno]:problem=znak segno na kresce taktowej	!	!LO:TX:a:t=[segno]:problem=znak segno na kresce taktowej	!	!LO:TX:a:t=[segno]:problem=znak segno na kresce taktowej	!
.	.	8r	.	8ryy	.	8r	.	.	.	.	.	.	.	.	.	.	8F/	.	.	.	.	.	8f/	8f\	.	.	.	.	.	.	.
*	*	*	*	*	*	*	*	*	*	*	*	*	*	*	*	*	*	*	*	*	*	*	*v	*v	*	*	*	*	*	*	*
=10||	=10||	=10||	=10||	=10||	=10||	=10||	=10||	=10||	=10||	=10||	=10||	=10||	=10||	=10||	=10||	=10||	=10||	=10||	=10||	=10||	=10||	=10||	=10||	=10||	=10||	=10||	=10||	=10||	=10||	=10||
*>B	*>B	*>B	*>B	*>B	*>B	*>B	*>B	*>B	*>B	*>B	*>B	*>B	*>B	*>B	*>B	*>B	*>B	*>B	*>B	*>B	*>B	*>B	*>B	*>B	*>B	*>B	*>B	*>B	*>B	*>B
*	*	*	*	*	*	*	*	*	*	*	*	*	*	*	*	*	*	*	*^	*	*	*	*	*	*	*	*	*	*	*
*	*	*	*	*	*	*	*	*	*	*	*	*	*	*	*	*	*clefC4	*	*	*2\right	*	*	*	*	*	*	*	*	*	*	*
!	!	!	!LO:DY:rj	!	!LO:DY:rj	!	!	!	!	!	!	!	!	!	!	!	!	!	!	!	!	!	!LO:DY:rj	!	!	!	!	!	!	!	!
2.ryy	.	8FF/	p	8FF/yy	p	8r	.	8r	.	8r	p	2.r	2.r	.	2.r	.	8e-L 8c'\	.	[2.f/	2.e-\	.	2.cc [2.f/	p	8ee-L 8cc'\	.	2.r	.	2.r	.	2.r	.
!	!	!	!	!	!	!	!LO:DY:rj	!	!	!	!	!	!	!	!	!	!	!	!	!	!	!	!	!	!	!	!	!	!	!	!
.	.	8r	.	8ryy	.	8F/	p	8e- 8c/	.	8f 8A/	.	.	.	.	.	.	(16e-L 16c\	.	.	.	.	.	.	(16ee-L 16cc\	.	.	.	.	.	.	.
.	.	.	.	.	.	.	.	.	.	.	.	.	.	.	.	.	16dJJ 16B-\)	.	.	.	.	.	.	16ddJJ 16b-\)	.	.	.	.	.	.	.
*	*	*	*	*	*	*rep	*	*rep	*	*rep	*	*	*	*	*	*	*	*	*	*	*	*	*	*	*	*	*	*	*	*	*
.	.	8F\	.	8F\yy	.	8r	.	8r	.	8r	.	.	.	.	.	.	8cL 8A\	.	.	.	.	.	.	8ccL 8a\	.	.	.	.	.	.	.
.	.	8r	.	8ryy	.	8F/	.	8e- 8c/	.	8f 8A/	.	.	.	.	.	.	8Bn 8G#X'\	.	.	.	.	.	.	8bX 8g#X'\	.	.	.	.	.	.	.
*	*	*	*	*	*	*Xrep	*	*Xrep	*	*Xrep	*	*	*	*	*	*	*	*	*	*	*	*	*	*	*	*	*	*	*	*	*
*	*	*	*	*	*	*rep	*	*rep	*	*rep	*	*	*	*	*	*	*	*	*	*	*	*	*	*	*	*	*	*	*	*	*
.	.	8F\	.	8F\yy	.	8r	.	8r	.	8r	.	.	.	.	.	.	8c 8A'\	.	.	.	.	.	.	8cc 8a'\	.	.	.	.	.	.	.
.	.	8r	.	8ryy	.	8F/	.	8e- 8c/	.	8f 8A/	.	.	.	.	.	.	8e-J 8c'\	.	.	.	.	.	.	8ee-J 8cc'\	.	.	.	.	.	.	.
*	*	*	*	*	*	*Xrep	*	*Xrep	*	*Xrep	*	*	*	*	*	*	*	*	*	*	*	*	*	*	*	*	*	*	*	*	*
=11	=11	=11	=11	=11	=11	=11	=11	=11	=11	=11	=11	=11	=11	=11	=11	=11	=11	=11	=11	=11	=11	=11	=11	=11	=11	=11	=11	=11	=11	=11	=11
*	*	*rep	*	*repy	*	*	*	*	*	*	*	*	*	*	*	*	*	*	*	*	*	*	*	*	*	*	*	*	*	*	*
2.ryy	.	8FF/	.	8FF/yy	.	8r	.	8r	.	8r	.	2.r	2.r	.	4r	.	(16gLL 16e-\	.	2.f/]	2.f 2.B-\	.	2.dd 2.f/]	.	(16ggLL 16ee-\	.	4r	.	4r	.	4r	.
.	.	.	.	.	.	.	.	.	.	.	.	.	.	.	.	.	16f 16d\	.	.	.	.	.	.	16ff 16dd\	.	.	.	.	.	.	.
.	.	8r	.	8ryy	.	8F/	.	8d/	.	8f 8B-/	.	.	.	.	.	.	16e# 16c#X\	.	.	.	.	.	.	16eeX 16cc#X\	.	.	.	.	.	.	.
.	.	.	.	.	.	.	.	.	.	.	.	.	.	.	.	.	16fJJ 16d\)	.	.	.	.	.	.	16ffJJ 16dd\)	.	.	.	.	.	.	.
*	*	*	*	*	*	*rep	*	*rep	*	*rep	*	*	*	*	*	*	*	*	*	*	*	*	*	*	*	*	*	*	*	*	*
.	.	8F\	.	8F\yy	.	8r	.	8r	.	8r	.	.	.	.	8r	p	4d 4B-\	.	.	.	.	.	.	4dd 4b-\	.	8r	.	8r	.	8r	.
.	.	8r	.	8ryy	.	8F/	.	8d/	.	8f 8B-/	.	.	.	.	(16ddLL 16b-/	.	.	.	.	.	.	.	.	.	.	(16bb-\LL	.	16ddd\LL	.	(16ddd\LL	.
.	.	.	.	.	.	.	.	.	.	.	.	.	.	.	16ccJJ 16a/	.	.	.	.	.	.	.	.	.	.	16aa\JJ	.	16ccc\JJ	.	16ccc\JJ	.
*	*	*	*	*	*	*Xrep	*	*Xrep	*	*Xrep	*	*	*	*	*	*	*	*	*	*	*	*	*	*	*	*	*	*	*	*	*
*	*	*	*	*	*	*rep	*	*rep	*	*rep	*	*	*	*	*	*	*	*	*	*	*	*	*	*	*	*	*	*	*	*	*
.	.	8F\	.	8F\yy	.	8r	.	8r	.	8r	.	.	.	.	16b-LL 16g/	.	4r	.	.	.	.	.	.	4r	.	16gg\LL	.	16bb-\LL	.	16bb-\LL	.
.	.	.	.	.	.	.	.	.	.	.	.	.	.	.	16a 16f/	.	.	.	.	.	.	.	.	.	.	16ff\	.	16aa\	.	16aa\	.
.	.	8r	.	8ryy	.	8F/	.	8d/	.	8f 8B-/	.	.	.	.	16g 16e-/	.	.	.	.	.	.	.	.	.	.	16ee-\	.	16gg\	.	16gg\	.
.	.	.	.	.	.	.	.	.	.	.	.	.	.	.	16fJJ 16d/)	.	.	.	.	.	.	.	.	.	.	16dd\JJ)	.	16ff\JJ	.	16ff\JJ)	.
*	*	*Xrep	*	*Xrep	*	*Xrep	*	*Xrep	*	*Xrep	*	*	*	*	*	*	*	*	*	*	*	*	*	*	*	*	*	*	*	*	*
!!LO:PB:g=original
=12	=12	=12	=12	=12	=12	=12	=12	=12	=12	=12	=12	=12	=12	=12	=12	=12	=12	=12	=12	=12	=12	=12	=12	=12	=12	=12	=12	=12	=12	=12	=12
2.ryy	.	8FF/	.	8FF/yy	.	8r	.	8r	.	8r	.	2.r	2.r	.	2.r	.	8e-L 8c'\	.	[2.f/	2.e-\	.	2.cc [2.f/	.	8ee-L 8cc'\	.	2.r	.	2.r	.	2.r	.
.	.	8r	.	8ryy	.	8F/	.	8e- 8c/	.	8f 8A/	.	.	.	.	.	.	(16e-L 16c\	.	.	.	.	.	.	(16ee-L 16cc\	.	.	.	.	.	.	.
.	.	.	.	.	.	.	.	.	.	.	.	.	.	.	.	.	16dJJ 16B-\)	.	.	.	.	.	.	16ddJJ 16b-\)	.	.	.	.	.	.	.
.	.	.	.	.	.	.	.	.	.	.	.	.	.	.	.	.	(<8qd 8qB-/	.	.	.	.	.	.	(<8qdd 8qb-/	.	.	.	.	.	.	.
*	*	*	*	*	*	*rep	*	*rep	*	*rep	*	*	*	*	*	*	*	*	*	*	*	*	*	*	*	*	*	*	*	*	*
.	.	8F\	.	8F\yy	.	8r	.	8r	.	8r	.	.	.	.	.	.	8cL 8A\)	.	.	.	.	.	.	8ccL 8a\)	.	.	.	.	.	.	.
.	.	8r	.	8ryy	.	8F/	.	8e- 8c/	.	8f 8A/	.	.	.	.	.	.	8Bn 8G#X'\	.	.	.	.	.	.	8bX 8g#X'\	.	.	.	.	.	.	.
*	*	*	*	*	*	*Xrep	*	*Xrep	*	*Xrep	*	*	*	*	*	*	*	*	*	*	*	*	*	*	*	*	*	*	*	*	*
*	*	*	*	*	*	*rep	*	*rep	*	*rep	*	*	*	*	*	*	*	*	*	*	*	*	*	*	*	*	*	*	*	*	*
.	.	8F\	.	8F\yy	.	8r	.	8r	.	8r	.	.	.	.	.	.	8c 8A'\	.	.	.	.	.	.	8cc 8a'\	.	.	.	.	.	.	.
.	.	8r	.	8ryy	.	8F/	.	8e- 8c/	.	8f 8A/	.	.	.	.	.	.	8e-J 8c'\	.	.	.	.	.	.	8ee-J 8cc'\	.	.	.	.	.	.	.
*	*	*	*	*	*	*Xrep	*	*Xrep	*	*rep	*	*	*	*	*	*	*	*	*	*	*	*	*	*	*	*	*	*	*	*	*
*	*	*	*	*	*	*	*	*	*	*	*	*	*	*	*	*	*	*	*v	*v	*	*	*	*	*	*	*	*	*	*	*
=13	=13	=13	=13	=13	=13	=13	=13	=13	=13	=13	=13	=13	=13	=13	=13	=13	=13	=13	=13	=13	=13	=13	=13	=13	=13	=13	=13	=13	=13	=13
!	!	!	!	!	!	!	!	!	!	!	!	!	!	!	!	!	!	!	!	!	!	!	!	!	!	!	!LO:TX:a:t=col Fl.	!	!	!
2.ryy	.	8BB-/	.	8BB-/yy	.	8r	.	8r	.	8r	.	2.r	2.r	.	4r	.	(16gLL 16e-\	.	2.f] 2.B-/	.	2.dd 2.f/]	.	(16ggLL 16ee-\	.	4r	.	4ryy	.	4r	.
.	.	.	.	.	.	.	.	.	.	.	.	.	.	.	.	.	16f 16d\	.	.	.	.	.	16ff 16dd\	.	.	.	.	.	.	.
.	.	8r	.	8ryy	.	8F/	.	8d/	.	8f 8B-/	.	.	.	.	.	.	16en 16c#X\	.	.	.	.	.	16eeX 16cc#X\	.	.	.	.	.	.	.
.	.	.	.	.	.	.	.	.	.	.	.	.	.	.	.	.	16fJJ 16d\)	.	.	.	.	.	16ffJJ 16dd\)	.	.	.	.	.	.	.
*	*	*	*	*	*	*rep	*	*rep	*	*rep	*	*	*	*	*	*	*	*	*	*	*	*	*	*	*	*	*	*	*	*
.	.	8BB-/	.	8BB-/yy	.	8r	.	8r	.	8r	.	.	.	.	16r	.	8d 8B-\	.	.	.	.	.	8dd 8b-\	.	16r	.	16ryy	.	16r	.
.	.	.	.	.	.	.	.	.	.	.	.	.	.	.	(16b-LL 16d/	.	.	.	.	.	.	.	.	.	(>16dd/LL	.	(y16bb-\LLyy	.	(16bb-\LL	.
.	.	8r	.	8ryy	.	8F/	.	8d/	.	8f 8B-/	.	.	.	.	16dd 16b-/	.	8r	.	.	.	.	.	8r	.	16bb-/	.	16ddd\yy	.	16ddd\	.
.	.	.	.	.	.	.	.	.	.	.	.	.	.	.	16ccJJ 16a/	.	.	.	.	.	.	.	.	.	16aa/JJ	.	16ccc\JJyy	.	16ccc\JJ	.
*	*	*	*	*	*	*Xrep	*	*Xrep	*	*Xrep	*	*	*	*	*	*	*	*	*	*	*	*	*	*	*	*	*	*	*	*
*	*	*	*	*	*	*rep	*	*rep	*	*rep	*	*	*	*	*	*	*	*	*	*	*	*	*	*	*	*	*	*	*	*
.	.	8BB-/	.	8BB-/yy	.	8r	.	8r	.	8r	.	.	.	.	16b-LL 16g/	.	4r	.	.	.	.	.	4r	.	16gg/LL	.	16bb-\LLyy	.	16bb-\LL	.
.	.	.	.	.	.	.	.	.	.	.	.	.	.	.	16a 16f/	.	.	.	.	.	.	.	.	.	16ff/	.	16aa\yy	.	16aa\	.
.	.	8r	.	8ryy	.	8F/	.	8d/	.	8f 8B-/	.	.	.	.	16g 16e-/	.	.	.	.	.	.	.	.	.	16ee-/	.	16gg\yy	.	16gg\	.
.	.	.	.	.	.	.	.	.	.	.	.	.	.	.	16fJJ 16d/)	.	.	.	.	.	.	.	.	.	16dd/JJ)	.	16ff\JJ)yy	.	16ff\JJ)	.
*	*	*	*	*	*	*Xrep	*	*Xrep	*	*Xrep	*	*	*	*	*	*	*clefF4	*	*	*	*	*	*	*	*	*	*	*	*	*
=14	=14	=14	=14	=14	=14	=14	=14	=14	=14	=14	=14	=14	=14	=14	=14	=14	=14	=14	=14	=14	=14	=14	=14	=14	=14	=14	=14	=14	=14	=14
!	!	!	!LO:DY:rj	!	!LO:DY:rj	!	!	!	!	!	!	!	!	!LO:DY:rj	!	!	!	!	!	!	!	!	!	!	!	!	!	!	!	!
8r	.	8BB-/	f	8BB-/yy	f	8r	.	8r	.	8r	f	8B- 8BB-\	8e- 8G\	f	(16gLL 16e-/	.	16GLL 16E-\	.	8r	.	8r	f	(16gLL 16e-/	.	(16ee-\LL	.	(y16gg\LLyy	.	(16gg\LL	.
.	.	.	.	.	.	.	.	.	.	.	.	.	.	.	16b- 16g/	.	(16B- 16G\	.	.	.	.	.	16b- 16g/	.	16gg\	.	16bb-\yy	.	16bb-\	.
!LO:SIC:s=8BB-\	!	!	!	!	!	!	!	!	!	!	!	!	!	!	!	!	!	!	!	!	!	!	!	!	!	!	!	!	!	!
8Re\	.	8r	.	8ryy	.	8B- 8E-/	.	8e- 8G/	.	8g 8B-/	.	8r	8r	.	16a 16f#X/	.	16An 16F#X\	.	8g 8B-\	.	8dd 8b-\	.	16a 16f#X/	.	16ff#X\	.	16aa\yy	.	16aa\	.
.	.	.	.	.	.	.	.	.	.	.	.	.	.	.	16b-JJ 16g/	.	16B-JJ 16G\	.	.	.	.	.	16b-JJ 16g/	.	16gg\JJ	.	16bb-\JJyy	.	16bb-\JJ	.
*rep	*	*	*	*	*	*rep	*	*rep	*	*rep	*	*rep	*rep	*	*	*	*	*	*rep	*	*rep	*	*	*	*	*	*	*	*	*
8r	.	8BB-/	.	8BB-/yy	.	8r	.	8r	.	8r	.	8B- 8BB-\	8e- 8G\	.	16aLL 16f#/	.	16ALL 16F#\	.	8r	.	8r	.	16aLL 16f#/	.	16ff#\LL	.	16aa\LLyy	.	16aa\LL	.
.	.	.	.	.	.	.	.	.	.	.	.	.	.	.	16b- 16g/	.	16B- 16G\	.	.	.	.	.	16b- 16g/	.	16gg\	.	16bb-\yy	.	16bb-\	.
!LO:SIC:s=8BB-\	!	!	!	!	!	!	!	!	!	!	!	!	!	!	!	!	!	!	!	!	!	!	!	!	!	!	!	!	!	!
8Re\	.	8r	.	8ryy	.	8B- 8E-/	.	8e- 8G/	.	8g 8B-/	.	8r	8r	.	16a 16f#/	.	16A 16F#\	.	8g 8B-\	.	8dd 8b-\	.	16a 16f#/	.	16ff#\	.	16aa\yy	.	16aa\	.
.	.	.	.	.	.	.	.	.	.	.	.	.	.	.	16b-JJ 16g/	.	16B-JJ 16G\	.	.	.	.	.	16b-JJ 16g/)	.	16gg\JJ	.	16bb-\JJyy	.	16bb-\JJ	.
*Xrep	*	*	*	*	*	*Xrep	*	*Xrep	*	*Xrep	*	*Xrep	*Xrep	*	*	*	*	*	*Xrep	*	*Xrep	*	*	*	*	*	*	*	*	*
*rep	*	*	*	*	*	*rep	*	*rep	*	*rep	*	*rep	*rep	*	*	*	*	*	*rep	*	*rep	*	*	*	*	*	*	*	*	*
8r	.	8BB-/	.	8BB-/yy	.	8r	.	8r	.	8r	.	8B- 8BB-\	8e- 8G\	.	16ccLL 16a/	.	16cLL 16A-X\	.	8r	.	8r	.	(16ccLL 16a/	.	16aa\LL	.	16ccc\LLyy	.	16ccc\LL	.
.	.	.	.	.	.	.	.	.	.	.	.	.	.	.	16b- 16g/	.	16B- 16G\	.	.	.	.	.	16b- 16g/	.	16gg\)	.	16bb-\yy	.	16bb-\	.
!LO:SIC:s=8BB-\	!	!	!	!	!	!	!	!	!	!	!	!	!	!	!	!	!	!	!	!	!	!	!	!	!	!	!	!	!	!
8Re\	.	8r	.	8ryy	.	8B- 8E-/	.	8e- 8G/	.	8g 8B-/	.	8r	8r	.	16a 16fn/	.	16A- 16F#\	.	8g 8B-\	.	8dd 8b-\	.	16a 16f/	.	16ffn\	.	16aa\yy	.	16aa\	.
.	.	.	.	.	.	.	.	.	.	.	.	.	.	.	16gJJ 16e-/)	.	16GJJ 16E-\)	.	.	.	.	.	16gJJ 16e-/	.	16ee-\JJ	.	16gg\JJ)yy	.	16gg\JJ)	.
*Xrep	*	*	*	*	*	*Xrep	*	*Xrep	*	*Xrep	*	*Xrep	*Xrep	*	*	*	*	*	*Xrep	*	*Xrep	*	*	*	*	*	*	*	*	*
=15	=15	=15	=15	=15	=15	=15	=15	=15	=15	=15	=15	=15	=15	=15	=15	=15	=15	=15	=15	=15	=15	=15	=15	=15	=15	=15	=15	=15	=15	=15
*	*	*	*	*	*	*	*	*	*	*	*	*	*	*	*^	*	*	*	*	*	*	*	*	*	*	*	*	*	*	*
8r	.	8BB-/	.	8BB-/yy	.	8r	.	8r	.	8r	.	8B- 8BB-\	8d 8F\	.	(16fLL 16d/	2ryy	.	(16FLL 16D\	.	8r	.	8r	.	(16fLL 16d/)	.	(16dd\LL	.	16ff\LL	.	(16ff\LL	.
.	.	.	.	.	.	.	.	.	.	.	.	.	.	.	16g 16e-/	.	.	16G 16E-\	.	.	.	.	.	16g 16e-/	.	16ee-\	.	16gg\	.	16gg\	.
!LO:SIC:s=8BB-\	!	!	!	!	!	!	!	!	!	!	!	!	!	!	!	!	!	!	!	!	!	!	!	!	!	!	!	!	!	!	!
8Re\	.	8r	.	8ryy	.	8B- 8F/	.	8d 8B-/	.	8f 8B-/	.	8r	8r	.	16f 16d/	.	.	16F 16D\	.	8f 8B-\	.	8dd 8b-\	.	16f 16d/	.	16dd\	.	16ff\	.	16ff\	.
.	.	.	.	.	.	.	.	.	.	.	.	.	.	.	16e-JJ 16c/	.	.	16E-JJ 16C\	.	.	.	.	.	16e-JJ 16c/	.	16cc\JJ	.	16ee-\JJ	.	16ee-\JJ	.
*rep	*	*	*	*	*	*	*	*	*	*	*	*rep	*rep	*	*	*	*	*	*	*rep	*	*rep	*	*	*	*	*	*	*	*	*
8r	.	8BB-/	.	8BB-/yy	.	8r	.	8r	.	8r	.	8B- 8BB-\	8d 8F\	.	4d 4B-/)	.	.	4D 4BB-/)	.	8r	.	8r	.	4d 4B-/)	.	4b-\)	.	4dd\	.	4dd\)	.
!LO:SIC:s=8BB-\	!	!	!	!	!	!	!	!	!	!	!	!	!	!	!	!	!	!	!	!	!	!	!	!	!	!	!	!	!	!	!
8Re\	.	8r	.	8ryy	.	8B- 8F/	.	8d 8B-/	.	8f 8B-/	.	8r	8r	.	.	.	.	.	.	8f 8B-\	.	8dd 8b-\	.	.	.	.	.	.	.	.	.
*Xrep	*	*	*	*	*	*	*	*	*	*	*	*Xrep	*Xrep	*	*	*	*	*	*	*Xrep	*	*Xrep	*	*	*	*	*	*	*	*	*
*rep	*	*	*	*	*	*	*	*	*	*	*	*rep	*rep	*	*	*	*	*	*	*rep	*	*rep	*	*	*	*	*	*	*	*	*
8r	.	8BB-/	.	8BB-/yy	.	8r	.	8r	.	8r	.	8B- 8BB-\	8d 8F\	.	4dd/	4r	.	4r	.	8r	.	8r	.	4r	.	4r	.	4r	.	4ddd\	.
!LO:SIC:s=8BB-\	!	!	!	!	!	!	!	!	!	!	!	!	!	!	!	!	!	!	!	!	!	!	!	!	!	!	!	!	!	!	!
8Re\	.	8r	.	8ryy	.	8d 8B-\	.	8f 8B-/	.	8dd\	.	8r	8r	.	.	.	.	.	.	8f 8B-\	.	8dd 8b-\	.	.	.	.	.	.	.	.	.
*Xrep	*	*	*	*	*	*	*	*	*	*	*	*Xrep	*Xrep	*	*	*	*	*	*	*Xrep	*	*Xrep	*	*	*	*	*	*	*	*	*
!!LO:PB:g=original
=16	=16	=16	=16	=16	=16	=16	=16	=16	=16	=16	=16	=16	=16	=16	=16	=16	=16	=16	=16	=16	=16	=16	=16	=16	=16	=16	=16	=16	=16	=16	=16
*	*	*	*	*	*	*	*	*	*	*	*	*	*	*	*	*	*	*	*	*^	*	*^	*	*	*	*	*	*	*	*	*
!	!	!	!	!	!	!	!	!	!	!	!	!	!	!	!LO:TX:t=P:problem=w taktach 16-19 zamiana linijki	!	!	!LO:TX:t=P:problem=w taktach 16-19 zamiana linijki	!	!LO:TX:t=P:problem=w taktach 16-19 zamiana linijki	!	!	!LO:TX:t=P:problem=w taktach 16-19 zamiana linijki	!	!	!	!	!	!	!	!	!	!
2.r	.	4F#X^<\	.	4F#X^<\yy	.	8r	.	8r	.	(16dd\LL	.	4F#X\	2.r	.	(16dd/LL	2.r	.	2.r	.	8r	8ryy	.	8r	8r	.	2.r	.	2.r	.	2.r	.	(16ddd\LL	.
.	.	.	.	.	.	.	.	.	.	16ee-\	.	.	.	.	16ee-/	.	.	.	.	.	.	.	.	.	.	.	.	.	.	.	.	16eee-\	.
.	.	.	.	.	.	8d 8c\	.	8a/	.	16dd\	.	.	.	.	16dd/	.	.	.	.	8aX/	8f#X\	.	8cc\	8dd/	.	.	.	.	.	.	.	16ddd\	.
.	.	.	.	.	.	.	.	.	.	16a\JJ)	.	.	.	.	16a/JJ)	.	.	.	.	.	.	.	.	.	.	.	.	.	.	.	.	16aa\JJ)	.
.	.	4G^<\	.	4G^<\yy	.	4d 4B-\	.	4g/	.	8b-\	.	4G\	.	.	8b-/	.	.	.	.	4g/	4g\	.	4b-\	4dd/	.	.	.	.	.	.	.	8bb-\	.
.	.	.	.	.	.	.	.	.	.	(4dd^<\	.	.	.	.	(4dd^/	.	.	.	.	.	.	.	.	.	.	.	.	.	.	.	.	(4ddd^<\	.
.	.	4C^</	.	4C^</yy	.	4en 4B-\	.	4g/	.	.	.	4C/	.	.	.	.	.	.	.	4g/	4eX\	.	4b-\	4cc/	.	.	.	.	.	.	.	.	.
.	.	.	.	.	.	.	.	.	.	8cc\)	.	.	.	.	8cc/)	.	.	.	.	.	.	.	.	.	.	.	.	.	.	.	.	8ccc\)	.
*	*	*	*	*	*	*	*	*	*	*	*	*	*	*	*	*	*	*	*	*	*	*	*v	*v	*	*	*	*	*	*	*	*	*
=17	=17	=17	=17	=17	=17	=17	=17	=17	=17	=17	=17	=17	=17	=17	=17	=17	=17	=17	=17	=17	=17	=17	=17	=17	=17	=17	=17	=17	=17	=17	=17	=17
*	*	*	*	*	*	*^	*	*	*	*	*	*	*	*	*	*	*	*	*	*	*	*	*	*	*^	*	*^	*	*	*	*	*
2.r	.	8F\L	.	8F\Lyy	.	8fL 8A/	8A\L	.	8f/L	.	(16a/LL	.	8F\L	2.r	.	(16a/LL	2.r	.	2.r	.	8f/L	8f\L	.	8ccL 8f/	.	4r	2ryy	.	4r	2ryy	.	4r	.	(16aa\LL	.
.	.	.	.	.	.	.	.	.	.	.	16b-/	.	.	.	.	16b-/	.	.	.	.	.	.	.	.	.	.	.	.	.	.	.	.	.	16bb-\	.
.	.	8C\J	.	8C\Jyy	.	8c/J	8cJ 8B-\	.	8en/J	.	16g/	.	8C\J	.	.	16g/	.	.	.	.	8g/J	8eX\J	.	8ccJ 8b-/	.	.	.	.	.	.	.	.	.	16gg\	.
.	.	.	.	.	.	.	.	.	.	.	16a/JJ	.	.	.	.	16a/JJ	.	.	.	.	.	.	.	.	.	.	.	.	.	.	.	.	.	16aa\JJ)	.
.	.	8F\	.	8F\yy	.	8c/	8A\	.	8f/L	.	8f/)	.	8F\	.	.	8f/)	.	.	.	.	8f/	8f\	.	8cc 8f/	.	4r	.	.	4r	.	.	4r	.	8ff'\	.
!	!	!LO:TUP:a:problem=klamra łukowa	!	!LO:TUP:a:problem=klamra łukowa	!	!LO:TUP:a:problem=klamra łukowa	!	!	!LO:TUP:b:problem=klamra łukowa	!	!	!	!	!	!	!	!	!	!	!	!	!	!	!	!	!	!	!	!	!	!	!	!	!	!
.	.	24En\LL	.	24En\LLyy	.	24en\LL	8ryy	.	24e/L	.	8r	.	8r	.	.	8r	.	.	.	.	8r	8ryy	.	8r	.	.	.	.	.	.	.	.	.	8r	.
.	.	24F\	.	24F\yy	.	24f\	.	.	24f/	.	.	.	.	.	.	.	.	.	.	.	.	.	.	.	.	.	.	.	.	.	.	.	.	.	.
.	.	24G\JJ	.	24G\JJyy	.	24g\JJ	.	.	24g/JJ	.	.	.	.	.	.	.	.	.	.	.	.	.	.	.	.	.	.	.	.	.	.	.	.	.	.
.	.	8F\	.	8F\yy	.	8f\	4ryy	.	8f/L	.	8r	.	4r	.	.	4r	.	.	.	.	4r	4ryy	.	4r	.	8r	8ryy	.	8r	8ryy	.	8r	.	8r	.
.	.	8r	.	8ryy	.	8r	.	.	8f/J	.	8f/	.	.	.	f	.	.	.	.	.	.	.	.	.	.	8f/	8f\	.	8f/	8f\	.	8f/	.	8ff\	.
.	.	.	.	.	.	.	.	.	.	f	.	f	.	.	.	.	.	.	.	.	.	.	.	.	.	.	.	.	.	.	.	.	.	.	.
*	*	*	*	*	*	*	*	*	*	*	*	*	*	*	*	*	*	*	*	*	*	*	*	*	*	*	*	*	*v	*v	*	*	*	*	*
*	*	*	*	*	*	*v	*v	*	*	*	*	*	*	*	*	*v	*v	*	*	*	*	*	*	*	*	*v	*v	*	*	*	*	*	*	*
=18	=18	=18	=18	=18	=18	=18	=18	=18	=18	=18	=18	=18	=18	=18	=18	=18	=18	=18	=18	=18	=18	=18	=18	=18	=18	=18	=18	=18	=18	=18	=18
*	*	*	*	*	*	*	*	*	*	*	*	*	*	*	*	*	*clefC4	*	*	*	*	*	*	*	*	*	*	*	*	*	*
*	*	*	*	*tremolo	*	*tremolo	*	*	*	*	*	*	*	*	*	*	*tremolo	*	*	*	*	*	*	*	*	*	*	*	*	*	*
*	*	*	*	*2\right	*	*2\right	*	*	*	*	*	*	*	*	*	*	*2\right	*	*	*	*	*	*	*	*	*	*	*	*	*	*
!	!	!	!LO:DY:rj	!	!LO:DY:rj	!	!LO:DY:rj	!	!	!	!	!	!	!	!	!	!	!	!LO:TX:t=P:problem=klamra dwusystemowa łącząca waltornie	!	!LO:DY:a:rj	!	!	!	!	!	!	!	!	!	!
8r	.	8FF/	f	8A\L	f	8e-X\L	f	8ccL 8f 8A/	.	8ee-L 8f 8A'>/	.	8c 8F\	8f 8e-\	.	2.r	.	8e-L 8A\	.	2.f/	2.e-\	f	2.cc 2.f/	.	8ee-L 8cc'\	.	8ee-L 8cc'\	.	8ee-\L|	.	8ccc'\L	.
!LO:SIC:s=8F/	!	!	!	!	!	!	!	!	!	!	!	!	!	!	!	!	!	!	!	!	!	!	!	!	!	!	!	!	!	!	!
8Re/	.	8r	.	8F\	.	8f\	.	(16cc/L	.	(>16ee-/L	.	8r	8r	.	.	.	8f 8F\	.	.	.	.	.	.	(16ee-L 16cc\	.	(16ee-L 16cc\	.	(16ee-\L	.	(16ccc\L	.
.	.	.	.	.	.	.	.	16b-/JJ	.	16dd/JJ)	.	.	.	.	.	.	.	.	.	.	.	.	.	16ddJJ 16b-\)	.	16ddJJ 16b-\)	.	16dd\JJ	.	16bb-\JJ	.
*	*	*	*	*	*	*	*	*	*	*	*	*rep	*rep	*	*	*	*	*	*	*	*	*	*	*	*	*	*	*	*	*	*
8r	.	4F\	.	8A\	.	8e-\	.	8a/L)	.	8cc\L	.	8c 8F\	8f 8e-\	.	.	.	8e- 8A\	.	.	.	.	.	.	8ccL 8a\	.	8ccL 8a\	.	8cc\L)	.	8aa\L)	.
!LO:SIC:s=8F/	!	!	!	!	!	!	!	!	!	!	!	!	!	!	!	!	!	!	!	!	!	!	!	!	!	!	!	!	!	!	!
8Re/	.	.	.	8F\	.	8f\	.	8gn'/	.	8bn'\	.	8r	8r	.	.	.	8f 8F\	.	.	.	.	.	.	8bX 8g#X'\	.	8bn 8g#X'\	.	8bn'\	.	8gg#X'\	.
*	*	*	*	*	*	*	*	*	*	*	*	*Xrep	*Xrep	*	*	*	*	*	*	*	*	*	*	*	*	*	*	*	*	*	*
*	*	*	*	*	*	*	*	*	*	*	*	*rep	*rep	*	*	*	*	*	*	*	*	*	*	*	*	*	*	*	*	*	*
8r	.	4F\	.	8A\	.	8e-\	.	8a'/	.	8cc'\	.	8c 8F\	8f 8e-\	.	.	.	8e- 8A\	.	.	.	.	.	.	8cc 8a'\	.	8cc 8a'\	.	8cc'\	.	8aa'\	.
!LO:SIC:s=8F/	!	!	!	!	!	!	!	!	!	!	!	!	!	!	!	!	!	!	!	!	!	!	!	!	!	!	!	!	!	!	!
8Re/	.	.	.	8F\J	.	8f\J	.	8cc'/J	.	8ee-'\J	.	8r	8r	.	.	.	8fJ 8F\	.	.	.	.	.	.	8ee-J 8cc'\	.	8ee-J 8cc'\	.	8ee-'\J	.	8ccc'\J	.
*	*	*	*	*	*	*	*	*	*	*	*	*Xrep	*Xrep	*	*	*	*	*	*	*	*	*	*	*	*	*	*	*	*	*	*
*	*	*	*	*	*	*	*	*	*	*	*	*	*	*	*	*	*	*	*v	*v	*	*	*	*	*	*	*	*	*	*	*
=19	=19	=19	=19	=19	=19	=19	=19	=19	=19	=19	=19	=19	=19	=19	=19	=19	=19	=19	=19	=19	=19	=19	=19	=19	=19	=19	=19	=19	=19	=19
*rep	*	*	*	*	*	*	*	*	*	*	*	*	*	*	*	*	*	*	*	*	*	*	*	*	*	*	*	*	*	*
8r	.	8FF/	.	8B-\L	.	8d\L	.	(16ee-\LL	.	(16gg\LL	.	8B- 8F\	8f 8d\	.	4r	.	8dL 8B-\	.	2.f 2.B-/	.	2.dd 2.f/	.	(16ggLL 16ee-\	.	(16ggLL 16ee-\	.	(16gg\LL	.	(16eee-\LL	.
.	.	.	.	.	.	.	.	16dd\	.	16ff\	.	.	.	.	.	.	.	.	.	.	.	.	16ff 16dd\	.	16ff 16dd\	.	16ff\	.	16ddd\	.
!LO:SIC:s=8F/	!	!	!	!	!	!	!	!	!	!	!	!	!	!	!	!	!	!	!	!	!	!	!	!	!	!	!	!	!	!
8Re/	.	8r	.	8F\	.	8f\	.	16cc#X\	.	16een\	.	8r	8r	.	.	.	8f 8F\	.	.	.	.	.	16eeX 16cc#X\	.	16een 16cc#X\	.	16een\	.	16ccc#X\	.
.	.	.	.	.	.	.	.	16dd\JJ)	.	16ff\JJ	.	.	.	.	.	.	.	.	.	.	.	.	16ffJJ 16dd\)	.	16ffJJ 16dd\	.	16ff\JJ)	.	16ddd\JJ)	.
*	*	*	*	*	*	*	*	*	*	*	*	*rep	*rep	*	*	*	*	*	*	*	*	*	*	*	*	*	*	*	*	*
8r	.	4F\	.	8B-\	.	8d\	.	8b-\	.	8dd\)	.	8B- 8F\	8f 8d\	.	8r	.	8d 8B-\	.	.	.	.	.	8dd 8b-\	.	8dd 8b-\)	.	8dd\	.	8bb-\	.
!LO:SIC:s=8F/	!	!	!	!	!	!	!	!	!	!	!	!	!	!	!	!	!	!	!	!	!	!	!	!	!	!	!	!	!	!
8Re/	.	.	.	8F\	.	8f\	.	8r	.	8r	.	8r	8r	.	(16ddLL 16b-\	.	8f 8F\	.	.	.	.	.	8r	.	(16bb-\LL	.	(16ddd\LL	.	(16ddd\LL	.
.	.	.	.	.	.	.	.	.	.	.	.	.	.	.	16ccJJ 16a\	.	.	.	.	.	.	.	.	.	16aa\JJ	.	16ccc\JJ	.	16ccc#\JJ	.
*	*	*	*	*	*	*	*	*	*	*	*	*Xrep	*Xrep	*	*	*	*	*	*	*	*	*	*	*	*	*	*	*	*	*
*	*	*	*	*	*	*	*	*	*	*	*	*rep	*rep	*	*	*	*	*	*	*	*	*	*	*	*	*	*	*	*	*
8r	.	4F\	.	8B-\	.	8d\	.	4r	.	4r	.	8B- 8F\	8f 8d\	.	16b-LL 16g/	.	8d 8B-\	.	.	.	.	.	4r	.	16gg\LL	.	16bb-\LL	.	16bb-\LL	.
.	.	.	.	.	.	.	.	.	.	.	.	.	.	.	16a 16f/	.	.	.	.	.	.	.	.	.	16ff\	.	16aa\	.	16aa\	.
!LO:SIC:s=8F/	!	!	!	!	!	!	!	!	!	!	!	!	!	!	!	!	!	!	!	!	!	!	!	!	!	!	!	!	!	!
8Re/	.	.	.	8F\J	.	8f\J	.	.	.	.	.	8r	8r	.	16g 16e-/	.	8fJ 8F\	.	.	.	.	.	.	.	16ee\	.	16gg\	.	16gg\	.
.	.	.	.	.	.	.	.	.	.	.	.	.	.	.	16fJJ 16d/)	.	.	.	.	.	.	.	.	.	16dd\JJ)	.	16ff\JJ)	.	16ff\JJ)	.
*Xrep	*	*	*	*	*	*	*	*	*	*	*	*Xrep	*Xrep	*	*	*	*	*	*	*	*	*	*	*	*	*	*	*	*	*
!!LO:PB:g=original
=20	=20	=20	=20	=20	=20	=20	=20	=20	=20	=20	=20	=20	=20	=20	=20	=20	=20	=20	=20	=20	=20	=20	=20	=20	=20	=20	=20	=20	=20	=20
.	.	.	.	.	.	.	.	.	.	.	.	.	.	.	.	.	.	.	.	.	.	.	.	.	.	.	.	.	(>8qee-/	.
*	*	*	*	*	*	*	*	*	*	*	*	*	*	*	*	*	*	*	*^	*	*	*	*	*	*	*	*	*	*	*
8r	.	8FF/	.	8A\L	.	8e-\L	.	8ccL 8f 8A/	.	8ee-L 8f 8A/	.	8c 8F\	8f 8e-\	.	2.r	.	8e-L 8c 8A\	.	2.f/	2.e-\	.	2.cc 2.f/	.	8ee-L 8cc'\	.	8ee-L 8cc'\	.	8ee-'\L	.	8ccc\L)	.
!LO:SIC:s=8F/	!	!	!	!	!	!	!	!	!	!	!	!	!	!	!	!	!	!	!	!	!	!	!	!	!	!	!	!	!	!	!
8Re/	.	8r	.	8F\	.	8f\	.	(16cc/L	.	(16ee-/L	.	8r	8r	.	.	.	8f 8F\	.	.	.	.	.	.	(16ee-L 16cc\	.	(16ee-L 16cc\	.	(16ee-\L	.	(16ccc\L	.
.	.	.	.	.	.	.	.	16b-/JJ)	.	16dd/JJ)	.	.	.	.	.	.	.	.	.	.	.	.	.	16ddJJ 16b-\)	.	16ddJJ 16b-\)	.	16dd\JJ)	.	16bb-\JJ)	.
.	.	.	.	.	.	.	.	(8qb-/	.	(8qdd/	.	.	.	.	.	.	.	.	.	.	.	.	.	(<8qdd 8qb-/	.	(<8qdd 8qb-/	.	(8qdd/	.	(8qbb-/	.
*rep	*	*	*	*	*	*	*	*	*	*	*	*rep	*rep	*	*	*	*	*	*	*	*	*	*	*	*	*	*	*	*	*	*
8r	.	4F\	.	8A\	.	8e-\	.	8a/L)	.	8cc\L)	.	8c 8F\	8f 8e-\	.	.	.	8e- 8c 8A\	.	.	.	.	.	.	8ccL 8a\)	.	8ccL 8a\)	.	8cc\L)	.	8aa\L)	.
!LO:SIC:s=8F/	!	!	!	!	!	!	!	!	!	!	!	!	!	!	!	!	!	!	!	!	!	!	!	!	!	!	!	!	!	!	!
8Re/	.	.	.	8F\	.	8f\	.	8g#X'/	.	8bn'\	.	8r	8r	.	.	.	8f 8F\	.	.	.	.	.	.	8bX 8g#X'\	.	8bn 8g#X'\	.	8bn'\	.	8gg#X'\	.
*Xrep	*	*	*	*	*	*	*	*	*	*	*	*Xrep	*Xrep	*	*	*	*	*	*	*	*	*	*	*	*	*	*	*	*	*	*
*rep	*	*	*	*	*	*	*	*	*	*	*	*rep	*rep	*	*	*	*	*	*	*	*	*	*	*	*	*	*	*	*	*	*
8r	.	4F\	.	8A\	.	8e-\	.	8a'/	.	8cc'\	.	8c 8F\	8f 8e-\	.	.	.	8e- 8c 8A\	.	.	.	.	.	.	8cc 8a'\	.	8cc 8a'\	.	8cc'\	.	8aa'\	.
!LO:SIC:s=8F/	!	!	!	!	!	!	!	!	!	!	!	!	!	!	!	!	!	!	!	!	!	!	!	!	!	!	!	!	!	!	!
8Re/	.	.	.	8F\J	.	8f\J	.	8cc'/J	.	8ee-'\J	.	8r	8r	.	.	.	8fJ 8F\	.	.	.	.	.	.	8ee-J 8cc'\	.	8ee-J 8cc'\	.	8ee-'\J	.	8ccc'\J	.
*Xrep	*	*	*	*	*	*	*	*	*	*	*	*Xrep	*Xrep	*	*	*	*	*	*	*	*	*	*	*	*	*	*	*	*	*	*
*	*	*	*	*	*	*	*	*	*	*	*	*	*	*	*	*	*	*	*v	*v	*	*	*	*	*	*	*	*	*	*	*
=21	=21	=21	=21	=21	=21	=21	=21	=21	=21	=21	=21	=21	=21	=21	=21	=21	=21	=21	=21	=21	=21	=21	=21	=21	=21	=21	=21	=21	=21	=21
*	*	*	*	*	*	*	*	*	*	*	*	*	*	*	*^	*	*	*	*	*	*^	*	*	*	*	*	*	*	*	*
8r	.	8BB-/	.	8B-\L	.	8d\L	.	(16ee-\LL	.	(16gg\LL	.	8B- 8BB-\	8f 8d\	.	2ryy	2ryy	.	8dL 8B-\	.	[2f [>2B-/	.	[2dd [2f/	2ryy	.	(16ggLL 16ee-\	.	(16ggLL 16ee-\	.	(16gg\LL	.	(16eee-\LL	.
.	.	.	.	.	.	.	.	16dd\	.	16ff\	.	.	.	.	.	.	.	.	.	.	.	.	.	.	16ff 16dd\	.	16ff 16dd\	.	16ff\	.	16ddd\	.
!LO:SIC:s=8BB-\	!	!	!	!	!	!	!	!	!	!	!	!	!	!	!	!	!	!	!	!	!	!	!	!	!	!	!	!	!	!	!	!
8Re\	.	8r	.	8F\	.	8f\	.	16cc#X\	.	16een\	.	8r	8r	.	.	.	.	8f 8F\	.	.	.	.	.	.	16eeX 16cc#X\	.	16een 16cc#X\	.	16een\	.	16ccc#X\	.
.	.	.	.	.	.	.	.	16dd\JJ	.	16ff\JJ	.	.	.	.	.	.	.	.	.	.	.	.	.	.	16ffJJ 16dd\	.	16ffJJ 16dd\	.	16ff\JJ	.	16ddd\JJ	.
*rep	*	*	*	*	*	*	*	*	*	*	*	*rep	*rep	*	*	*	*	*	*	*	*	*	*	*	*	*	*	*	*	*	*	*
8r	.	4B-\	.	8B-\	.	8d\	.	16cc#\LL	.	16ee\LL	.	8B- 8BB-\	8f 8d\	.	.	.	.	8d 8B-\	.	.	.	.	.	.	16eeLL 16cc#\	.	16eeLL 16cc#\	.	16ee\LL	.	16ccc#\LL	.
.	.	.	.	.	.	.	.	16dd\	.	16ff\	.	.	.	.	.	.	.	.	.	.	.	.	.	.	16ff 16dd\	.	16ff 16dd\	.	16ff\	.	16ddd\	.
!LO:SIC:s=8BB-\	!	!	!	!	!	!	!	!	!	!	!	!	!	!	!	!	!	!	!	!	!	!	!	!	!	!	!	!	!	!	!	!
8Re\	.	.	.	8F\	.	8f\	.	16ee-\	.	16gg\	.	8r	8r	.	.	.	.	8f 8F\	.	.	.	.	.	.	16gg 16ee\	.	16gg 16ee\	.	16gg\	.	16eee-\	.
.	.	.	.	.	.	.	.	16dd\JJ)	.	16ff\JJ	.	.	.	.	.	.	.	.	.	.	.	.	.	.	16ffJJ 16dd\)	.	16ffJJ 16dd\)	.	16ff\JJ)	.	16ddd\JJ)	.
*Xrep	*	*	*	*	*	*	*	*	*	*	*	*Xrep	*Xrep	*	*	*	*	*	*	*	*	*	*	*	*	*	*	*	*	*	*	*
*rep	*	*	*	*	*	*	*	*	*	*	*	*rep	*rep	*	*	*	*	*	*	*	*	*	*	*	*	*	*	*	*	*	*	*
8r	.	4BB-/	.	8B-\	.	8d\	.	8b-\L	.	8dd\L)	.	8B- 8BB-\	8f 8d\	.	8ryy	8ryy	.	8d 8B-\	.	8f] 8B-/]	.	8dd] 8f/]	8ryy	.	8ddL 8b-\	.	8ddL 8b-\	.	8dd\L	.	8bb-\L	.
!LO:SIC:s=8BB-\	!	!	!	!	!	!	!	!	!	!	!	!	!	!	!	!	!	!	!	!	!	!	!	!	!	!	!	!	!	!	!	!
8Re\	.	.	.	8F\J	.	8f\J	.	8b-'\J	.	8dd\J	.	8r	8r	.	8dd/	8b-\	.	8fJ 8F\	.	8f 8B-/	.	8dd/	8b-\	.	8ddJ 8b-\	.	8ddJ 8b-'\	.	8dd'\J	.	8bb-'\J	.
*Xrep	*	*	*	*	*	*	*	*	*	*	*	*Xrep	*Xrep	*	*	*	*	*Xtremolo	*	*	*	*	*	*	*	*	*	*	*	*	*	*
*	*	*	*	*Xtremolo	*	*Xtremolo	*	*	*	*	*	*	*	*	*	*	*	*clefF4	*	*	*	*	*	*	*	*	*	*	*	*	*	*
=22	=22	=22	=22	=22	=22	=22	=22	=22	=22	=22	=22	=22	=22	=22	=22	=22	=22	=22	=22	=22	=22	=22	=22	=22	=22	=22	=22	=22	=22	=22	=22	=22
!	!	!	!	!LO:TX:t=//	!	!	!	!	!	!	!	!	!	!	!	!	!	!	!	!	!	!	!	!	!	!	!	!	!	!	!	!
!	!	!LO:TX:t=P:problem=mixed beam	!	!LO:TX:t=P:problem=mixed beam	!	!	!	!	!	!	!	!	!	!	!	!	!	!	!	!	!	!	!	!	!	!	!	!	!	!	!	!
2.r	.	8GG/L	.	8GG/Lyy	.	8g\L	.	8bnL 8d 8G/	.	8ddL 8g 8Bn\	.	8GL 8GG/	8dL 8Bn\	.	8dd/L	8bn\L	.	8GL 8GG/	.	8gL 8G/	.	8dd/L	8bX\L	.	8ddL 8bX\	.	8ddL 8bn\	.	8dd\L	.	8bbn\L	.
.	.	16G\L	.	16G\Lyy	.	16g\L	.	16b/L	.	16dd\L	.	16GL 16GG/	16dL 16B\	.	16dd/L	16b\L	.	16GL 16GG/	.	16gL 16G/	.	16dd/L	16b\L	.	16ddL 16b\	.	16ddL 16b\	.	16dd\L	.	16bb\L	.
.	.	16G\JJ	.	16G\JJyy	.	16g\JJ	.	16b/JJ	.	16dd\JJ	.	16GJJ 16GG/	16dJJ 16B\	.	16dd/JJ	16b\JJ	.	16GJJ 16GG/	.	16gJJ 16G/	.	16dd/JJ	16b\JJ	.	16ddJJ 16b\	.	16ddJJ 16b\	.	16dd\JJ	.	16bb\JJ	.
!	!	!LO:TX:t=P:problem=mixed beam	!	!LO:TX:t=P:problem=mixed beam	!	!	!	!	!	!	!	!	!	!	!	!	!	!	!	!	!	!	!	!	!	!	!	!	!	!	!	!
.	.	8G\L	.	8G\Lyy	.	8g\L	.	8b/L	.	8dd\L	.	8GL 8GG/	8dL 8B\	.	8dd/L	8b\L	.	8GL 8GG/	.	8gL 8G/	.	8dd/L	8b\L	.	8ddL 8b\	.	8ddL 8b\	.	8dd\L	.	8bb\L	.
.	.	8GG/	.	8GG/yy	.	8g\J	.	8b/J	.	8dd\J	.	8GJ 8GG/	8dJ 8B\	.	8dd/J	8b\J	.	8GJ 8GG/	.	8gJ 8G/	.	8dd/J	8b\J	.	8ddJ 8b\	.	8ddJ 8b\	.	8dd\J	.	8bb\J	.
!	!	!	!	!	!	!LO:TX:t=P:problem=mixed beam	!	!	!	!	!	!	!	!	!	!	!	!	!	!	!	!	!	!	!	!	!	!	!	!	!	!
.	.	8G\	.	8G\yy	.	8g\L	.	8cc\L	.	8ee-\L	.	8GL 8GG/	8e-L 8c\	.	8ee-/L	8cc\L	.	8GL 8GG/	.	8gL 8G/	.	8ee-/L	8cc\L	.	8ee-L 8cc\	.	8ee-L 8cc\	.	8ee-\L	.	8ccc\L	.
.	.	8GG/J	.	8GG/Jyy	.	8gJ 8G/	.	8dd\J	.	8ff\J	.	8GJ 8GG/	8fJ 8d\	.	8ff/J	8dd\J	.	8GJ 8GG/	.	8gJ 8G/	.	8ff/J	8dd\J	.	8ffJ 8dd\	.	8ffJ 8dd\	.	8ff\J	.	8ddd\J	.
=23	=23	=23	=23	=23	=23	=23	=23	=23	=23	=23	=23	=23	=23	=23	=23	=23	=23	=23	=23	=23	=23	=23	=23	=23	=23	=23	=23	=23	=23	=23	=23	=23
*	*	*	*	*	*	*	*	*	*	*	*	*^	*^	*	*	*	*	*^	*	*	*	*	*	*	*^	*	*^	*	*	*	*	*
4r	.	(4C/	.	(y4C/yy	.	[4g 4c\	.	(4cc\	.	(16ff\LL	.	4G/	4C\	(16f/LL	4c\	.	16ff/LL	4cc\	.	[4G/	(4C\	.	[4g [>4G/	.	[4ee-/	[4cc\	.	(16ffL/	4cc\	.	(16ff/LL	4cc\	.	(16ff\LL	.	(4ccc\	.
.	.	.	.	.	.	.	.	.	.	16ee-\	.	.	.	16e-/	.	.	16ee-/	.	.	.	.	.	.	.	.	.	.	16ee-/	.	.	16ee-/	.	.	16ee-\	.	.	.
.	.	.	.	.	.	.	.	.	.	16dd\	.	.	.	16d/	.	.	16dd/	.	.	.	.	.	.	.	.	.	.	16dd/	.	.	16dd/	.	.	16dd\	.	.	.
.	.	.	.	.	.	.	.	.	.	16ee-\JJ	.	.	.	16e-/JJ)	.	.	16ee-/JJ	.	.	.	.	.	.	.	.	.	.	16ee-J/	.	.	16ee-/JJ	.	.	16ee-\JJ)	.	.	.
4r	.	8E-\)	.	8E-\)yy	.	8g] 8e-\	.	8g/)	.	8cc\)	.	8E-/	8E-\	8c/	8G\	.	8cc/	8g\	.	8G/]	8E-\)	.	8g] 8G/]	.	8ee-/]	8cc\]	.	8cc/)	8g\	.	8cc/)	8g\	.	8cc\	.	8gg\)	.
.	.	8r	.	8ryy	.	8r	.	8r	.	8r	.	8r	8ryy	8r	8ryy	.	8r	8ryy	.	8r	8r	.	8r	.	8r	8ryy	.	8r	8ryy	.	8r	8ryy	.	8r	.	8r	.
!LO:SIC:s=4BB-\^>t	!	!	!	!	!	!	!	!	!	!	!	!	!	!	!	!	!	!	!	!	!	!	!	!	!	!	!	!	!	!	!	!	!	!	!	!	!
4Re\t^<	.	4En^\	.	4En^\yy	.	4en\	.	4cc#X 4g^/	.	4gg 4b-^<\	.	4En\	4ryy	4c#X/	4G^\	.	4cc#X/	4b-^\	.	4B-/	4En^\	.	4g 4G/	.	4eeX/	4cc#X^\	.	4b-/	4g^\	.	8gg/	4gg 4cc#X^\	.	4gg^<\	.	4ccc#X^<\	.
.	.	.	.	.	.	.	.	.	.	.	.	.	.	.	.	.	.	.	.	.	.	.	.	.	.	.	.	.	.	.	8r	.	.	.	.	.	.
*	*	*	*	*	*	*	*	*	*	*	*	*v	*v	*	*	*	*v	*v	*	*v	*v	*	*	*	*v	*v	*	*v	*v	*	*v	*v	*	*	*	*	*
*	*	*	*	*	*	*	*	*	*	*	*	*	*v	*v	*	*	*	*	*	*	*	*	*	*	*	*	*	*	*	*	*
!!LO:PB:g=original
=24	=24	=24	=24	=24	=24	=24	=24	=24	=24	=24	=24	=24	=24	=24	=24	=24	=24	=24	=24	=24	=24	=24	=24	=24	=24	=24	=24	=24	=24	=24
*	*	*	*	*	*	*	*	*	*	*	*	*	*	*	*	*	*	*	*^	*	*	*	*	*	*	*	*	*	*	*
!LO:SIC:s=8F/L	!	!	!	!	!	!	!	!	!	!	!	!	!	!	!	!	!	!	!	!	!	!	!	!	!	!	!	!	!	!	!
8Re/L	.	8F\	.	8F\yy	.	8fL 8B-\	.	8ddL 8f/	.	(16gg\LL	.	8F 8FF/	8d 8B-\	.	8ddL 8b-\	.	8FL 8FF/	.	8fL 8B-/	2ryy	.	8ffL 8dd\	.	8b- 8f/	.	(16ggLL 16dd\	.	(16gg\LL	.	8ddd\L	.
.	.	.	.	.	.	.	.	.	.	16ff\)	.	.	.	.	.	.	.	.	.	.	.	.	.	.	.	16ff\)	.	16ff\)	.	.	.
!LO:SIC:s=8F/J	!	!	!	!	!	!	!	!	!	!	!	!	!	!	!	!	!	!	!	!	!	!	!	!	!	!	!	!	!	!	!
8Re/J	.	8r	.	8ryy	.	8fJ 8B-\	.	8ddJ 8f/	.	16bb-\	.	8r	8r	.	8ddJ 8b-\	.	8FJ 8FF/	.	8fJ 8B-/	.	.	8ddJ 8b-\	.	8dd 8b-\	.	16bb-\	.	16bb-\	.	8ddd\J	.
.	.	.	.	.	.	.	.	.	.	16dd\JJ	.	.	.	.	.	.	.	.	.	.	.	.	.	.	.	16dd\JJ	.	16dd\JJ	.	.	.
*	*	*	*	*	*	*	*	*	*	*rep	*	*	*	*	*	*	*	*	*	*	*	*	*	*	*	*	*	*rep	*	*	*
8r	.	8F\	.	8F\yy	.	8r	.	8r	.	(16gg\LL	.	8F 8FF/	8d 8B-\	.	8r	.	8r	.	8r	.	.	8r	.	8r	.	16gg\LL	.	(16gg\LL	.	8r	.
.	.	.	.	.	.	.	.	.	.	16ff\)	.	.	.	.	.	.	.	.	.	.	.	.	.	.	.	16ff\	.	16ff\)	.	.	.
!LO:SIC:s=8F/	!	!	!	!	!	!	!	!	!	!	!	!	!	!	!	!	!	!	!	!	!	!	!	!	!	!	!	!	!	!	!
8Re/	.	8r	.	8ryy	.	8f 8B-\	.	8dd 8f/	.	16bb-\	.	8r	8r	.	8b- 8d/	.	8F 8FF/	.	8f 8B-/	.	.	8dd 8b-\	.	8dd 8b-\	.	16bb-\	.	16bb-\	.	8ddd\	.
.	.	.	.	.	.	.	.	.	.	16dd\JJ	.	.	.	.	.	.	.	.	.	.	.	.	.	.	.	16dd\JJ	.	16dd\JJ	.	.	.
*	*	*	*	*	*	*	*	*	*	*Xrep	*	*	*	*	*	*	*	*	*	*	*	*	*	*	*	*	*	*Xrep	*	*	*
8r	.	4FF/	.	4FF/yy	.	8r	.	8r	.	(16gg\LL	.	4F 4FF/	4e- 4A\	.	8r	.	8r	.	8r	8ryy	.	8r	.	8r	.	(16gg\LL	.	8r	.	(16ggg\LL	.
.	.	.	.	.	.	.	.	.	.	16ff\)	.	.	.	.	.	.	.	.	.	.	.	.	.	.	.	16ff\)	.	.	.	16fff\)	.
!LO:SIC:s=8F/	!	!	!	!	!	!	!	!LO:N:vis=4	!	!	!	!	!	!	!	!	!	!	!	!	!	!	!	!	!	!	!	!	!	!	!
8Re/	.	.	.	.	.	8f 8c\	.	8a 8e-/	.	(16ee-\	.	.	.	.	8a 8c/	.	8F 8FF/	.	8f/	8e-\	.	8cc 8f/	.	8ee- 8a\	.	(16ee-\	.	8aa\	.	(16eee-\	.
.	.	.	.	.	.	.	.	.	.	16dd\JJ)	.	.	.	.	.	.	.	.	.	.	.	.	.	.	.	16cc\JJ)	.	.	.	16ddd\JJ)	.
=25	=25	=25	=25	=25	=25	=25	=25	=25	=25	=25	=25	=25	=25	=25	=25	=25	=25	=25	=25	=25	=25	=25	=25	=25	=25	=25	=25	=25	=25	=25	=25
!LO:SIC:s=8BB-\	!	!	!	!	!	!	!	!	!	!	!	!	!	!	!	!	!	!	!	!	!	!	!	!	!	!	!	!	!	!	!
8Re\	.	8BB-/	.	8BB-/yy	.	8fL 8B-\	.	16b-LL 16d/	.	(16b-/LL	.	8BB-/	8.dL 8.B-\	.	(16b-LL 16d/	.	8B- 8BB-\	.	8.fL 8.B-/	4ryy	.	8.ddL 8.b-\	.	8ddL 8b-'\	.	(16ddLL 16b-\	.	16bb-\LL	.	(16bb-\LL	.
.	.	.	.	.	.	.	.	(16d/	.	16f/	.	.	.	.	16f 16d/	.	.	.	.	.	.	.	.	.	.	16ff 16dd\	.	16ff\	.	16ff\	.
8r	.	8r	.	8ryy	.	(16f\L	.	16b-/	.	16dd/	.	8r	.	.	16dd 16f/	.	8r	.	.	.	.	.	.	(16ffL 16dd\	.	16bb- 16dd\	.	16ddd\	.	16ddd\	.
.	.	.	.	.	.	16e-\JJ)	.	16a/JJ)	.	16cc/JJ)	.	.	16cJk 16A\	.	16ccJJ 16e-/)	.	.	.	16fJk 16e-/	.	.	16ccJk 16f\	.	16ee-JJ 16cc\)	.	16aaJJ 16cc\	.	16ccc\JJ	.	16ccc\JJ)	.
8r	.	8r	.	8ryy	.	(4e-\	.	(4a/	.	(4cc\	.	8r	(4c 4A\	.	4cc 4e-/	.	8r	.	4f/	4e-\	.	4cc 4f/	.	(4ee- 4a\	.	(4aa 4ee-\)	.	(4ccc\	.	(4ccc\	.
!LO:SIC:s=8F/	!	!	!	!	!	!	!	!	!	!	!	!LO:TX:t=P:problem=mixed beam	!	!	!	!	!	!	!	!	!	!	!	!	!	!	!	!	!	!	!
8Re/	.	8FF/L	.	8FF/Lyy	.	.	.	.	.	.	.	8F\L	.	.	.	.	8FL 8FF/	.	.	.	.	.	.	.	.	.	.	.	.	.	.
!LO:SIC:s=8BB-\	!	!	!	!	!	!	!	!	!	!	!	!	!	!	!	!	!	!	!	!	!	!	!	!	!	!	!	!	!	!	!
8Re\	.	8BB-/J	.	8BB-/Jyy	.	8d\)	.	8b-/)	.	8b-\)	.	8BB-/J	8d 8B-\)	.	8b- 8d/	.	8B-J 8BB-/	.	8f 8B-/	4ryy	.	8b- 8d/	.	8dd 8b-\)	.	8bb- 8dd\)	.	8bb-\)	.	8bb-\)	.
8r	.	8r	.	8ryy	.	8r	.	8r	.	8r	.	8r	8r	.	8r	.	8r	.	8r	.	.	8r	.	8r	.	8r	.	8r	.	8r	.
=26:|!	=26:|!	=26:|!	=26:|!	=26:|!	=26:|!	=26:|!	=26:|!	=26:|!	=26:|!	=26:|!	=26:|!	=26:|!	=26:|!	=26:|!	=26:|!	=26:|!	=26:|!	=26:|!	=26:|!	=26:|!	=26:|!	=26:|!	=26:|!	=26:|!	=26:|!	=26:|!	=26:|!	=26:|!	=26:|!	=26:|!	=26:|!
*>C	*>C	*>C	*>C	*>C	*>C	*>C	*>C	*>C	*>C	*>C	*>C	*>C	*>C	*>C	*>C	*>C	*>C	*>C	*>C	*>C	*>C	*>C	*>C	*>C	*>C	*>C	*>C	*>C	*>C	*>C	*>C
2.r	.	8FF/	.	8FF/yy	.	8r	.	8a'/L	.	8cc'\L	.	2.r	2.r	.	8c'/L	.	2.r	.	2.f/	2.f\	.	2.r	.	8ccL 8a'\	.	2.r	.	8cc'\L	.	8aa'\L	.
.	.	8r	.	8ryy	.	8f\	.	(16a/L	.	(16cc\L	.	.	.	.	(16c/L	.	.	.	.	.	.	.	.	(16ccL 16a\	.	.	.	(16cc\L	.	(16aa\L	.
.	.	.	.	.	.	.	.	16b-/JJ)	.	16dd\JJ)	.	.	.	.	16d/JJ)	.	.	.	.	.	.	.	.	16ddJJ 16b-\)	.	.	.	16dd\JJ)	.	16bb-\JJ)	.
*	*	*	*	*	*	*rep	*	*rep	*	*rep	*	*	*	*	*rep	*	*	*	*	*	*	*	*	*rep	*	*	*	*rep	*	*rep	*
.	.	8F\	.	8F\yy	.	8r	.	8a'/L	.	8cc'\L	.	.	.	.	8c'/L	.	.	.	.	.	.	.	.	8ccL 8a'\	.	.	.	8cc'\L	.	8aa'\L	.
.	.	8r	.	8ryy	.	8f\	.	(16a/L	.	(16cc\L	.	.	.	.	(16c/L	.	.	.	.	.	.	.	.	(16ccL 16a\	.	.	.	(16cc\L	.	(16aa\L	.
.	.	.	.	.	.	.	.	16b-/JJ)	.	16dd\JJ)	.	.	.	.	16d/JJ)	.	.	.	.	.	.	.	.	16ddJJ 16b-\)	.	.	.	16dd\JJ)	.	16bb-\JJ)	.
*	*	*	*	*	*	*Xrep	*	*Xrep	*	*Xrep	*	*	*	*	*Xrep	*	*	*	*	*	*	*	*	*Xrep	*	*	*	*Xrep	*	*Xrep	*
*	*	*	*	*	*	*rep	*	*	*	*	*	*	*	*	*	*	*	*	*	*	*	*	*	*	*	*	*	*	*	*	*
.	.	8F\	.	8F\yy	.	8r	.	8a/L	.	8cc\L	.	.	.	.	8c/L	.	.	.	.	.	.	.	.	8ccL 8a\	.	.	.	8cc\L	.	8aa\L	.
.	.	8r	.	8ryy	.	8f\	.	8a/J	.	8ff\J	.	.	.	.	8f/J	.	.	.	.	.	.	.	.	8ccJ 8a\	.	.	.	8ff\J	.	8aa'\J	.
*	*	*	*	*	*	*Xrep	*	*	*	*	*	*	*	*	*	*	*	*	*	*	*	*	*	*	*	*	*	*	*	*	*
*	*	*	*	*	*	*	*	*	*	*	*	*	*	*	*	*	*	*	*v	*v	*	*	*	*	*	*	*	*	*	*	*
=27	=27	=27	=27	=27	=27	=27	=27	=27	=27	=27	=27	=27	=27	=27	=27	=27	=27	=27	=27	=27	=27	=27	=27	=27	=27	=27	=27	=27	=27	=27
*	*	*	*	*	*	*	*	*	*	*	*	*	*	*	*^	*	*	*	*	*	*	*	*	*	*^	*	*	*	*	*
*	*	*	*	*	*	*	*	*	*	*	*	*	*	*	*	*	*	*	*	*	*	*2\right	*	*	*	*	*2\right	*	*	*	*	*
.	.	.	.	.	.	.	.	.	.	(16qqff/LL	.	.	.	.	(16qqf/LL	.	.	.	.	.	.	.	.	.	.	.	.	.	(16qqff/LL	.	.	.
.	.	.	.	.	.	.	.	.	.	16qqgg/JJ)	.	.	.	.	16qqg/JJ)	.	.	.	.	.	.	.	.	.	.	.	.	.	16qqgg/JJ	.	.	.
2.r	.	4F\	.	4F\yy	.	8r	.	8r	.	4aa\	.	4r	4r	.	4a/	2.r	.	4r	.	2.r	.	2ff 2f\	.	2.r	.	2cc/	2a\	.	4aa\)	.	2.r	.
.	.	.	.	.	.	8f\L	.	8aL 8c/	.	.	.	.	.	.	.	.	.	.	.	.	.	.	.	.	.	.	.	.	.	.	.	.
.	.	4r	.	4ryy	.	8f\	.	8a 8c/	.	4ff\	.	4r	4r	.	4f/	.	.	4r	.	.	.	.	.	.	.	.	.	.	4ff\	.	.	.
.	.	.	.	.	.	8f\J	.	8aJ 8c/	.	.	.	.	.	.	.	.	.	.	.	.	.	.	.	.	.	.	.	.	.	.	.	.
!	!	!	!	!	!	!	!	!	!	!LO:TX:a:t=P:problem=tryl dopisany ołówkiem	!	!	!	!	!	!	!	!	!	!	!	!	!LO:DY:a	!	!	!	!	!	!LO:TX:a:t=P:problem=tryl dopisany ołówkiem	!	!	!
.	.	4D^<\	.	4D^<\yy	.	8r	.	8r	.	4ff#Xt\	.	4A 4D\	4f#X 4c\	sf	4f#X/	.	.	4d 4D\	.	.	.	4dd 4d/	sf	.	.	4cc/	4a\	sf	4ff#Xt\	sf	.	.
.	.	.	.	.	.	8d^\	.	8a 8c^>/	.	.	.	.	.	.	.	.	.	.	.	.	.	.	.	.	.	.	.	.	.	.	.	.
*	*	*	*	*	*	*	*	*	*	*	*	*	*	*	*v	*v	*	*	*	*	*	*	*	*	*	*v	*v	*	*	*	*	*
!!LO:PB:g=original
=28	=28	=28	=28	=28	=28	=28	=28	=28	=28	=28	=28	=28	=28	=28	=28	=28	=28	=28	=28	=28	=28	=28	=28	=28	=28	=28	=28	=28	=28	=28
*	*	*	*	*	*	*	*	*	*	*	*	*	*	*	*	*	*	*	*	*	*^	*	*	*	*	*	*	*	*	*
*	*	*	*	*	*	*	*	*	*	*	*	*2\right	*2\right	*	*	*	*	*	*	*	*	*	*	*	*	*	*	*	*	*	*
4r	.	8BB-/	.	8BB-/yy	.	8r	.	8r	.	(16aa\LL	.	2B- 2BB-\	2g 2B-\	.	2.r	.	2B- 2BB-\	.	2.r	.	4dd 4d/	4ryy	.	2.r	.	2b- 2g/	.	(16aa\LL	.	2.r	.
.	.	.	.	.	.	.	.	.	.	16gg\)	.	.	.	.	.	.	.	.	.	.	.	.	.	.	.	.	.	16gg\)	.	.	.
.	.	8r	.	8ryy	.	8d\	.	8g 8B-/	.	(16gg\	.	.	.	.	.	.	.	.	.	.	.	.	.	.	.	.	.	(16gg\	.	.	.
.	.	.	.	.	.	.	.	.	.	16ff#X\JJ)	.	.	.	.	.	.	.	.	.	.	.	.	.	.	.	.	.	16ff#X\JJ)	.	.	.
*	*	*	*	*	*	*rep	*	*rep	*	*rep	*	*	*	*	*	*	*	*	*	*	*	*	*	*	*	*	*	*rep	*	*	*
4r	.	8BB-/	.	8BB-/yy	.	8r	.	8r	.	(16aa\LL	.	.	.	.	.	.	.	.	.	.	4dd/	4dd\	.	.	.	.	.	(16aa\LL	.	.	.
.	.	.	.	.	.	.	.	.	.	16gg\)	.	.	.	.	.	.	.	.	.	.	.	.	.	.	.	.	.	16gg\)	.	.	.
.	.	8r	.	8ryy	.	8d\	.	8g 8B-/	.	(16gg\	.	.	.	.	.	.	.	.	.	.	.	.	.	.	.	.	.	(16gg\	.	.	.
.	.	.	.	.	.	.	.	.	.	16ff#\JJ)	.	.	.	.	.	.	.	.	.	.	.	.	.	.	.	.	.	16ff#\JJ)	.	.	.
*	*	*	*	*	*	*Xrep	*	*Xrep	*	*Xrep	*	*	*	*	*	*	*	*	*	*	*	*	*	*	*	*	*	*Xrep	*	*	*
*	*	*	*	*	*	*	*	*rep	*	*	*	*	*	*	*	*	*	*	*	*	*	*	*	*	*	*	*	*	*	*	*
!LO:SIC:s=8BB-\	!	!	!	!	!	!	!	!	!	!	!	!	!	!	!	!	!	!	!	!	!	!	!	!	!	!	!	!	!	!	!
8Re\	.	8C/	.	8C/yy	.	8r	.	8r	.	(16aa\LL	.	4G 4C\	4en 4B-\	sf	.	.	4c 4C\	.	.	.	4cc/	4cc\	.	.	.	4b- 4g/	sf	(16aa\LL	.	.	.
.	.	.	.	.	.	.	.	.	.	16gg\)	.	.	.	.	.	.	.	.	.	.	.	.	.	.	.	.	.	16gg\)	.	.	.
8r	.	8r	.	8ryy	.	8c\	.	8g 8B-/	.	(16gg\	.	.	.	.	.	.	.	.	.	.	.	.	.	.	.	.	.	(16gg\	.	.	.
.	.	.	.	.	.	.	.	.	.	16ee-\JJ)	.	.	.	.	.	.	.	.	.	.	.	.	.	.	.	.	.	16een\JJ)	.	.	.
*	*	*	*	*	*	*	*	*Xrep	*	*	*	*	*	*	*	*	*	*	*	*	*	*	*	*	*	*	*	*	*	*	*
*	*	*	*	*	*	*	*	*	*	*	*	*	*	*	*	*	*	*	*	*	*v	*v	*	*	*	*	*	*	*	*	*
=29	=29	=29	=29	=29	=29	=29	=29	=29	=29	=29	=29	=29	=29	=29	=29	=29	=29	=29	=29	=29	=29	=29	=29	=29	=29	=29	=29	=29	=29	=29
!LO:SIC:s=4F/	!	!	!	!	!	!	!	!	!	!	!	!	!	!	!	!	!	!	!	!	!	!	!	!	!	!	!	!	!	!
4Re/	.	4F\	.	4F\yy	.	8r	.	8r	.	(16gg\LL	.	2.F\	2.f 2.A\	.	2.r	.	2.F 2.FF/	.	2.r	.	2.cc 2.f/	.	2.r	.	2.a 2.f/	.	(16gg\LL	.	2.r	.
.	.	.	.	.	.	.	.	.	.	16ff\	.	.	.	.	.	.	.	.	.	.	.	.	.	.	.	.	16ff\	.	.	.
.	.	.	.	.	.	8cL 8F\	.	8fL 8A/	.	16een\	.	.	.	.	.	.	.	.	.	.	.	.	.	.	.	.	16een\	.	.	.
.	.	.	.	.	.	.	.	.	.	16ff\JJ)	.	.	.	.	.	.	.	.	.	.	.	.	.	.	.	.	16ff\JJ)	.	.	.
4r	.	4r	.	4ryy	.	8c 8F\	.	8f 8A/	.	4.cc\	.	.	.	.	.	.	.	.	.	.	.	.	.	.	.	.	(4.cc\	.	.	.
.	.	.	.	.	.	8cJ 8F\	.	8fJ 8A/	.	.	.	.	.	.	.	.	.	.	.	.	.	.	.	.	.	.	.	.	.	.
4r	.	8F\	.	8F\yy	.	8r	.	8r	.	.	.	.	.	.	.	.	.	.	.	.	.	.	.	.	.	.	.	.	.	.
.	.	8r	.	8ryy	.	8c 8F\	.	8f 8A/	.	8a\	.	.	.	.	.	.	.	.	.	.	.	.	.	.	.	.	8a\)	.	.	.
=30	=30	=30	=30	=30	=30	=30	=30	=30	=30	=30	=30	=30	=30	=30	=30	=30	=30	=30	=30	=30	=30	=30	=30	=30	=30	=30	=30	=30	=30	=30
*	*	*	*	*	*	*	*	*	*	*	*	*	*	*	*	*	*	*	*^	*	*	*	*	*	*	*	*	*	*	*
2.r	.	8F\	.	8F\yy	.	8r	.	8a'/L	.	8cc'\L	.	2.r	2.r	.	8c'/L	.	2.r	.	2.f/	2.f\	.	2.r	.	8ccL 8a'\	.	2.r	.	8cc\L	.	8aa'\L	.
.	.	8r	.	8ryy	.	8f\	.	(16a/L	.	(16cc\L	.	.	.	.	(16c/L	.	.	.	.	.	.	.	.	(16ccL 16a\	.	.	.	16cc\L	.	(16aa\L	.
.	.	.	.	.	.	.	.	16b-/JJ)	.	16dd\JJ)	.	.	.	.	16d/JJ)	.	.	.	.	.	.	.	.	16ddJJ 16b-\)	.	.	.	16dd\JJ	.	16bb-\JJ)	.
*	*	*	*	*	*	*rep	*	*rep	*	*rep	*	*	*	*	*rep	*	*	*	*	*	*	*	*	*rep	*	*	*	*rep	*	*rep	*
.	.	8F\	.	8F\yy	.	8r	.	8a'/L	.	8cc'\L	.	.	.	.	8c'/L	.	.	.	.	.	.	.	.	8ccL 8a'\	.	.	.	8cc\L	.	8aa'\L	.
.	.	8r	.	8ryy	.	8f\	.	(16a/L	.	(16cc\L	.	.	.	.	(16c/L	.	.	.	.	.	.	.	.	(16ccL 16a\	.	.	.	16cc\L	.	(16aa\L	.
.	.	.	.	.	.	.	.	16b-/JJ)	.	16dd\JJ)	.	.	.	.	16d/JJ)	.	.	.	.	.	.	.	.	16ddJJ 16b-\)	.	.	.	16dd\JJ	.	16bb-\JJ)	.
*	*	*	*	*	*	*Xrep	*	*Xrep	*	*Xrep	*	*	*	*	*Xrep	*	*	*	*	*	*	*	*	*Xrep	*	*	*	*Xrep	*	*Xrep	*
*	*	*	*	*	*	*rep	*	*	*	*	*	*	*	*	*	*	*	*	*	*	*	*	*	*	*	*	*	*	*	*	*
.	.	8F\	.	8F\yy	.	8r	.	8a/L	.	8cc'\L	.	.	.	.	8c/L	.	.	.	.	.	.	.	.	8ccL 8a\	.	.	.	8cc\L	.	8aa\L	.
.	.	8r	.	8ryy	.	8f\	.	8a/J	.	8ff'\J	.	.	.	.	8f/J	.	.	.	.	.	.	.	.	8ccJ 8a\	.	.	.	8ff\J	.	8aa\J	.
*	*	*	*	*	*	*Xrep	*	*	*	*	*	*	*	*	*	*	*	*	*	*	*	*	*	*	*	*	*	*	*	*	*
*	*	*	*	*	*	*	*	*	*	*	*	*	*	*	*	*	*	*	*v	*v	*	*	*	*	*	*	*	*	*	*	*
=31	=31	=31	=31	=31	=31	=31	=31	=31	=31	=31	=31	=31	=31	=31	=31	=31	=31	=31	=31	=31	=31	=31	=31	=31	=31	=31	=31	=31	=31	=31
.	.	.	.	.	.	.	.	.	.	(16qqff/LL	.	.	.	.	(16qqf/LL	.	.	.	.	.	.	.	.	.	.	.	(16qqff/LL	.	.	.
.	.	.	.	.	.	.	.	.	.	16qqgg/JJ)	.	.	.	.	16qqg/JJ	.	.	.	.	.	.	.	.	.	.	.	16qqgg/JJ)	.	.	.
*	*	*	*	*	*	*	*	*	*	*	*	*	*	*	*	*	*	*	*	*	*	*	*	*	*^	*	*	*	*	*
2.r	.	4F\	.	4F\yy	.	8r	.	8r	.	4aa\	.	4r	4r	.	4a/)	.	4r	.	2.r	.	2ff 2f\	.	2.r	.	2cc/	2a\	.	4aa\	.	2.r	.
*	*	*	*	*	*	*tremolo	*	*tremolo	*	*	*	*	*	*	*	*	*	*	*	*	*	*	*	*	*	*	*	*	*	*	*
.	.	.	.	.	.	8f\L	.	8aL 8c/	.	.	.	.	.	.	.	.	.	.	.	.	.	.	.	.	.	.	.	.	.	.	.
.	.	4r	.	4ryy	.	8f\	.	8a 8c/	.	4ff\	.	4r	4r	.	4f/	.	4r	.	.	.	.	.	.	.	.	.	.	4ff\	.	.	.
.	.	.	.	.	.	8f\J	.	8aJ 8c/	.	.	.	.	.	.	.	.	.	.	.	.	.	.	.	.	.	.	.	.	.	.	.
*	*	*	*	*	*	*Xtremolo	*	*Xtremolo	*	*	*	*	*	*	*	*	*	*	*	*	*	*	*	*	*	*	*	*	*	*	*
!	!	!	!	!	!	!	!	!	!	!LO:TX:a:t=P:problem=tryl dopisany ołowkiem	!	!	!	!	!	!	!	!	!	!	!	!	!	!	!	!	!	!LO:TX:a:t=P:problem=tryl dopisany ołówkiem	!	!	!
.	.	4D^\	.	4D^\yy	.	8r	.	8r	.	4ff#Xt\	.	4A 4D\	4f#X 4c\	sf	4f#X/	.	4d 4D\	.	.	.	4dd 4d/	.	.	.	4cc/	4a\	.	4ff#Xt\	sf	.	.
.	.	.	.	.	.	8d\	.	8a 8c^>/	.	.	.	.	.	.	.	.	.	.	.	.	.	.	.	.	.	.	.	.	.	.	.
*	*	*	*	*	*	*	*	*	*	*	*	*	*	*	*	*	*	*	*	*	*	*	*	*	*v	*v	*	*	*	*	*
!!LO:PB:g=original
=32	=32	=32	=32	=32	=32	=32	=32	=32	=32	=32	=32	=32	=32	=32	=32	=32	=32	=32	=32	=32	=32	=32	=32	=32	=32	=32	=32	=32	=32	=32
*	*	*	*	*	*	*	*	*	*	*	*	*	*	*	*	*	*	*	*^	*	*^	*	*	*	*	*	*	*	*	*
4r	.	8BB-/	.	8BB-/yy	.	8r	.	8r	.	(16aa\LL	.	2B- 2BB-\	2g 2B-\	.	(16a/LL	.	2B- 2BB-\	.	4r	4ryy	.	4dd 4d/	4ryy	.	2.r	.	2b- 2g/	.	(16aa\LL	.	2.r	.
.	.	.	.	.	.	.	.	.	.	16gg\)	.	.	.	.	16g/)	.	.	.	.	.	.	.	.	.	.	.	.	.	16gg\)	.	.	.
.	.	8r	.	8ryy	.	8d 8B-\	.	8g 8B-/	.	(16gg\	.	.	.	.	(16g/	.	.	.	.	.	.	.	.	.	.	.	.	.	(16gg\	.	.	.
.	.	.	.	.	.	.	.	.	.	16ff#X\JJ)	.	.	.	.	16f#X/JJ)	.	.	.	.	.	.	.	.	.	.	.	.	.	16ff#X\JJ)	.	.	.
4r	.	8BB-/	.	8BB-/yy	.	8r	.	8r	.	(16aa\LL	.	.	.	.	(16a/LL	.	.	.	4r	4ryy	.	4dd/	4dd\	.	.	.	.	.	(16aa\LL	.	.	.
.	.	.	.	.	.	.	.	.	.	16gg\)	.	.	.	.	16g/)	.	.	.	.	.	.	.	.	.	.	.	.	.	16gg\)	.	.	.
.	.	8r	.	8ryy	.	8d 8B-\	.	8g 8B-/	.	(16gg\	.	.	.	.	(16g/	.	.	.	.	.	.	.	.	.	.	.	.	.	(16gg\	.	.	.
.	.	.	.	.	.	.	.	.	.	16bb-\JJ)	.	.	.	.	16b-/JJ)	.	.	.	.	.	.	.	.	.	.	.	.	.	16bb-\JJ)	.	.	.
!LO:SIC:s=8BB-\	!	!	!	!	!	!	!	!	!	!	!	!	!	!	!	!	!	!	!	!	!	!	!	!	!	!	!	!	!	!	!	!
8Re\	.	8C/	.	8C/yy	.	8r	.	8r	.	(16ddd\LL	.	4G 4C\	4en 4B-\	.	(16dd/LL	.	(4B- (4C\	.	(4g/	(4eX\	.	4cc/	4cc^\	.	.	.	4een 4b-'^<\	.	(16ddd\LL	.	.	.
.	.	.	.	.	.	.	.	.	.	16ccc\)	.	.	.	.	16cc/)	.	.	.	.	.	.	.	.	.	.	.	.	.	16ccc\)	.	.	.
8r	.	8r	.	8ryy	.	8c 8G/	.	8en 8B-/	.	(16bb-\	.	.	.	.	(16b-/	.	.	.	.	.	.	.	.	.	.	.	.	.	(16bb-\	.	.	.
.	.	.	.	.	.	.	.	.	.	16gg\JJ)	.	.	.	.	16g/JJ)	.	.	.	.	.	.	.	.	.	.	.	.	.	16gg\JJ)	.	.	.
*	*	*	*	*	*	*	*	*	*	*	*	*	*	*	*	*	*	*	*	*	*	*v	*v	*	*	*	*	*	*	*	*	*
=33	=33	=33	=33	=33	=33	=33	=33	=33	=33	=33	=33	=33	=33	=33	=33	=33	=33	=33	=33	=33	=33	=33	=33	=33	=33	=33	=33	=33	=33	=33	=33
*	*	*	*	*	*	*	*	*	*	*	*	*	*	*	*	*	*	*	*	*	*	*	*	*^	*	*	*	*	*	*	*
!LO:SIC:s=8F/	!	!	!	!	!	!	!	!	!	!	!	!	!	!	!	!	!	!	!	!	!	!	!	!	!	!	!	!	!	!	!	!
8Re/	.	8F\	.	8F\yy	.	8c 8F/	.	8fL 8A/	.	8ff\L	.	8A 8F\	8f 8A\	.	8f/	.	8A 8F\))	.	8f/)	8f\)	.	8cc 8f/	.	4r	4ryy	.	8ff 8a\	.	8ff\L	.	2.r	.
!	!	!	!	!	!	!	!	!LO:TUP:b:problem=klamra łukowa	!	!LO:TUP:a:problem=klamra łukowa	!	!	!	!	!	!	!	!	!	!	!	!	!	!	!	!	!LO:TUP:a:problem=klamra łukowa	!	!LO:TUP:a:problem=klamra łukowa	!	!	!
8r	.	8r	.	8ryy	.	8r	.	24en/L	.	24een\L	.	8r	8r	.	8r	.	8r	.	8r	8ryy	.	8r	.	.	.	.	24een\LL	.	24een\L	.	.	.
.	.	.	.	.	.	.	.	24f/	.	24ff\	.	.	.	.	.	.	.	.	.	.	.	.	.	.	.	.	24ff\	.	24ff\	.	.	.
.	.	.	.	.	.	.	.	24g/JJ	.	24gg\JJ	.	.	.	.	.	.	.	.	.	.	.	.	.	.	.	.	24gg\JJ	.	24gg\JJ	.	.	.
!LO:TX:t=P:problem=jednocześnie pauza 8r i 4r	!	!	!	!	!	!	!	!	!	!	!	!	!	!	!	!	!	!	!	!	!	!	!	!	!	!	!	!	!	!	!	!
4r	.	8r	.	8ryy	.	8r	.	8f/	.	8ff\	.	4r	4r	.	4r	.	8r	.	4r	4ryy	.	4r	.	4r	4ryy	.	8ff\	.	8ff\	.	.	.
!	!	!LO:TUP:a:problem=klamra łukowa	!	!LO:TUP:a:problem=klamra łukowa	!	!LO:TUP:a:problem=klamra łukowa	!	!	!	!	!	!	!	!	!	!	!LO:TUP:a:problem=klamra łukowa	!	!	!	!	!	!	!	!	!	!	!	!	!	!	!
.	.	24En\LL	.	24En\LLyy	.	24en\LL	.	8r	.	8r	.	.	.	.	.	.	24En\LL	.	.	.	.	.	.	.	.	.	8r	.	8r	.	.	.
.	.	24F\	.	24F\yy	.	24f\	.	.	.	.	.	.	.	.	.	.	24F\	.	.	.	.	.	.	.	.	.	.	.	.	.	.	.
.	.	24G\J	.	24G\Jyy	.	24g\J	.	.	.	.	.	.	.	.	.	.	24G\JJ	.	.	.	.	.	.	.	.	.	.	.	.	.	.	.
4r	.	8F\J	.	8F\Jyy	.	8f\J	.	4r	.	4r	.	4r	4r	.	4r	.	8F\	.	4r	4ryy	.	4r	.	8r	8ryy	.	4r	.	4r	.	.	.
!LO:TX:b:t=D'al Segno al fine e poi Trio.	!	!	!	!	!	!	!	!	!	!	!	!	!	!	!	!	!	!	!	!	!	!	!	!	!	!	!	!	!	!	!	!
!LO:TX:a:t=[segno]:problem=znak segno na kresce taktowej	!	!LO:TX:a:t=[segno]:problem=znak segno na kresce taktowej	!	!LO:TX:a:t=[segno]:problem=znak segno na kresce taktowej	!	!LO:TX:a:t=[segno]:problem=znak segno na kresce taktowej	!	!LO:TX:a:t=[segno]:problem=znak segno na kresce taktowej	!	!LO:TX:a:t=[segno]:problem=znak segno na kresce taktowej	!	!LO:TX:a:t=[segno]:problem=znak segno na kresce taktowej	!LO:TX:a:t=[segno]:problem=znak segno na kresce taktowej	!	!LO:TX:a:t=[segno]:problem=znak segno na kresce taktowej	!	!LO:TX:a:t=[segno]:problem=znak segno na kresce taktowej	!	!LO:TX:a:t=[segno]:problem=znak segno na kresce taktowej	!	!	!LO:TX:a:t=[segno]:problem=znak segno na kresce taktowej	!	!LO:TX:a:t=[segno]:problem=znak segno na kresce taktowej	!	!	!LO:TX:a:t=[segno]:problem=znak segno na kresce taktowej	!	!LO:TX:a:t=[segno]:problem=znak segno na kresce taktowej	!	!LO:TX:a:t=[segno]:problem=znak segno na kresce taktowej	!
.	.	8ryy	.	8ryy	.	8r	.	.	.	.	.	.	.	.	.	.	8r	.	.	.	.	.	.	8f/	8f\	.	.	.	.	.	.	.
*	*	*	*	*	*	*	*	*	*	*	*	*	*	*	*	*	*	*	*v	*v	*	*	*	*v	*v	*	*	*	*	*	*	*
!!LO:PB:g=original
=34||	=34||	=34||	=34||	=34||	=34||	=34||	=34||	=34||	=34||	=34||	=34||	=34||	=34||	=34||	=34||	=34||	=34||	=34||	=34||	=34||	=34||	=34||	=34||	=34||	=34||	=34||	=34||	=34||	=34||	=34||
!!!OMD: Trio.
*>D	*>D	*>D	*>D	*>D	*>D	*>D	*>D	*>D	*>D	*>D	*>D	*>D	*>D	*>D	*>D	*>D	*>D	*>D	*>D	*>D	*>D	*>D	*>D	*>D	*>D	*>D	*>D	*>D	*>D	*>D
*k[]	*	*k[b-e-a-]	*	*k[b-e-a-]	*	*k[b-e-a-]	*	*k[b-e-a-]	*	*k[b-e-a-]	*	*k[b-e-a-]	*k[b-e-a-]	*	*k[b-e-a-]	*	*k[b-e-a-]	*	*k[b-e-a-]	*	*k[b-e-]	*	*k[b-e-a-]	*	*k[b-e-a-]	*	*k[b-e-a-]	*	*k[b-e-a-]	*
*M3/4	*	*M3/4	*	*M3/4	*	*M3/4	*	*M3/4	*	*M3/4	*	*M3/4	*M3/4	*	*M3/4	*	*M3/4	*	*M3/4	*	*M3/4	*	*M3/4	*	*M3/4	*	*M3/4	*	*M3/4	*
!	!	!	!	!	!	!	!	!	!	!LO:TX:a:t=/&colon; Solo męszczyzn &colon;/	!	!	!	!	!	!	!	!	!	!	!	!	!	!	!	!	!	!	!	!
2.r	.	8E-\	.	8E-\yy	.	8B-/	.	8e-/	.	8g/	.	2.r	2.r	.	2.r	.	2.r	.	2.r	.	2.r	.	2.r	.	2.r	.	2.r	.	2.r	.
.	.	8r	.	8ryy	.	8r	.	8r	.	8r	.	.	.	.	.	.	.	.	.	.	.	.	.	.	.	.	.	.	.	.
.	.	4.D^<\	.	4.D^<\yy	.	4.B-/	.	4.f/	.	4.b-^/	.	.	.	.	.	.	.	.	.	.	.	.	.	.	.	.	.	.	.	.
.	.	8D\	.	8D\yy	.	8B-/	.	8f/	.	8f/	.	.	.	.	.	.	.	.	.	.	.	.	.	.	.	.	.	.	.	.
=35	=35	=35	=35	=35	=35	=35	=35	=35	=35	=35	=35	=35	=35	=35	=35	=35	=35	=35	=35	=35	=35	=35	=35	=35	=35	=35	=35	=35	=35	=35
2.r	.	(16E-\LL	.	(y16E-\LLyy	.	8.B-/L	.	(16e-/LL	.	(16g/LL	.	2.r	2.r	.	2.r	.	2.r	.	2.r	.	2.r	.	2.r	.	2.r	.	2.r	.	2.r	.
.	.	16D\	.	16D\yy	.	.	.	16f/J)	.	16f/	.	.	.	.	.	.	.	.	.	.	.	.	.	.	.	.	.	.	.	.
.	.	16E-\	.	16E-\yy	.	.	.	8e-/J	.	16g/	.	.	.	.	.	.	.	.	.	.	.	.	.	.	.	.	.	.	.	.
.	.	16C\JJ	.	16C\JJyy	.	16c/Jk	.	.	.	16a-/JJ	.	.	.	.	.	.	.	.	.	.	.	.	.	.	.	.	.	.	.	.
.	.	4.BB-/)	.	4.BB-/)yy	.	4.B-/	.	4.d/	.	4.b-/)	.	.	.	.	.	.	.	.	.	.	.	.	.	.	.	.	.	.	.	.
.	.	8D\	.	8D\yy	.	8B-/	.	8f/	.	8f/	.	.	.	.	.	.	.	.	.	.	.	.	.	.	.	.	.	.	.	.
=36	=36	=36	=36	=36	=36	=36	=36	=36	=36	=36	=36	=36	=36	=36	=36	=36	=36	=36	=36	=36	=36	=36	=36	=36	=36	=36	=36	=36	=36	=36
*	*	*	*	*	*	*	*	*	*	*	*	*	*	*	*^	*	*^	*	*	*	*	*	*	*	*^	*	*	*	*	*
2.r	.	8E-'\L	.	8E-'\Lyy	.	4B-/	.	8e-/L	.	8g'/L	.	2.r	2.r	.	8r	8ryy	.	8r	8ryy	.	2.r	.	2.r	.	2.r	.	8r	8r	.	2.r	.	2.r	.
.	.	8G'\	.	8G'\yy	.	.	.	8e-/J	.	8b-'/	.	.	.	.	8b-/	8e-\	.	8B-/	8G\	.	.	.	.	.	.	.	8bb-/	8ee-\	.	.	.	.	.
.	.	(8A-^<\	.	(y8A-^<\yy	.	(8c/L	.	4e-/	.	(8cc^/	.	.	.	.	(8cc/L	4e-\	.	(8c/L	8A-\L	.	.	.	.	.	.	.	(8ccc/L	4ee-\	.	.	.	.	.
.	.	8G\)	.	8G\)yy	.	8B-/J)	.	.	.	8b-/)	.	.	.	.	8b-/)	.	.	8B-/)	8G\	.	.	.	.	.	.	.	8bb-/)	.	.	.	.	.	.
.	.	8F'\	.	8F'\yy	.	8B-'/L	.	8d/L	.	8a-'/	.	.	.	.	8a-'/	8d\L	.	8B-'/	8F\	.	.	.	.	.	.	.	8aa-'/	8dd\L	.	.	.	.	.
.	.	8E-'\J	.	8E-'\Jyy	.	8B-'/J	.	8e-/J	.	8g'/J	.	.	.	.	8g'/J	8e-\J	.	8B-'/J	8E-\J	.	.	.	.	.	.	.	8gg'/J	8ee-\J	.	.	.	.	.
*	*	*	*	*	*	*	*	*	*	*	*	*	*	*	*	*	*	*v	*v	*	*	*	*	*	*	*	*	*	*	*	*	*	*
=37	=37	=37	=37	=37	=37	=37	=37	=37	=37	=37	=37	=37	=37	=37	=37	=37	=37	=37	=37	=37	=37	=37	=37	=37	=37	=37	=37	=37	=37	=37	=37	=37
*	*	*	*	*	*	*	*	*	*	*	*	*	*	*	*	*	*	*	*	*^	*	*	*	*	*	*	*	*	*	*	*	*
*	*	*	*	*	*	*	*	*	*	*	*	*tremolo	*	*	*	*	*	*	*	*	*	*	*	*	*	*	*	*	*	*	*	*	*
!LO:SIC:s=8BB-\L	!	!	!	!	!	!	!	!	!	!	!	!	!	!	!	!	!	!	!	!	!	!	!	!	!	!	!	!	!	!	!	!	!
8Re\L	.	8BB-/L	.	8BB-/Lyy	.	8B-'/L	.	8d'/L	.	8f'/L	.	8B-L 8BB-\	8fL 8d\	.	8f/L	8d\L	.	8B-L 8BB-\	.	8f/L	8B-\L	.	8ddL 8B-/	.	2.r	.	8ff'/L	8dd\L	.	2.r	.	2.r	.
!LO:SIC:s=8BB-\tJ	!	!	!	!	!	!	!	!	!	!	!	!	!LO:S:s=2:note:problem=note-level slur	!	!	!	!	!	!	!	!	!	!	!	!	!	!	!	!	!	!	!	!
8Re\tJ	.	8BB-^/J	.	8BB-^/Jyy	.	8B-^/J	.	(8c#X^>/J	.	(16en^>/L	.	8B- 8BB-\	(8en (>8c#X^<\	.	16en/L	8c#X\J	.	8B-J 8BB-^<\	.	8eX/	8B-\	.	8cc#XJ 8B-^>/	.	.	.	(16een/L	(>8cc#X^\J	.	.	.	.	.
.	.	.	.	.	.	.	.	.	.	16g/JJ)	.	.	.	.	16g/JJ	.	.	.	.	.	.	.	.	.	.	.	16gg/JJ)	.	.	.	.	.	.
*	*	*	*	*	*	*rep	*	*	*	*rep	*	*	*	*	*	*	*	*	*	*	*	*	*	*	*	*	*	*	*	*	*	*	*
!LO:SIC:s=8BB-\L	!	!	!	!	!	!	!	!	!	!	!	!	!	!	!	!	!	!	!	!	!	!	!	!	!	!	!	!	!	!	!	!	!
8Re\L	.	8BB-/L	.	8BB-/Lyy	.	8B-'/L	.	8d/L)	.	8f'/L	.	8B- 8BB-\	8f) 8d\)	.	8f/L	8d\L	.	8B-L 8BB-\	.	8f/	8B-\	.	8ddL 8B-/	.	.	.	8ff/L	8dd\L)	.	.	.	.	.
!LO:SIC:s=8BB-\tJ	!	!	!	!	!	!	!	!	!	!	!	!	!LO:S:s=2:note:problem=note-level slur	!	!	!	!	!	!	!	!	!	!	!	!	!	!	!	!	!	!	!	!
8Re\tJ	.	8BB-^/J	.	8BB-^/Jyy	.	8B-^/J	.	(8c#X'/J	.	(16e^>/L	.	8B-J 8BB-\	(8eJ (>8c#^<\	.	16e/L	8c#\J	.	8B-J 8BB-^<\	.	8e/J	8B-\J	.	8cc#J 8B-^>/	.	.	.	16ee/L	(>8cc#^\J	.	.	.	.	.
*	*	*	*	*	*	*Xrep	*	*	*	*	*	*Xtremolo	*	*	*	*	*	*	*	*	*	*	*	*	*	*	*	*	*	*	*	*	*
.	.	.	.	.	.	.	.	.	.	16g/JJ)	.	.	.	.	16g/JJ	.	.	.	.	.	.	.	.	.	.	.	16gg/JJ	.	.	.	.	.	.
*	*	*	*	*	*	*	*	*	*	*Xrep	*	*	*	*	*	*	*	*	*	*	*	*	*	*	*	*	*	*	*	*	*	*	*
!LO:SIC:s=8BB-\	!	!	!	!	!	!	!	!	!	!	!	!	!	!	!	!	!	!	!	!	!	!	!	!	!	!	!	!	!	!	!	!	!
8Re\	.	8BB-/L	.	8BB-/Lyy	.	8B-/L	.	8d/L)	.	8f/L	.	8B- 8BB-\	8f) 8d\)	.	8f/	8d\	.	8B- 8BB-\	.	8f/	8B-\	.	8dd 8B-/	.	.	.	8ff/	8dd\)	.	.	.	.	.
8r	.	8BB-/J	.	8BB-/Jyy	.	8B-/J	.	8d'/J	.	8f#X/J	.	8r	8r	.	8r	8r	.	8r	.	8r	8r	.	8r	.	.	.	8r	8ryy	.	.	.	.	.
*	*	*	*	*	*	*	*	*	*	*	*	*	*	*	*v	*v	*	*	*	*v	*v	*	*	*	*	*	*v	*v	*	*	*	*	*
!!LO:PB:g=original
=38	=38	=38	=38	=38	=38	=38	=38	=38	=38	=38	=38	=38	=38	=38	=38	=38	=38	=38	=38	=38	=38	=38	=38	=38	=38	=38	=38	=38	=38	=38
2.ryy	.	8E-\	.	8E-\yy	.	8B-/	.	8e-/	.	8g/	.	2.r	2.r	.	2.r	.	2.r	.	2.r	.	2.r	.	2.r	.	2.r	.	2.r	.	8gg\	.
.	.	8r	.	8ryy	.	8r	.	8r	.	8r	.	.	.	.	.	.	.	.	.	.	.	.	.	.	.	.	.	.	8r	.
.	.	4.D\	.	4.D\yy	.	4.B-/	.	4.f/	.	4.b-/	.	.	.	.	.	.	.	.	.	.	.	.	.	.	.	.	.	.	4.bb-^<\	.
.	.	8D\	.	8D\yy	.	8B-/	.	8f/	.	8f/	.	.	.	.	.	.	.	.	.	.	.	.	.	.	.	.	.	.	8ff\	.
=39	=39	=39	=39	=39	=39	=39	=39	=39	=39	=39	=39	=39	=39	=39	=39	=39	=39	=39	=39	=39	=39	=39	=39	=39	=39	=39	=39	=39	=39	=39
2.ryy	.	(16E-\LL	.	(y16E-\LLyy	.	8.B-/L	.	(16e-/LL	.	(16g/LL	.	2.r	2.r	.	2.r	.	2.r	.	2.r	.	2.r	.	2.r	.	2.r	.	2.r	.	(16gg\LL	.
.	.	16D\	.	16D\yy	.	.	.	16f/J	.	16f/	.	.	.	.	.	.	.	.	.	.	.	.	.	.	.	.	.	.	16ff\	.
.	.	16E-\	.	16E-\yy	.	.	.	8e-/J)	.	16g/	.	.	.	.	.	.	.	.	.	.	.	.	.	.	.	.	.	.	16gg\	.
.	.	16C\JJ	.	16C\JJyy	.	16c/Jk	.	.	.	16a-/JJ	.	.	.	.	.	.	.	.	.	.	.	.	.	.	.	.	.	.	16aa-\JJ)	.
.	.	4.BB-/)	.	4.BB-/)yy	.	4.B-/	.	4.d/	.	4.b-/)	.	.	.	.	.	.	.	.	.	.	.	.	.	.	.	.	.	.	4.bb-\	.
.	.	8D/	.	8D/yy	.	8B-/	.	8f/	.	8f/	.	.	.	.	.	.	.	.	.	.	.	.	.	.	.	.	.	.	8ff\	.
=40	=40	=40	=40	=40	=40	=40	=40	=40	=40	=40	=40	=40	=40	=40	=40	=40	=40	=40	=40	=40	=40	=40	=40	=40	=40	=40	=40	=40	=40	=40
*	*	*	*	*	*	*	*	*	*	*	*	*	*	*	*	*	*	*	*	*	*	*	*	*	*^	*	*	*	*	*
!	!	!	!	!	!	!	!	!LO:TX:t=P:problem=mixed beam	!	!	!	!	!	!	!	!	!	!	!	!	!	!	!	!	!	!	!	!	!	!	!
2.ryy	.	8E-'/L	.	8E-'/Lyy	.	8B-/L	.	8e-'/L	.	8g'\L	.	2.r	2.r	.	8r	.	8r	.	2.r	.	2.r	.	2.r	.	8r	2.r	.	2.r	.	8gg'\L	.
.	.	8C'/J	.	8C'/Jyy	.	8c/J	.	8cc'\J	.	8ee-'\J	.	.	.	.	8ee- 8cc\	.	8c 8C\	.	.	.	.	.	.	.	8ccc/L	.	.	.	.	8eee-'\	.
*	*	*tremolo	*	*tremolo	*	*	*	*	*	*	*	*	*	*	*	*	*	*	*	*	*	*	*	*	*	*	*	*	*	*	*
*	*	*2\right	*	*2\right	*	*	*	*	*	*	*	*	*	*	*	*	*	*	*	*	*	*	*	*	*	*	*	*	*	*	*
.	.	8D\L	.	8D\Lyy	.	8d\L	.	(8b-/L	.	(8dd\L	.	.	.	.	(8ddL 8b-\	.	8dL 8D\	.	.	.	.	.	.	.	(>8bb-/	.	.	.	.	(8ddd\	.
.	.	8D\	.	8D\yy	.	8d\	.	8an/J)	.	8cc\J)	.	.	.	.	8ccJ 8an\)	.	8d 8D\	.	.	.	.	.	.	.	8aan/	.	.	.	.	8ccc\)	.
.	.	8D\	.	8D\yy	.	8d\	.	8g'/L	.	8b-'/L	.	.	.	.	8b-L 8g'/	.	8d 8D\	.	.	.	.	.	.	.	8gg'/)	.	.	.	.	8bb-'\	.
.	.	8D\J	.	8D\Jyy	.	8dJ 8c\	.	8f#X'/J	.	8an'/J	.	.	.	.	8anJ 8f#X'/	.	8cJ 8C\	.	.	.	.	.	.	.	8ff#X'/J	.	.	.	.	8aan'\J	.
*	*	*Xtremolo	*	*Xtremolo	*	*	*	*	*	*	*	*	*	*	*	*	*	*	*	*	*	*	*	*	*	*	*	*	*	*	*
=41	=41	=41	=41	=41	=41	=41	=41	=41	=41	=41	=41	=41	=41	=41	=41	=41	=41	=41	=41	=41	=41	=41	=41	=41	=41	=41	=41	=41	=41	=41	=41
*	*	*	*	*	*	*	*	*	*	*	*	*	*	*	*^	*	*	*	*	*	*^	*	*^	*	*	*	*	*	*	*	*
2.ryy	.	8G\L	.	8G\Lyy	.	8dL 8B-\	.	8g/L	.	8g'/L	.	8G\L	8B-L 8G/	.	8g/L	2ryy	.	8B-L 8G\	.	2.r	.	8dd/L	8b-\L	.	4r	4ryy	.	8gg/L	8b-\L	.	4r	.	8gg'\L	.
!	!	!	!	!	!	!LO:S:s=2:note:problem=note-level slur	!	!	!	!	!	!	!	!	!	!	!	!LO:S:s=2:note:problem=note-level slur	!	!	!	!	!	!	!	!	!	!	!	!	!	!	!	!
.	.	(8D^\J	.	(y8D^\Jyy	.	[8dJ (8An^\	.	([8dJ 8c^>/	.	(16f#X^>/L	.	(8D^<\	(8AnJ (8F#X/	.	(8anJ (8f#X^/	.	.	(8AnJ (>8D^<\	.	.	.	[8dd/J	(>8cc^\J	.	.	.	.	[8dd/J	(>8cc\J	.	.	.	(16ff#X^<\L	.
.	.	.	.	.	.	.	.	.	.	16an/JJ)	.	.	.	.	.	.	.	.	.	.	.	.	.	.	.	.	.	.	.	.	.	.	16aan\JJ)	.
*	*	*	*	*	*	*	*	*	*	*rep	*	*	*	*	*	*	*	*	*	*	*	*	*	*	*	*	*	*	*	*	*	*	*	*
.	.	8G\L)	.	8G\L)yy	.	8d]L 8G\)	.	8d]L 8B-/)	.	8g'/L	.	8G\)	8B-L) 8G/)	.	8g/L))	.	.	8B-L) 8G\)	.	.	.	8dd/L]	8b-\L)	.	4r	4ryy	.	8dd/L]	8b-\L)	.	4r	.	8gg\L	.
!	!	!	!	!	!	!LO:S:s=2:note:problem=note-level slur	!	!	!	!	!	!	!	!	!	!	!	!LO:S:s=2:note:problem=note-level slur	!	!	!	!	!	!	!	!	!	!	!	!	!	!	!	!
.	.	(8D^<\J|	.	(y8D^<\J|yy	.	[8dJ (8A^\	.	([8dJ 8c^>/	.	(16f#^>/L	.	(8D^<\J	(8AJ (8F#/	.	(8aJ (8f#^/	.	.	(8AJ (>8D^<\	.	.	.	[8dd/J	(>8cc^\J	.	.	.	.	[8dd/J	(>8cc\J	.	.	.	(16ff#^<\L	.
.	.	.	.	.	.	.	.	.	.	16a/JJ)	.	.	.	.	.	.	.	.	.	.	.	.	.	.	.	.	.	.	.	.	.	.	16aa\JJ)	.
*	*	*	*	*	*	*	*	*	*	*Xrep	*	*	*	*	*	*	*	*	*	*	*	*	*	*	*	*	*	*	*	*	*	*	*	*
.	.	8G\)	.	8G\)yy	.	8d] 8G\)	.	8d] 8B-/)	.	8g/	.	8G\)	8B-) 8G/)	.	8g/))	8g\	.	8B-) 8G\)	.	.	.	8dd/]	8b-\Z)	.	8r	8ryy	.	8dd/]	8b-\)	.	8r	.	8gg\	.
.	.	8r	.	8ryy	.	8r	.	8r	.	8r	.	8r	8r	.	8r	8ryy	.	8r	.	.	.	8r	8r	.	8b-/	8b-\	.	8r	8ryy	.	8b-\	.	8bb-\	.
*	*	*	*	*	*	*	*	*	*	*	*	*	*	*	*	*	*	*	*	*	*	*v	*v	*	*	*	*	*v	*v	*	*	*	*	*
*	*	*	*	*	*	*	*	*	*	*	*	*	*	*	*	*	*	*	*	*	*	*	*	*v	*v	*	*	*	*	*	*	*
!!LO:PB:g=original
=42	=42	=42	=42	=42	=42	=42	=42	=42	=42	=42	=42	=42	=42	=42	=42	=42	=42	=42	=42	=42	=42	=42	=42	=42	=42	=42	=42	=42	=42	=42	=42
!	!	!	!	!	!	!	!	!	!	!	!	!	!	!	!	!	!	!	!LO:DY:rj	!	!LO:DY:rj	!	!	!	!	!	!	!	!	!LO:TX:a:i:t=/&colon;Solo Dans&colon;/	!
2.ryy	.	8BB-/	p	8BB-/yy	py	8r	.	8r	p	2.r	.	2.r	2.r	.	2.r	2.r	.	2.A- 2.BB-\	p	2.f 2.B-/	p	2.r	.	16aa-LL 16ff\	.	2.r	.	16aa-\LL	.	16fff\LL	.
.	.	.	.	.	.	.	.	.	.	.	.	.	.	.	.	.	.	.	.	.	.	.	.	16gg 16ee-\	.	.	.	16gg\	.	16eee-\	.
.	.	8r	.	8ryy	.	8B- 8F/	.	8d 8A-/	.	.	.	.	.	.	.	.	.	.	.	.	.	.	.	16ff 16dd\	.	.	.	16ff\	.	16ddd\	.
.	.	.	.	.	.	.	.	.	.	.	.	.	.	.	.	.	.	.	.	.	.	.	.	16ee-JJ 16cc\	.	.	.	16ee-\JJ	.	16ccc\JJ	.
*	*	*rep	*	*repy	*	*rep	*	*rep	*	*	*	*	*	*	*	*	*	*	*	*	*	*	*	*	*	*	*	*	*	*	*
.	.	8BB-/	.	8BB-/yy	.	8r	.	8r	.	.	.	.	.	.	.	.	.	.	.	.	.	.	.	16ffLL 16dd\	.	.	.	16ff\LL	.	16ddd\LL	.
.	.	.	.	.	.	.	.	.	.	.	.	.	.	.	.	.	.	.	.	.	.	.	.	16ee- 16cc\	.	.	.	16ee-\	.	16ccc\	.
.	.	8r	.	8ryy	.	8B- 8F/	.	8d 8A-/	.	.	.	.	.	.	.	.	.	.	.	.	.	.	.	16dd 16b-\	.	.	.	16dd\	.	16bb-\	.
.	.	.	.	.	.	.	.	.	.	.	.	.	.	.	.	.	.	.	.	.	.	.	.	16ccJJ 16a-\	.	.	.	16cc\JJ	.	16aa-\JJ	.
*	*	*Xrep	*	*Xrep	*	*Xrep	*	*Xrep	*	*	*	*	*	*	*	*	*	*	*	*	*	*	*	*	*	*	*	*	*	*	*
*	*	*rep	*	*repy	*	*rep	*	*rep	*	*	*	*	*	*	*	*	*	*	*	*	*	*	*	*	*	*	*	*	*	*	*
.	.	8BB-/	.	8BB-/yy	.	8r	.	8r	.	.	.	.	.	.	.	.	.	.	.	.	.	.	.	16ddLL 16b-\	.	.	.	16dd\LL	.	16bb-\LL	.
.	.	.	.	.	.	.	.	.	.	.	.	.	.	.	.	.	.	.	.	.	.	.	.	16cc 16a-\	.	.	.	16cc\	.	16aa-\	.
.	.	8r	.	8ryy	.	8B- 8F/	.	8d 8A-/	.	.	.	.	.	.	.	.	.	.	.	.	.	.	.	16b- 16g\	.	.	.	16b-\	.	16gg\	.
.	.	.	.	.	.	.	.	.	.	.	.	.	.	.	.	.	.	.	.	.	.	.	.	16a-JJ 16f\	.	.	.	16a-\JJ	.	16ff\JJ	.
*	*	*Xrep	*	*Xrep	*	*Xrep	*	*Xrep	*	*	*	*	*	*	*	*	*	*	*	*	*	*	*	*	*	*	*	*	*	*	*
*	*	*	*	*	*	*	*	*	*	*	*	*	*	*	*v	*v	*	*	*	*	*	*	*	*	*	*	*	*	*	*	*
=43	=43	=43	=43	=43	=43	=43	=43	=43	=43	=43	=43	=43	=43	=43	=43	=43	=43	=43	=43	=43	=43	=43	=43	=43	=43	=43	=43	=43	=43	=43
*	*	*	*	*	*	*	*	*	*	*	*	*	*	*	*	*	*	*	*^	*	*	*	*	*	*	*	*	*	*	*
!	!	!	!	!	!	!	!	!	!	!	!	!	!	!	!	!	!	!LO:DY:rj	!	!	!LO:DY:rj	!	!	!	!	!	!	!	!	!	!
2.ryy	.	8E-\	sf	8E-\yy	sfy	8r	.	8r	.	(16g\LL	sf	2.r	2.r	.	2.r	.	2.G 2.E-\	sfp	2.e-/	2.B-\	sfp	2.r	.	(16gLL 16e-\	.	2.r	.	(16g\LL	.	(16ee-\LL	.
.	.	.	.	.	.	.	.	.	.	16b-\	.	.	.	.	.	.	.	.	.	.	.	.	.	16b- 16g\	.	.	.	16b-\	.	16gg\	.
!	!	!	!	!	!	!	!	!	!LO:DY:a	!	!	!	!	!	!	!	!	!	!	!	!	!	!	!	!	!	!	!	!	!	!
.	.	8r	p	8ryy	py	8B- 8E-/	sf	8e- 8G/	sf	16ee-\	.	.	.	.	.	.	.	.	.	.	.	.	.	16ee- 16b-\	.	.	.	16ee-\	.	16bb-\	.
.	.	.	.	.	.	.	.	.	.	16gg\JJ)	.	.	.	.	.	.	.	.	.	.	.	.	.	16ggJJ 16ee-\)	.	.	.	16gg\JJ)	.	16eee-\JJ)	.
*	*	*rep	*	*repy	*	*rep	*	*rep	*	*	*	*	*	*	*	*	*	*	*	*	*	*	*	*	*	*	*	*	*	*	*
.	.	8E-\	.	8E-\yy	.	8r	p	8r	p	(4.ee-\	.	.	.	.	.	.	.	.	.	.	.	.	.	4.ee- 4.b-\	.	.	.	4.ee-\	.	4.bb-\	.
.	.	8r	.	8ryy	.	8B- 8E-/	.	8e- 8G/	.	.	.	.	.	.	.	.	.	.	.	.	.	.	.	.	.	.	.	.	.	.	.
*	*	*Xrep	*	*Xrep	*	*Xrep	*	*Xrep	*	*	*	*	*	*	*	*	*	*	*	*	*	*	*	*	*	*	*	*	*	*	*
*	*	*rep	*	*repy	*	*rep	*	*rep	*	*	*	*	*	*	*	*	*	*	*	*	*	*	*	*	*	*	*	*	*	*	*
.	.	8E-\	.	8E-\yy	.	8r	.	8r	.	.	.	.	.	.	.	.	.	.	.	.	.	.	.	.	.	.	.	.	.	.	.
.	.	8r	.	8ryy	.	8B- 8E-/	.	8e- 8G/	.	8b-\)	.	.	.	.	.	.	.	.	.	.	.	.	.	8b- 8g\	.	.	.	8b-\	.	8gg\	.
*	*	*Xrep	*	*Xrep	*	*Xrep	*	*Xrep	*	*	*	*	*	*	*	*	*	*	*	*	*	*	*	*	*	*	*	*	*	*	*
*	*	*	*	*	*	*	*	*	*	*	*	*	*	*	*	*	*	*	*v	*v	*	*	*	*	*	*	*	*	*	*	*
=44	=44	=44	=44	=44	=44	=44	=44	=44	=44	=44	=44	=44	=44	=44	=44	=44	=44	=44	=44	=44	=44	=44	=44	=44	=44	=44	=44	=44	=44	=44
2.ryy	.	8BB-/	.	8BB-/yy	.	8r	.	8r	.	2.r	.	2.r	2.r	.	2.r	.	2.A- 2.BB-\	.	2.f 2.B-/	.	2.r	.	16aa-LL 16ff\	.	2.r	.	16aa-\LL	.	16fff\LL	.
.	.	.	.	.	.	.	.	.	.	.	.	.	.	.	.	.	.	.	.	.	.	.	16gg 16ee-\	.	.	.	16gg\	.	16eee-\	.
.	.	8r	.	8ryy	.	8B- 8F/	.	8d 8A-/	.	.	.	.	.	.	.	.	.	.	.	.	.	.	16ff 16dd\	.	.	.	16ff\	.	16ddd\	.
.	.	.	.	.	.	.	.	.	.	.	.	.	.	.	.	.	.	.	.	.	.	.	16ee-JJ 16cc\	.	.	.	16ee-\JJ	.	16ccc\JJ	.
*	*	*rep	*	*repy	*	*rep	*	*rep	*	*	*	*	*	*	*	*	*	*	*	*	*	*	*	*	*	*	*	*	*	*
.	.	8BB-/	.	8BB-/yy	.	8r	.	8r	.	.	.	.	.	.	.	.	.	.	.	.	.	.	16ffLL 16dd\	.	.	.	16ff\LL	.	16ddd\LL	.
.	.	.	.	.	.	.	.	.	.	.	.	.	.	.	.	.	.	.	.	.	.	.	16ee- 16cc\	.	.	.	16ee-\	.	16ccc\	.
.	.	8r	.	8ryy	.	8B- 8F/	.	8d 8A-/	.	.	.	.	.	.	.	.	.	.	.	.	.	.	16dd 16b-\	.	.	.	16dd\	.	16bb-\	.
.	.	.	.	.	.	.	.	.	.	.	.	.	.	.	.	.	.	.	.	.	.	.	16ccJJ 16a-\	.	.	.	16cc\JJ	.	16aa-\JJ	.
*	*	*Xrep	*	*Xrep	*	*Xrep	*	*Xrep	*	*	*	*	*	*	*	*	*	*	*	*	*	*	*	*	*	*	*	*	*	*
*	*	*rep	*	*repy	*	*rep	*	*rep	*	*	*	*	*	*	*	*	*	*	*	*	*	*	*	*	*	*	*	*	*	*
.	.	8BB-/	.	8BB-/yy	.	8r	.	8r	.	.	.	.	.	.	.	.	.	.	.	.	.	.	16ddLL 16b-\	.	.	.	16dd\LL	.	16bb-\LL	.
.	.	.	.	.	.	.	.	.	.	.	.	.	.	.	.	.	.	.	.	.	.	.	16cc 16a-\	.	.	.	16cc\	.	16aa-\	.
.	.	8r	.	8ryy	.	8B- 8F/	.	8d 8A-/	.	.	.	.	.	.	.	.	.	.	.	.	.	.	16b- 16g\	.	.	.	16b-\	.	16gg\	.
.	.	.	.	.	.	.	.	.	.	.	.	.	.	.	.	.	.	.	.	.	.	.	16a-JJ 16f\	.	.	.	16a-\JJ	.	16ff\JJ	.
*	*	*Xrep	*	*Xrep	*	*Xrep	*	*Xrep	*	*	*	*	*	*	*	*	*	*	*	*	*	*	*	*	*	*	*	*	*	*
!!LO:PB:g=original
=45	=45	=45	=45	=45	=45	=45	=45	=45	=45	=45	=45	=45	=45	=45	=45	=45	=45	=45	=45	=45	=45	=45	=45	=45	=45	=45	=45	=45	=45	=45
*	*	*	*	*	*	*	*	*	*	*	*	*	*	*	*	*	*^	*	*^	*	*	*	*^	*	*	*	*	*	*	*
!	!	!	!	!	!	!	!	!	!	!	!	!	!	!	!	!	!	!	!LO:DY:rj	!	!	!LO:DY:rj	!	!	!	!	!	!	!	!	!	!	!
2.r	.	8E-\	sf	8E-\yy	sfy	8r	.	8r	.	(16g\LL	.	2.r	2.r	.	2.r	.	2.G/	2.E-\	sf	2.e-/	2.B-\	sf	2.r	.	(16gLL 16e-/	4ryy	.	2.r	.	(16g\LL	.	(16ee-\LL	.
.	.	.	.	.	.	.	.	.	.	16b-\	.	.	.	.	.	.	.	.	.	.	.	.	.	.	16b- 16g/	.	.	.	.	16b-\	.	16gg\	.
!	!	!	!	!	!	!	!	!	!LO:DY:rj	!	!	!	!	!	!	!	!	!	!	!	!	!	!	!	!	!	!	!	!	!	!	!	!
.	.	8r	.	8ryy	.	8B- 8E-/	sf	8e- 8G/	sf	16ee-\	.	.	.	.	.	.	.	.	.	.	.	.	.	.	16ee- 16b-/	.	.	.	.	16ee-\	.	16bb-\	.
.	.	.	.	.	.	.	.	.	.	16gg\JJ	.	.	.	.	.	.	.	.	.	.	.	.	.	.	16ggJJ 16ee-/)	.	.	.	.	16gg\JJ	.	16eee-\JJ	.
*	*	*rep	*	*repy	*	*rep	*	*rep	*	*	*	*	*	*	*	*	*	*	*	*	*	*	*	*	*	*	*	*	*	*	*	*	*
.	.	8E-\	.	8E-\yy	.	8r	.	8r	.	4.ee-\)	.	.	.	.	.	.	.	.	.	.	.	.	.	.	4.ee-/	4.b-\	.	.	.	4.ee-\)	.	4.bb-\)	.
.	.	8r	.	8ryy	.	8B- 8E-/	.	8e- 8G/	s.	.	.	.	.	.	.	.	.	.	.	.	.	.	.	.	.	.	.	.	.	.	.	.	.
*	*	*Xrep	*	*Xrep	*	*Xrep	*	*Xrep	*	*	*	*	*	*	*	*	*	*	*	*	*	*	*	*	*	*	*	*	*	*	*	*	*
*	*	*rep	*	*repy	*	*rep	*	*rep	*	*	*	*	*	*	*	*	*	*	*	*	*	*	*	*	*	*	*	*	*	*	*	*	*
.	.	8E-\	.	8E-\yy	.	8r	.	8r	.	.	.	.	.	.	.	.	.	.	.	.	.	.	.	.	.	.	.	.	.	.	.	.	.
.	.	8r	.	8ryy	.	8B- 8E-/	.	8e- 8G/	s.	8b-\	.	.	.	.	.	.	.	.	.	.	.	.	.	.	8b-/	8g\	.	.	.	8b-\	.	8gg\	.
*	*	*Xrep	*	*Xrep	*	*Xrep	*	*Xrep	*	*	*	*	*	*	*	*	*	*	*	*	*	*	*	*	*	*	*	*	*	*	*	*	*
*	*	*	*	*	*	*	*	*	*	*	*	*	*	*	*	*	*v	*v	*	*	*	*	*	*	*	*	*	*	*	*	*	*	*
*	*	*	*	*	*	*	*	*	*	*	*	*	*	*	*	*	*	*	*v	*v	*	*	*	*	*	*	*	*	*	*	*	*
=46	=46	=46	=46	=46	=46	=46	=46	=46	=46	=46	=46	=46	=46	=46	=46	=46	=46	=46	=46	=46	=46	=46	=46	=46	=46	=46	=46	=46	=46	=46	=46
*	*	*	*	*	*	*	*	*	*	*	*	*	*	*	*	*	*	*	*	*	*	*	*	*	*	*^	*	*	*	*	*
!LO:SIC:s=8BB-\L	!LO:DY:rj	!	!LO:DY:rj	!	!LO:DY:rj	!	!	!	!	!LO:TX:a:t=/&colon;razem obje płci &colon;/	!LO:DY:rj	!	!	!LO:DY:rj	!	!LO:DY:rj	!	!LO:DY:rj	!	!	!	!LO:DY:rj	!	!	!LO:DY:rj	!LO:TX:a:t=due	!	!	!	!	!	!LO:DY:rj
8Re\L	f	8G\	f	8G\yy	fy	8r	f	8r	f	8e-/L	f	8GL 8GG/	8e-L 8B-\	f	8e-/L	f	8GL 8GG/	f	8e-L 8G/	.	8b-L 8B-/	f	8e-/L	8e-\L	f	8e-/L	4ryy	.	2.r	.	8ee-\L	f
!LO:SIC:s=16BB-\L	!	!	!	!	!	!	!	!	!	!	!	!	!	!	!	!	!	!	!	!	!	!	!	!	!	!	!	!	!	!	!	!
16Re\	.	8r	.	8ryy	.	8G/	.	8e- 8B-/	.	(16g/L	.	16GL 16GG/	16e-L 16B-\	.	16g/L	.	16GL 16GG/	.	16e-L 16G/	.	16b-L 16B-/	.	16g/L	16g\L	.	16g/L	.	.	.	.	16gg\L	.
!LO:SIC:s=16BB-\JJ	!	!	!	!	!	!	!	!	!	!	!	!	!	!	!	!	!	!	!	!	!	!	!	!	!	!	!	!	!	!	!	!
16Re\Jk	.	.	.	.	.	.	.	.	.	16b-/JJ)	.	16GJJ 16GG/	16e-JJ 16B-\	.	16b-/JJ	.	16GJJ 16GG/	.	16e-JJ 16G/	.	16b-JJ 16B-/	.	16b-/JJ	16b-\JJ	.	16b-/JJ	.	.	.	.	16bb-\JJ	.
*	*	*rep	*	*repy	*	*rep	*	*rep	*	*	*	*	*	*	*	*	*	*	*	*	*	*	*	*	*	*	*	*	*	*	*	*
!LO:SIC:s=4BB-\	!	!	!	!	!	!	!	!	!	!	!	!	!	!	!	!	!	!	!	!	!	!	!	!	!	!	!	!	!	!	!	!
4Re\	.	8G\	.	8G\yy	.	8r	.	8r	.	4.ee-\	.	4G 4GG/	4e- 4B-\	.	4ee- 4e-/	.	4G 4GG/	.	4e- 4G/	.	4b- 4B-/	.	4ee- 4e-/	4ryy	.	4ee-/	4ee-\	.	.	.	4eee-\	.
.	.	8r	.	8ryy	.	8G/	.	8e- 8B-/	.	.	.	.	.	.	.	.	.	.	.	.	.	.	.	.	.	.	.	.	.	.	.	.
*	*	*Xrep	*	*Xrep	*	*Xrep	*	*Xrep	*	*	*	*	*	*	*	*	*	*	*	*	*	*	*	*	*	*	*	*	*	*	*	*
*	*	*rep	*	*repy	*	*rep	*	*rep	*	*	*	*	*	*	*	*	*	*	*	*	*	*	*	*	*	*	*	*	*	*	*	*
4r	.	8G\	.	8G\yy	.	8r	.	8r	.	.	.	4r	4r	.	4r	.	4G 4GG/	.	4r	.	4r	.	4dd/	4b-\	.	4r	4ryy	.	.	.	4ddd\	.
.	.	8r	.	8ryy	.	8G/	.	8e- 8B-/	.	8dd\	.	.	.	.	.	.	.	.	.	.	.	.	.	.	.	.	.	.	.	.	.	.
*	*	*Xrep	*	*Xrep	*	*Xrep	*	*Xrep	*	*	*	*	*	*	*	*	*	*	*	*	*	*	*	*	*	*	*	*	*	*	*	*
*	*	*	*	*	*	*	*	*	*	*	*	*	*	*	*	*	*	*	*	*	*	*	*	*	*	*v	*v	*	*	*	*	*
=47	=47	=47	=47	=47	=47	=47	=47	=47	=47	=47	=47	=47	=47	=47	=47	=47	=47	=47	=47	=47	=47	=47	=47	=47	=47	=47	=47	=47	=47	=47	=47
2.r	.	8A-\	.	8A-\yy	.	8r	.	8r	.	(16dd\LL	.	2.r	2.r	.	4r	.	8A- 8AA-\	.	2.r	.	2.r	.	(16dd/LL	8a-\	.	4r	.	4r	.	(16ddd\LL	.
.	.	.	.	.	.	.	.	.	.	16cc\	.	.	.	.	.	.	.	.	.	.	.	.	16cc/	.	.	.	.	.	.	16ccc\	.
.	.	8r	.	8ryy	.	8A-/	.	8f 8c/	.	16bn\	.	.	.	.	.	.	8r	.	.	.	.	.	16bX/	8r	.	.	.	.	.	16bbn\	.
.	.	.	.	.	.	.	.	.	.	16cc\JJ)	.	.	.	.	.	.	.	.	.	.	.	.	16cc/JJ)	.	.	.	.	.	.	16ccc\JJ)	.
.	.	(8F^<\L	.	(y8F^<\Lyy	.	(8F^/L	.	(8cc^<\L	.	(8aa-^<\L	.	.	.	.	(8ccL 8a-/	.	(8FL 8FF/	.	.	.	.	.	(8aa-/L	8cc\L	.	(>8aa-L 8cc 8a-/	.	(8aa-\L	.	(8ccc\L	.
.	.	8G\)	.	8G\)yy	.	8G/)	.	8b-\)	.	8gg\)	.	.	.	.	8b- 8g/)	.	8G 8GG/)	.	.	.	.	.	8gg/)	8b-\	.	8gg) 8b-/	.	8gg\)	.	8bb-X\)	.
.	.	(8A-^<\	.	(y8A-^<\yy	.	(8A-^/	.	(8a-^<\	.	(8ff^<\	.	.	.	.	(8a- 8f/	.	(8A- 8AA-/	.	.	.	.	.	(8ff/	8a-\	.	(>8ff 8a-/	.	(8ff\	.	(8aa-\	.
.	.	8An\J)	.	8An\J)yy	.	8An/J)	.	8g\J)	.	8ee-\J)	.	.	.	.	8gJ 8e-/)	.	8AnJ 8AAn/)	.	.	.	.	.	8ee-/J)	8g\J	.	8ee-J 8g/	.	8ee-\J)	.	8gg\J)	.
=48	=48	=48	=48	=48	=48	=48	=48	=48	=48	=48	=48	=48	=48	=48	=48	=48	=48	=48	=48	=48	=48	=48	=48	=48	=48	=48	=48	=48	=48	=48	=48
2.r	.	8B-\	.	8B-\yy	.	8B-/	.	8f/	.	8dd\	.	2.r	2.r	.	8f 8d/	.	8B- 8BB-\	.	4r	.	2.r	.	8ddL 8f/	8f\L	.	8dd 8f'/	.	8dd\L	.	8ff'\L	.
.	.	8r	.	8ryy	.	8r	.	8r	.	8r	.	.	.	.	8r	.	8r	.	.	.	.	.	8cccJ 8cc/	8cc\J	.	8r	.	8ccc\J	.	8ccc'\J	.
!	!	!	!	!	!	!	!	!	!	!	!	!	!	!	!	!	!	!LO:DY:rj	!	!	!	!	!	!	!	!	!	!	!	!	!
.	.	8BB-/	.	8BB-/yy	.	8r	.	8r	.	8r	.	.	.	.	4r	.	2B- 2BB-\	p	2a- 2f\	p	.	.	(4.bb-/	4.b-\	.	4r	.	4.bb-\	.	(4.bb-\	.
.	.	8r	.	8ryy	.	8B-/	.	8d/	.	8a- 8B-/	.	.	.	.	.	.	.	.	.	.	.	.	.	.	.	.	.	.	.	.	.
.	.	8BB-/	.	8BB-/yy	.	8r	.	8r	.	8r	.	.	.	.	4r	.	.	.	.	.	.	.	.	.	.	4r	.	.	.	.	.
.	.	8r	.	8ryy	.	8B-/	.	8f/	.	8a- 8B-/	.	.	.	.	.	.	.	.	.	.	.	.	8dd/	8d\	.	.	.	8dd\	.	8dd\)	.
=49	=49	=49	=49	=49	=49	=49	=49	=49	=49	=49	=49	=49	=49	=49	=49	=49	=49	=49	=49	=49	=49	=49	=49	=49	=49	=49	=49	=49	=49	=49	=49
2.r	.	8E-\	.	8E-\yy	.	8B-/	.	8e-/	.	8g 8B-/	.	2.r	2.r	.	2.r	.	8B- 8E-\	.	8g 8e-\	.	2.r	.	(16ee-/LL)	16e-\LL	.	2.r	.	(16ee-\LL	.	(16ee-\LL	.
.	.	.	.	.	.	.	.	.	.	.	.	.	.	.	.	.	.	.	.	.	.	.	16b-/	16B-\	.	.	.	16b-\	.	16b-\	.
.	.	8r	.	8ryy	.	8r	.	8r	.	8r	.	.	.	.	.	.	8r	.	8r	.	.	.	16gg/	16g\	.	.	.	16gg\	.	16gg\	.
.	.	.	.	.	.	.	.	.	.	.	.	.	.	.	.	.	.	.	.	.	.	.	16dd/JJ)	16d\JJ	.	.	.	16dd\JJ)	.	16dd\JJ)	.
!	!	!	!	!	!	!	!	!	!	!	!	!	!	!	!	!	!LO:S:s=2:note:problem=note-level slur	!	!	!	!	!	!	!	!	!	!	!	!	!	!
.	.	8r	.	8ryy	.	4B-/	.	(4d/	.	(>4a- 4B-/	.	.	.	.	.	.	[4B- (>4BB-\	.	(4a- (4d\	.	.	.	(4ff/	(>4f\	.	.	.	(4ff\	.	(4ff\	.
.	.	8BB-/L	.	8BB-/Lyy	.	.	.	.	.	.	.	.	.	.	.	.	.	.	.	.	.	.	.	.	.	.	.	.	.	.	.
.	.	8E-/J	.	8E-/Jyy	.	8B- 8E-/	.	8e-/)	.	8g 8B-/)	.	.	.	.	.	.	8B-] 8E-\)	.	8g 8e-\))	.	.	.	8ee-/)	8e-\)	.	.	.	8ee-\)	.	8ee-\)	.
.	.	8r	.	8ryy	.	8r	.	8r	.	8r	.	.	.	.	.	.	8r	.	8r	.	.	.	8r	8r	.	.	.	8r	.	8r	.
*	*	*	*	*	*	*	*	*	*	*	*	*	*	*	*	*	*	*	*	*	*	*	*v	*v	*	*	*	*	*	*	*
!!LO:PB:g=original
=50:|!	=50:|!	=50:|!	=50:|!	=50:|!	=50:|!	=50:|!	=50:|!	=50:|!	=50:|!	=50:|!	=50:|!	=50:|!	=50:|!	=50:|!	=50:|!	=50:|!	=50:|!	=50:|!	=50:|!	=50:|!	=50:|!	=50:|!	=50:|!	=50:|!	=50:|!	=50:|!	=50:|!	=50:|!	=50:|!	=50:|!
*>E	*>E	*>E	*>E	*>E	*>E	*>E	*>E	*>E	*>E	*>E	*>E	*>E	*>E	*>E	*>E	*>E	*>E	*>E	*>E	*>E	*>E	*>E	*>E	*>E	*>E	*>E	*>E	*>E	*>E	*>E
*	*	*	*	*	*	*	*	*	*	*	*	*	*	*	*	*	*	*	*^	*	*^	*	*	*	*^	*	*	*	*	*
.	.	(32qqGG/LLL	f	(y32qqGG/LLLyy	fy	.	.	.	.	.	.	.	.	.	.	.	(<16qqGLL 16qqGG/	.	.	.	.	.	.	.	.	.	.	.	.	.	.	.	.
.	.	32qqAAn/	.	32qqAAn/yy	.	.	.	.	.	.	.	.	.	.	.	.	16qqAn 16qqAAn/	.	.	.	.	.	.	.	.	.	.	.	.	.	.	.	.
.	.	32qqBBn/JJJ)	.	32qqBBn/JJJ)yy	.	.	.	.	.	.	.	.	.	.	.	.	16qqBnJJ 16qqBBn/	.	.	.	.	.	.	.	.	.	.	.	.	.	.	.	.
*	*	*	*	*	*	*tremolo	*	*tremolo	*	*	*	*	*	*	*	*	*	*	*	*	*	*	*	*	*	*	*	*	*	*	*	*	*
!	!	!	!	!	!	!	!	!	!LO:DY:rj	!	!	!	!	!LO:DY:rj	!	!	!	!	!	!	!	!	!	!LO:DY:rj	!	!	!	!	!LO:DY:rj	!	!	!LO:TX:a:t=Col V°. I° 8va	!
2.ryy	.	4C/	.	4C/yy	.	16G/LL	.	16e-LL 16c/	f	8.g/L	f	4G 4C\	4e- 4c\	f	4g 4G/	.	4c 4C\)	.	4g/	4e-\	.	4cc/	4cc\	f	2.r	.	8.gg/L	4ee-\	f	2.r	.	8.gg/Lyy	fy
.	.	.	.	.	.	16G/	.	16e- 16c/	.	.	.	.	.	.	.	.	.	.	.	.	.	.	.	.	.	.	.	.	.	.	.	.	.
.	.	.	.	.	.	16G/	.	16e- 16c/	.	.	.	.	.	.	.	.	.	.	.	.	.	.	.	.	.	.	.	.	.	.	.	.	.
.	.	.	.	.	.	16G/	.	16e- 16c/	.	(32f#X/LL	.	.	.	.	.	.	.	.	.	.	.	.	.	.	.	.	(32ff#X/LL	.	.	.	.	(y32ff#X/LLyy	.
.	.	.	.	.	.	.	.	.	.	32g/JJJ)	.	.	.	.	.	.	.	.	.	.	.	.	.	.	.	.	32gg/JJJ)	.	.	.	.	32gg/JJJ)yy	.
.	.	4E-\	.	4E-\yy	.	16G/	.	16e- 16c/	.	8.cc\L	.	4G 4C\	4e- 4c\	.	4cc 4c/	.	4e- 4E-\	.	4g/	4e-\	.	4cc/	4cc\	.	.	.	8.ccc/L	4ccc 4gg\	.	.	.	8.ccc\Lyy	.
.	.	.	.	.	.	16G/	.	16e- 16c/	.	.	.	.	.	.	.	.	.	.	.	.	.	.	.	.	.	.	.	.	.	.	.	.	.
.	.	.	.	.	.	16G/	.	16e- 16c/	.	.	.	.	.	.	.	.	.	.	.	.	.	.	.	.	.	.	.	.	.	.	.	.	.
.	.	.	.	.	.	16G/	.	16e- 16c/	.	(32bn\LL	.	.	.	.	.	.	.	.	.	.	.	.	.	.	.	.	(32bbn/LL	.	.	.	.	(y32bbn\LLyy	.
.	.	.	.	.	.	.	.	.	.	32cc\JJJ)	.	.	.	.	.	.	.	.	.	.	.	.	.	.	.	.	32ccc/JJJ)	.	.	.	.	32ccc\JJJ)yyyy	.
.	.	4C/	.	4C/yy	.	16G/	.	16e- 16c/	.	8.ee-\L	.	4G 4C\	4e- 4c\	.	4ee- 4e-\	.	4c 4C\	.	4g/	4e-\	.	4cc/	4cc\	.	.	.	4ccc/	4ee-\	.	.	.	8.eee-\Lyy	.
.	.	.	.	.	.	16G/	.	16e- 16c/	.	.	.	.	.	.	.	.	.	.	.	.	.	.	.	.	.	.	.	.	.	.	.	.	.
.	.	.	.	.	.	16G/	.	16e- 16c/	.	.	.	.	.	.	.	.	.	.	.	.	.	.	.	.	.	.	.	.	.	.	.	.	.
.	.	.	.	.	.	16G/JJ	.	16e-JJ 16c/	.	(32dd\LL	.	.	.	.	.	.	.	.	.	.	.	.	.	.	.	.	.	.	.	.	.	(y32ddd\LLyy	.
.	.	.	.	.	.	.	.	.	.	32ee-\JJJ)	.	.	.	.	.	.	.	.	.	.	.	.	.	.	.	.	.	.	.	.	.	32eee-\JJJ)yy	.
*	*	*	*	*	*	*	*	*Xtremolo	*	*	*	*	*	*	*	*	*	*	*	*	*	*	*	*	*	*	*	*	*	*	*	*	*
=51	=51	=51	=51	=51	=51	=51	=51	=51	=51	=51	=51	=51	=51	=51	=51	=51	=51	=51	=51	=51	=51	=51	=51	=51	=51	=51	=51	=51	=51	=51	=51	=51	=51
*	*	*	*	*	*	*	*	*	*	*	*	*	*^	*	*	*	*	*	*	*	*	*	*	*	*	*	*	*	*	*	*	*	*
!	!	!LO:TX:t=P:problem=mixed beam	!	!LO:TX:t=P:problem=mixed beam	!	!	!	!	!	!	!	!	!	!	!	!	!	!LO:TX:t=P:problem=mixed beam	!	!	!	!	!	!	!	!	!	!	!	!	!	!	!	!
2.ryy	.	8GG/L	.	8GG/Lyy	.	8G/L	.	(16bnLL 16d/	.	(16dd\LL	.	2G 2GG\	2d/	2Bn\	.	8ddL 8g\	.	8GG/L	.	2g/	2g\	.	2dd/	2bX\	.	(16ddLL 16bX\	.	(16bbn/LL	16dd\LL	.	2.r	.	(y16dddL\yy	.
.	.	.	.	.	.	.	.	16cc/	.	16ee-\	.	.	.	.	.	.	.	.	.	.	.	.	.	.	.	16ee- 16cc\	.	16ccc/	16ee-\	.	.	.	16eee-\yy	.
.	.	8G\J	.	8G\Jyy	.	8G/	.	16b/	.	16dd\	.	.	.	.	.	16g\L	.	8G\	.	.	.	.	.	.	.	16dd 16b\	.	16bb/	16dd\	.	.	.	16ddd\yy	.
.	.	.	.	.	.	.	.	16a#X/JJ	.	16cc#X\JJ	.	.	.	.	.	16g\JJ	.	.	.	.	.	.	.	.	.	16cc#XJJ 16a#\	.	16aan/JJ	16cc#X\JJ	.	.	.	16ccc#J\yy	.
*	*	*	*	*	*	*	*	*	*	*rep	*	*	*	*	*	*	*	*	*	*	*	*	*	*	*	*rep	*	*rep	*rep	*	*	*	*repy	*
!	!	!LO:TX:t=P:problem=mixed beam	!	!LO:TX:t=P:problem=mixed beam	!	!	!	!	!	!	!	!	!	!	!	!	!	!	!	!	!	!	!	!	!	!	!	!	!	!	!	!	!	!
.	.	8GG/L	.	8GG/Lyy	.	8G/	.	16b/LL	.	16dd\LL	.	.	.	.	.	8g/L	.	8GG/	.	.	.	.	.	.	.	16ddLL 16b\	.	16bb/LL	16dd\LL	.	.	.	16dddL\yy	.
.	.	.	.	.	.	.	.	16cc/	.	16ee-\	.	.	.	.	.	.	.	.	.	.	.	.	.	.	.	16ee- 16ccny\	.	16ccc/	16ee-\	.	.	.	16eee-\yyyy	.
.	.	8G\J	.	8G\Jyy	.	8G/J	.	16b/	.	16dd\	.	.	.	.	.	8g/J	.	8G\J	.	.	.	.	.	.	.	16dd 16b\	.	16bb/	16dd\	.	.	.	16ddd\yy	.
.	.	.	.	.	.	.	.	16a#/JJ)	.	16cc#\JJ	.	.	.	.	.	.	.	.	.	.	.	.	.	.	.	16cc#XJJ 16a#X\	.	16aa/JJ	16cc#\JJ	.	.	.	16ccc#J\yy	.
*	*	*	*	*	*	*Xtremolo	*	*	*	*Xrep	*	*	*	*	*	*	*	*	*	*	*	*	*	*	*	*Xrep	*	*Xrep	*Xrep	*	*	*	*Xrep	*
.	.	4GG/	.	4GG/yy	.	4G/	.	4b/	.	4dd\)	.	4G 4GG\	4d/	4B\	.	4g/	.	4GG/	.	4g/	4g\	.	4dd/	4b\	.	4dd 4b\)	.	4bb/)	4dd\	.	.	.	4ddd\)yy	.
*	*	*	*	*	*	*	*	*	*	*	*	*	*v	*v	*	*	*	*	*	*	*	*	*	*	*	*	*	*v	*v	*	*	*	*	*
=52	=52	=52	=52	=52	=52	=52	=52	=52	=52	=52	=52	=52	=52	=52	=52	=52	=52	=52	=52	=52	=52	=52	=52	=52	=52	=52	=52	=52	=52	=52	=52	=52
.	.	.	.	.	.	.	.	.	.	8qff#X/	.	.	.	.	(8qf#X/	.	.	.	.	.	.	.	.	.	.	.	(8qff#X/	.	.	.	8qfff#/yy	.
*	*	*tremolo	*	*tremolo	*	*tremolo	*	*tremolo	*	*	*	*	*	*	*	*	*tremolo	*	*	*	*	*	*	*	*	*	*	*	*	*	*	*
2.ryy	.	8BBn/L	.	8BBn/Lyy	.	16dLL 16G/	.	16fLL 16G/	.	8gg\	.	2.G 2.BBn\	2.f 2.d/	.	8g/)	.	8BBn/L	.	2.g/	2.f\	.	2.dd/	2.bX\	.	2.r	.	8gg\)	.	2.r	.	8ggg\yyyy	.
.	.	.	.	.	.	16d 16G/	.	16f 16G/	.	.	.	.	.	.	.	.	.	.	.	.	.	.	.	.	.	.	.	.	.	.	.	.
.	.	8GG/	.	8GG/yy	.	16d 16G/	.	16f 16G/	.	4dd\	.	.	.	.	4d/	.	8GG/	.	.	.	.	.	.	.	.	.	4dd\	.	.	.	4ddd\yy	.
.	.	.	.	.	.	16d 16G/	.	16f 16G/	.	.	.	.	.	.	.	.	.	.	.	.	.	.	.	.	.	.	.	.	.	.	.	.
.	.	8BB/	.	8BB/yy	.	16d 16G/	.	16f 16G/	.	.	.	.	.	.	.	.	8BB/	.	.	.	.	.	.	.	.	.	.	.	.	.	.	.
.	.	.	.	.	.	16d 16G/	.	16f 16G/	.	.	.	.	.	.	.	.	.	.	.	.	.	.	.	.	.	.	.	.	.	.	.	.
.	.	8GG/	.	8GG/yy	.	16d 16G/	.	16f 16G/	.	8dd'\L	.	.	.	.	8d/L	.	8GG/	.	.	.	.	.	.	.	.	.	8dd\L	.	.	.	8dddL'\yy	.
.	.	.	.	.	.	16d 16G/	.	16f 16G/	.	.	.	.	.	.	.	.	.	.	.	.	.	.	.	.	.	.	.	.	.	.	.	.
.	.	8BB/	.	8BB/yy	.	16d 16G/	.	16f 16G/	.	(8gg\	.	.	.	.	8g/	.	8BB/	.	.	.	.	.	.	.	.	.	8gg\	.	.	.	(y8ggg\yy	.
.	.	.	.	.	.	16d 16G/	.	16f 16G/	.	.	.	.	.	.	.	.	.	.	.	.	.	.	.	.	.	.	.	.	.	.	.	.
.	.	8GG/J	.	8GG/Jyy	.	16d 16G/	.	16f 16G/	.	8ff#\J)	.	.	.	.	8f#y/J	.	8GG/J	.	.	.	.	.	.	.	.	.	8dd\J	.	.	.	8fff#yJ\yy	.
.	.	.	.	.	.	16dJJ 16G/	.	16fJJ 16G/	.	.	.	.	.	.	.	.	.	.	.	.	.	.	.	.	.	.	.	.	.	.	.	.
*	*	*Xtremolo	*	*Xtremolo	*	*	*	*	*	*	*	*	*	*	*	*	*Xtremolo	*	*	*	*	*	*	*	*	*	*	*	*	*	*	*
=53	=53	=53	=53	=53	=53	=53	=53	=53	=53	=53	=53	=53	=53	=53	=53	=53	=53	=53	=53	=53	=53	=53	=53	=53	=53	=53	=53	=53	=53	=53	=53	=53
!	!	!	!	!	!	!	!	!	!	!	!	!	!	!	!	!	!	!	!	!	!	!	!LO:N:vis=4.	!	!	!	!	!	!	!	!	!
2.ryy	.	8C/L	.	8C/Lyy	.	16c\LL	.	16e-LL 16G/	.	8ee-\L	.	[4G [>4C\	[4e- [>4c\	.	4e-/	.	8C/L	.	4.g/	4.e-\	.	4cc/	4cc\	.	4r	.	8ee-\L	.	2.r	.	8eee-L\yy	.
.	.	.	.	.	.	16c\	.	16e- 16G/	.	.	.	.	.	.	.	.	.	.	.	.	.	.	.	.	.	.	.	.	.	.	.	.
.	.	8GG/J	.	8GG/Jyy	.	16c\	.	16e- 16G/	.	(32gg\LL	.	.	.	.	.	.	8GG/J	.	.	.	.	.	.	.	.	.	(32gg\LL	.	.	.	(y32gggLL\yy	.
.	.	.	.	.	.	.	.	.	.	32ff\	.	.	.	.	.	.	.	.	.	.	.	.	.	.	.	.	32ff\	.	.	.	32fffyy	.
.	.	.	.	.	.	16c\JJ	.	16e-JJ 16G/	.	32ee-\	.	.	.	.	.	.	.	.	.	.	.	.	.	.	.	.	32ee-\	.	.	.	32eeeyy	.
.	.	.	.	.	.	.	.	.	.	32dd\JJJ	.	.	.	.	.	.	.	.	.	.	.	.	.	.	.	.	32dd\JJJ	.	.	.	32dddJJJ\yy	.
*	*	*	*	*	*	*Xtremolo	*	*Xtremolo	*	*	*	*	*	*	*	*	*	*	*	*	*	*	*	*	*	*	*	*	*	*	*	*
.	.	8C/	.	8C/yy	.	8c\	.	8e- 8G/	.	8cc\)	.	8G] 8C\]	8e-] 8c\]	.	8c/	.	8C/	.	.	.	.	8cc/	8cc\	.	8r	.	8cc\)	.	.	.	8ccc\)yy	.
.	.	(32G\LLL	.	(y32G\LLLyy	.	(32g\LLL	.	(32g/LLL	.	8r	.	8r	8r	.	8r	.	(32G\LLL	.	8r	8ryy	.	8r	8ryy	.	(32g/LLL	.	8r	.	.	.	8ryy	.
.	.	32F\	.	32F\yy	.	32f\	.	32f/	.	.	.	.	.	.	.	.	32F\	.	.	.	.	.	.	.	32f/	.	.	.	.	.	.	.
.	.	32E-\	.	32E-\yy	.	32e-\	.	32e-/	.	.	.	.	.	.	.	.	32E-\	.	.	.	.	.	.	.	32e-/	.	.	.	.	.	.	.
.	.	32D\JJJ)	.	32D\JJJ)yy	.	32d\JJJ	.	32d/JJJ	.	.	.	.	.	.	.	.	32D\JJJ	.	.	.	.	.	.	.	32d/JJJ	.	.	.	.	.	.	.
.	.	4C/	.	4C/yy	.	4c\)	.	4c/)	.	4r	.	4r	4r	.	4r	.	4C/)	.	4r	4ryy	.	4r	4ryy	.	4c/)	.	4r	.	.	.	4ryy	.
*	*	*	*	*	*	*	*	*	*	*	*	*	*	*	*	*	*	*	*v	*v	*	*	*	*	*	*	*	*	*	*	*	*
*	*	*	*	*	*	*	*	*	*	*	*	*	*	*	*	*	*	*	*	*	*v	*v	*	*	*	*	*	*	*	*	*
!!LO:PB:g=original
=54	=54	=54	=54	=54	=54	=54	=54	=54	=54	=54	=54	=54	=54	=54	=54	=54	=54	=54	=54	=54	=54	=54	=54	=54	=54	=54	=54	=54	=54	=54
*tremolo	*	*tremolo	*	*tremolo	*	*	*	*tremolo	*	*	*	*	*	*	*	*	*tremolo	*	*	*	*	*	*	*	*	*	*	*	*	*
*2\right	*	*	*	*	*	*	*	*	*	*	*	*	*	*	*	*	*	*	*	*	*	*	*	*	*	*	*	*	*	*
!LO:SIC:s=16BB-\LL	!	!	!	!	!	!	!	!	!	!	!	!	!	!	!	!	!	!	!	!	!	!	!	!	!	!	!	!	!	!
16Re\LL	.	8D/L	.	8D/Lyy	.	16B-LL 16D/	.	16fLL 16B-/	.	8.b-\L	.	4D/	4f 4B-\	.	4b- 4B-/	.	8D/L	.	4f 4B-\	.	4dd 4b-\	.	(8.b-\L	.	8.b-\L	.	8.b-\L	.	2.r	.
!LO:SIC:s=16BB-\	!	!	!	!	!	!	!	!	!	!	!	!	!	!	!	!	!	!	!	!	!	!	!	!	!	!	!	!	!	!
16Re\	.	.	.	.	.	16B- 16D/	.	16f 16B-/	.	.	.	.	.	.	.	.	.	.	.	.	.	.	.	.	.	.	.	.	.	.
!LO:SIC:s=16BB-\	!	!	!	!	!	!	!	!	!	!	!	!	!	!	!	!	!	!	!	!	!	!	!	!	!	!	!	!	!	!
16Re\	.	8BB-/	.	8BB-/yy	.	16B- 16D/	.	16f 16B-/	.	.	.	.	.	.	.	.	8BB-/	.	.	.	.	.	.	.	.	.	.	.	.	.
!LO:SIC:s=16BB-\	!	!	!	!	!	!	!	!	!	!	!	!	!	!	!	!	!	!	!	!	!	!	!	!	!	!	!	!	!	!
16Re\	.	.	.	.	.	16B- 16D/	.	16f 16B-/	.	(32an\LL	.	.	.	.	.	.	.	.	.	.	.	.	32a\LL	.	(32an\LL	.	(32an\LL	.	.	.
.	.	.	.	.	.	.	.	.	.	32b-\JJJ	.	.	.	.	.	.	.	.	.	.	.	.	32b-\JJJ)	.	32b-\JJJ	.	32b-\JJJ	.	.	.
!LO:SIC:s=16BB-\	!	!	!	!	!	!	!	!	!	!	!	!	!	!	!	!	!	!	!	!	!	!	!	!	!	!	!	!	!	!
16Re\	.	8D/	.	8D/yy	.	16B- 16D/	.	16f 16B-/	.	8.ff\L)	.	4D/	4f 4B-\	.	4f/	.	8D/	.	4f 4B-\	.	4dd 4b-\	.	(8.f/L	.	8.ff\L)	.	8.ff\L)	.	.	.
!LO:SIC:s=16BB-\	!	!	!	!	!	!	!	!	!	!	!	!	!	!	!	!	!	!	!	!	!	!	!	!	!	!	!	!	!	!
16Re\	.	.	.	.	.	16B- 16D/	.	16f 16B-/	.	.	.	.	.	.	.	.	.	.	.	.	.	.	.	.	.	.	.	.	.	.
!LO:SIC:s=16BB-\	!	!	!	!	!	!	!	!	!	!	!	!	!	!	!	!	!	!	!	!	!	!	!	!	!	!	!	!	!	!
16Re\	.	8BB-/	.	8BB-/yy	.	16B- 16D/	.	16f 16B-/	.	.	.	.	.	.	.	.	8BB-/	.	.	.	.	.	.	.	.	.	.	.	.	.
!LO:SIC:s=16BB-\	!	!	!	!	!	!	!	!	!	!	!	!	!	!	!	!	!	!	!	!	!	!	!	!	!	!	!	!	!	!
16Re\	.	.	.	.	.	16B- 16D/	.	16f 16B-/	.	(32een\LL	.	.	.	.	.	.	.	.	.	.	.	.	32eX/LL	.	(32een\LL	.	(32een\LL	.	.	.
.	.	.	.	.	.	.	.	.	.	32ff\JJJ	.	.	.	.	.	.	.	.	.	.	.	.	32f/JJJ)	.	32ff\JJJ	.	32ff\JJJ	.	.	.
!LO:SIC:s=16BB-\	!	!	!	!	!	!	!	!	!	!	!	!	!	!	!	!	!	!	!	!	!	!	!	!	!	!	!	!	!	!
16Re\	.	8D/	.	8D/yy	.	16B- 16D/	.	16f 16B-/	.	8.bb-\L)	.	4D/	4f 4B-\	.	4b- 4B-/	.	8D/	.	4f 4B-\	.	4dd 4b-\	.	(8.b-\L	.	8.bb-\L)	.	8.bb-\L)	.	.	.
!LO:SIC:s=16BB-\	!	!	!	!	!	!	!	!	!	!	!	!	!	!	!	!	!	!	!	!	!	!	!	!	!	!	!	!	!	!
16Re\	.	.	.	.	.	16B- 16D/	.	16f 16B-/	.	.	.	.	.	.	.	.	.	.	.	.	.	.	.	.	.	.	.	.	.	.
!LO:SIC:s=16BB-\	!	!	!	!	!	!	!	!	!	!	!	!	!	!	!	!	!	!	!	!	!	!	!	!	!	!	!	!	!	!
16Re\	.	8BB-/J	.	8BB-/Jyy	.	16B- 16D/	.	16f 16B-/	.	.	.	.	.	.	.	.	8BB-/J	.	.	.	.	.	.	.	.	.	.	.	.	.
!LO:SIC:s=16BB-\JJ	!	!	!	!	!	!	!	!	!	!	!	!	!	!	!	!	!	!	!	!	!	!	!	!	!	!	!	!	!	!
16Re\JJ	.	.	.	.	.	16B-JJ 16D/	.	16fJJ 16B-/	.	(32aan\LL	.	.	.	.	.	.	.	.	.	.	.	.	32an\LL	.	(32aan\LL	.	(32aan\LL	.	.	.
.	.	.	.	.	.	.	.	.	.	32bb-\JJJ)	.	.	.	.	.	.	.	.	.	.	.	.	32b-\JJJ)	.	32bb-\JJJ)	.	32bb-\JJJ	.	.	.
*	*	*	*	*	*	*	*	*Xtremolo	*	*	*	*	*	*	*	*	*	*	*	*	*	*	*	*	*	*	*	*	*	*
=55	=55	=55	=55	=55	=55	=55	=55	=55	=55	=55	=55	=55	=55	=55	=55	=55	=55	=55	=55	=55	=55	=55	=55	=55	=55	=55	=55	=55	=55	=55
*	*	*	*	*	*	*	*	*	*	*	*	*	*	*	*	*	*	*	*^	*	*	*	*	*	*	*	*	*	*	*
!LO:SIC:s=16BB-\LL	!	!	!	!	!	!	!	!	!	!	!	!	!	!	!	!	!	!	!	!	!	!	!	!	!	!	!	!	!	!	!
16Re\LL	.	8E-/L	.	8E-/Lyy	.	8B-L 8E-/	.	(16e-/LL	.	(16gg\LL	.	2E-\	2e- 2G\	.	(16gLL 16e-/	.	8E-/L	.	2g/	2e-\	.	2ee- 2b-\	.	(16gLL 16e-/	.	(16ggLL 16ee-\	.	(16gg\LL)	.	(16eee-\LL	.
!LO:SIC:s=16BB-\	!	!	!	!	!	!	!	!	!	!	!	!	!	!	!	!	!	!	!	!	!	!	!	!	!	!	!	!	!	!	!
16Re\	.	.	.	.	.	.	.	16f/	.	16aa-\	.	.	.	.	16a- 16f/	.	.	.	.	.	.	.	.	16a- 16f/	.	16aa- 16ff\	.	16aa-\	.	16fff\	.
!LO:SIC:s=16BB-\	!	!	!	!	!	!	!	!	!	!	!	!	!	!	!	!	!	!	!	!	!	!	!	!	!	!	!	!	!	!	!
16Re\	.	8BB-/	.	8BB-/yy	.	8B- 8E-/	.	16e-/	.	16gg\	.	.	.	.	16g 16e-/	.	8BB-/	.	.	.	.	.	.	16g 16e-/	.	16gg 16ee-\	.	16gg\	.	16eee-\	.
!LO:SIC:s=16BB-\	!	!	!	!	!	!	!	!	!	!	!	!	!	!	!	!	!	!	!	!	!	!	!	!	!	!	!	!	!	!	!
16Re\	.	.	.	.	.	.	.	16d/JJ	.	16ff#X\JJ	.	.	.	.	16f#XJJ 16d/	.	.	.	.	.	.	.	.	16f#XJJ 16d/	.	16ff#XJJ 16dd\	.	16ff#X\JJ	.	16ddd\JJ	.
*	*	*	*	*	*	*	*	*rep	*	*	*	*	*	*	*rep	*	*	*	*	*	*	*	*	*rep	*	*rep	*	*	*	*	*
!LO:SIC:s=16BB-\	!	!	!	!	!	!	!	!	!	!	!	!	!	!	!	!	!	!	!	!	!	!	!	!	!	!	!	!	!	!	!
16Re\	.	8E-/	.	8E-/yy	.	8B- 8E-/	.	16e-/LL	.	16gg\LL	.	.	.	.	16gLL 16e-/	.	8E-/	.	.	.	.	.	.	16gLL 16e-/	.	16ggLL 16ee-\	.	16gg\LL	.	16eee-\LL	.
!LO:SIC:s=16BB-\	!	!	!	!	!	!	!	!	!	!	!	!	!	!	!	!	!	!	!	!	!	!	!	!	!	!	!	!	!	!	!
16Re\	.	.	.	.	.	.	.	16f/	.	16aa-\	.	.	.	.	16a- 16fny/	.	.	.	.	.	.	.	.	16a- 16fny/	.	16aa- 16ffny\	.	16aa-\	.	16fff\	.
!LO:SIC:s=16BB-\	!	!	!	!	!	!	!	!	!	!	!	!	!	!	!	!	!	!	!	!	!	!	!	!	!	!	!	!	!	!	!
16Re\	.	8BB-/J	.	8BB-/Jyy	.	8B-J 8E-/	.	16e-/	.	16gg\	.	.	.	.	16g 16e-/	.	8BB-/J	.	.	.	.	.	.	16g 16e-/	.	16gg 16ee-\	.	16gg\	.	16eee-\	.
!LO:SIC:s=16BB-\JJ	!	!	!	!	!	!	!	!	!	!	!	!	!	!	!	!	!	!	!	!	!	!	!	!	!	!	!	!	!	!	!
16Re\JJ	.	.	.	.	.	.	.	16d/JJ	.	16ff#\JJ)	.	.	.	.	16f#XJJ 16d/	.	.	.	.	.	.	.	.	16f#XJJ 16d/)	.	16ff#XJJ 16dd\	.	16ff#\JJ)	.	16ddd\JJ)	.
*Xtremolo	*	*Xtremolo	*	*Xtremolo	*	*	*	*Xrep	*	*	*	*	*	*	*Xrep	*	*Xtremolo	*	*	*	*	*	*	*Xrep	*	*Xrep	*	*	*	*	*
!LO:SIC:s=4BB-\	!	!	!	!	!	!	!	!	!	!	!	!	!	!	!	!	!	!	!	!	!	!	!	!	!	!	!	!	!	!	!
4Re\	.	4E-\	.	4E-\yy	.	4B- 4E-/	.	4e-/)	.	4gg\	.	4E-\	4e- 4G\	.	4g 4e-/)	.	4E-\	.	4g/	4e-\	.	4ee- 4b-\	.	4g 4e-/	.	4gg 4ee-\)	.	4gg\	.	4eee-\	.
=56	=56	=56	=56	=56	=56	=56	=56	=56	=56	=56	=56	=56	=56	=56	=56	=56	=56	=56	=56	=56	=56	=56	=56	=56	=56	=56	=56	=56	=56	=56	=56
*	*	*	*	*	*	*	*	*	*	*	*	*	*	*	*	*	*	*	*	*	*	*^	*	*^	*	*^	*	*	*	*	*
!LO:SIC:s=8F/	!	!	!	!	!	!	!	!	!	!	!	!	!	!	!	!	!	!	!	!	!	!	!	!	!	!	!	!	!	!	!	!	!	!
8Re/	.	8F\	.	8F\yy	.	8An 8F/	.	8e- 8c/	.	8aa-\	.	8F\	8e- 8c\	.	8an 8c/	.	8F\	.	8f/	8e-\	.	8cc/	8cc\	.	8a/	8e-\	.	8aan/	8ee-\	.	8aan\	.	2.r	.
!LO:SIC:s=4F/	!	!	!	!	!	!	!	!	!	!	!	!	!	!	!	!	!	!	!	!	!	!	!	!	!	!	!	!	!	!	!	!	!	!
4Re/	.	4F\	.	4F\yy	.	4A 4F/	.	4e- 4c^>/	.	4aa-'^<\	.	4F\	4e- 4c^<\	.	4a 4c^/	.	4F^<\	.	4f/	4e-^\	.	4cc/	4cc^\	.	4a/	4e-\	.	4aa^/	4ee-^\	.	4aa\	.	.	.
!LO:SIC:s=8F/L	!	!LO:TX:t=P:problem=mixed beam	!	!LO:TX:t=P:problem=mixed beam	!	!	!	!	!	!	!	!	!	!	!	!	!LO:TX:t=P:problem=mixed beam	!	!	!	!	!	!	!	!	!	!	!	!	!	!	!	!	!
8Re/L	.	8FF/L	.	8FF/Lyy	.	8AL 8F/	.	8e-L 8c/	.	8ff\L	.	8F\L	8e-L 8c\	.	8fL 8c/	.	8FF/L	.	8f/L	8e-\L	.	8cc\L	4.ryy	.	8f/L	8e-\L	.	8ff/L	8ee-\L	.	8ff\L	.	.	.
!LO:SIC:s=8F/	!	!	!	!	!	!	!	!	!	!	!	!	!	!	!	!	!	!	!	!	!	!	!	!	!	!	!	!	!	!	!	!	!	!
8Re/	.	8F\	.	8F\yy	.	8A 8F/	.	8e- 8c/	.	8gg\	.	8F\	8e- 8c\	.	8g 8c/	.	8F\	.	8f/	8e-\	.	8cc\	.	.	8g/	8e-\	.	8gg/	8ee-\	.	8gg\	.	.	.
!LO:SIC:s=8F/J	!	!	!	!	!	!	!	!	!	!	!	!	!	!	!	!	!	!	!	!	!	!	!	!	!	!	!	!	!	!	!	!	!	!
8Re/J	.	8FF/J	.	8FF/Jyy	.	8AJ 8F/	.	8e-J 8c/	.	8aa-\J	.	8F\J	8e-J 8c\	.	8aJ 8c/	.	8FF/J	.	8f/J	8e-\J	.	8cc\J	.	.	8a/J	8e-\J	.	8aa/J	8ee-\J	.	8aa\J	.	.	.
*	*	*	*	*	*	*	*	*	*	*	*	*	*	*	*	*	*	*	*	*	*	*	*	*	*v	*v	*	*	*	*	*	*	*	*
*	*	*	*	*	*	*	*	*	*	*	*	*	*	*	*	*	*	*	*v	*v	*	*	*	*	*	*	*v	*v	*	*	*	*	*
=57	=57	=57	=57	=57	=57	=57	=57	=57	=57	=57	=57	=57	=57	=57	=57	=57	=57	=57	=57	=57	=57	=57	=57	=57	=57	=57	=57	=57	=57	=57	=57
!LO:SIC:s=8BB-\	!	!	!	!	!	!	!	!LO:TX:t=P:problem=mixed beam	!	!	!	!	!	!	!	!	!	!	!	!	!	!	!	!	!	!	!	!	!	!	!
8Re\	.	8BB-/	.	8BB-/yy	.	8B- 8F/	.	8dL 8B-/	.	8bb-\L	.	8BB-/	8d 8B-\	.	8b- 8d/	.	8BB-/	.	8f 8B-/	.	8dd/	8b-\	.	8b- 8d/	.	8bb-L 8dd\	.	8bb-\L	.	8r	.
!	!	!	!	!	!	!	!	!LO:TX:a:t=8va baſso	!	!	!	!	!	!	!	!	!	!	!	!	!	!	!	!	!	!	!	!	!	!	!
8r	.	8r	.	8ryy	.	(32f\LLL	.	(32ff\LL	.	(32fff\LL	.	8r	8r	.	8r	.	8r	.	8r	.	8r	8ryy	.	(32ff\LLL	.	(32ff\LL	.	(32fff\LL	.	(32fff\LLL	.
.	.	.	.	.	.	32e-\	.	32ee-\	.	32eee-\	.	.	.	.	.	.	.	.	.	.	.	.	.	32ee-\	.	32ee-\	.	32eee-\	.	32eee-\	.
.	.	.	.	.	.	32d\	.	32dd\	.	32ddd\	.	.	.	.	.	.	.	.	.	.	.	.	.	32dd\	.	32dd\	.	32ddd\	.	32ddd\	.
.	.	.	.	.	.	32c\JJJ	.	32cc\JJJ	.	32ccc\JJJ	.	.	.	.	.	.	.	.	.	.	.	.	.	32cc\JJJ	.	32cc\JJJ	.	32ccc\JJJ	.	32ccc\JJJ	.
4r	.	8r	.	8ryy	.	8B-\)	.	8b-\L)	.	8bb-\L)	.	4r	4r	.	4r	.	8r	.	4r	.	4r	4ryy	.	8b-\L)	.	8b-\L)	.	8bb-\L)	.	8bb-\L)	.
.	.	(32c\LLL	.	(y32c\LLLyy	.	(32c/LLL	.	(32cc\LL	.	(32ccc\LL	.	.	.	.	.	.	(32c\LLL	.	.	.	.	.	.	(32cc\LL	.	(32ccc\LL	.	(32ccc\LL	.	(32ccc\LL	.
.	.	32B-\	.	32B-\yy	.	32B-/	.	32b-\	.	32bb-\	.	.	.	.	.	.	32B-\	.	.	.	.	.	.	32b-\	.	32bb-\	.	32bb-\	.	32bb-\	.
.	.	32A-X\	.	32A-X\yy	.	32A-/	.	32a-X\	.	32aa-X\	.	.	.	.	.	.	32A-\	.	.	.	.	.	.	32a-\	.	32aa-X\	.	32aa-X\	.	32aa-X\	.
.	.	32G\JJJ)	.	32G\JJJ)yy	.	32G/JJJ	.	32g\JJJ	.	32gg\JJJ)	.	.	.	.	.	.	32G\JJJ)	.	.	.	.	.	.	32g\JJJ	.	32gg\JJJ)	.	32ff\JJJ	.	32gg\JJJ	.
4r	.	8F\L	.	8F\Lyy	.	8F/L)	.	8f/L)	.	8ff\L	.	4r	4r	.	4r	.	8F\L	.	4r	.	4r	4ryy	.	8f/L)	.	8ff\L	.	8ee-\L)	.	8ff\L)	.
.	.	(32B-\LL	.	(y32B-\LLyy	.	(32A-/LL	.	(32b-/LL	.	(32bb-\LL	.	.	.	.	.	.	(32B-\LL	.	.	.	.	.	.	(32b-/LL	.	(32bb-\LL	.	(32bb-\LL	.	(32bb-\LL	.
.	.	32A-\	.	32A-\yy	.	32G/	.	32a-/	.	32aa-\	.	.	.	.	.	.	32A-\	.	.	.	.	.	.	32a-/	.	32aa-\	.	32aa-\	.	32aa-\	.
.	.	32G\	.	32G\yy	.	32F/	.	32g/	.	32gg\	.	.	.	.	.	.	32G\	.	.	.	.	.	.	32g/	.	32gg\	.	32gg\	.	32gg\	.
!LO:TX:a:t=[segno]:problem=znak segno na kresce taktowej	!	!LO:TX:a:t=[segno]:problem=znak segno na kresce taktowej	!	!LO:TX:a:t=[segno]:problem=znak segno na kresce taktowej	!	!LO:TX:a:t=[segno]:problem=znak segno na kresce taktowej	!	!LO:TX:a:t=[segno]:problem=znak segno na kresce taktowej	!	!LO:TX:a:t=[segno]:problem=znak segno na kresce taktowej	!	!LO:TX:a:t=[segno]:problem=znak segno na kresce taktowej	!LO:TX:a:t=[segno]:problem=znak segno na kresce taktowej	!	!LO:TX:a:t=[segno]:problem=znak segno na kresce taktowej	!	!LO:TX:a:t=[segno]:problem=znak segno na kresce taktowej	!	!LO:TX:a:t=[segno]:problem=znak segno na kresce taktowej	!	!LO:TX:a:t=[segno]:problem=znak segno na kresce taktowej	!	!	!LO:TX:a:t=[segno]:problem=znak segno na kresce taktowej	!	!LO:TX:a:t=[segno]:problem=znak segno na kresce taktowej	!	!LO:TX:a:t=[segno]:problem=znak segno na kresce taktowej	!	!LO:TX:a:t=[segno]:problem=znak segno na kresce taktowej	!
.	.	32F\JJJ)	.	32F\JJJ)yy	.	32E-/JJJ)	.	32f/JJJ)	.	32ff\JJJ)	.	.	.	.	.	.	32F\JJJ)	.	.	.	.	.	.	32f/JJJ)	.	32ff\JJJ)	.	32ff\JJJ)	.	32ff\JJJ)	.
*	*	*	*	*	*	*	*	*	*	*	*	*	*	*	*	*	*	*	*	*	*v	*v	*	*	*	*	*	*	*	*	*
==	==	==	==	==	==	==	==	==	==	==	==	==	==	==	==	==	==	==	==	==	==	==	==	==	==	==	==	==	==	==
*-	*-	*-	*-	*-	*-	*-	*-	*-	*-	*-	*-	*-	*-	*-	*-	*-	*-	*-	*-	*-	*-	*-	*-	*-	*-	*-	*-	*-	*-	*-
!!!system-decoration: ({s1,s2}s3,s4{s5,s6}s7,s8<s9,s10>{s11,s12}s13{s14,s15}s16)
!!!RDF**kern: > = above
!!!RDF**kern: < = below
!!!RDF**kern: | = vertical stroke
!!!ENC: Marta Lawrence
!!!END: 2021-06-17
!!!ENC: Andrzej Gręziak
!!!END: 2021-06-09
